P3
# Linux4BE BE-300 framebuffer console logo from kernels/2.6.bmp; green channel restored
240 80
255
  0  48 156   0  48 156   0  48 156   0  48 156   0  48 156   0  48 156   0  48 156   0  48 156   0  48 156   0  48 156   0  48 156   0  48 156
  0  48 156   0  48 156   0  48 156   0  48 156   0  48 156   0  48 156   0  48 156   0  48 156   0  48 156   0  48 156   0  48 156   0  48 156
  0  48 156   0  48 156   0  48 156   0  48 156   0  48 156   0  48 156   0  48 156   0  48 156   0  48 156   0  48 156   0  48 156   0  48 156
  0  48 156   0  48 156   0  48 156   0  48 156   0  48 156   0  48 156   0  48 156   0  48 156   0  48 156   0  48 156   0  48 156   0  48 156
  0  48 156   0  48 156   0  48 156   0  48 156   0  48 156   0  48 156   0  48 156   0  48 156   0  48 156   0  48 156   0  48 156   0  48 156
  0  48 156   0  48 156   0  48 156   0  48 156   0  48 156   0  48 156   0  48 156   0  48 156   0  48 156   0  48 156   0  48 156   0  48 156
  0  48 156   0  48 156   0  48 156   0  48 156   0  48 156   0  48 156   0  48 156   0  48 156   0  48 156   0  48 156   0  48 156   0  48 156
  0  48 156   0  48 156   0  48 156   0  48 156   0  48 156   0  48 156   0  48 156   0  48 156   0  48 156   0  48 156   0  48 156   0  48 156
  0  48 156   0  48 156   0  48 156   0  48 156   0  48 156   0  48 156   0  48 156   0  48 156   0  48 156   0  48 156   0  48 156   0  48 156
  0  48 156   0  48 156   0  48 156   0  48 156   0  48 156   0  48 156   0  48 156   0  48 156   0  48 156   0  48 156   0  48 156   0  48 156
  0  48 156   0  48 156   0  48 156   0  48 156   0  48 156   0  48 156   0  48 156   0  48 156   0  48 156   0  48 156   0  48 156   0  48 156
  0  48 156   0  48 156   0  48 156   0  48 156   0  48 156   0  48 156   0  48 156   0  48 156   0  48 156   0  48 156   0  48 156   0  48 156
  0  48 156   0  48 156   0  48 156   0  48 156   0  48 156   0  48 156   0  48 156   0  48 156   0  48 156   0  48 156   0  48 156   0  48 156
  0  48 156   0  48 156   0  48 156   0  48 156   0  48 156   0  48 156   0  48 156   0  48 156   0  48 156   0  48 156   0  48 156   0  48 156
  0  48 156   0  48 156   0  48 156   0  48 156   0  48 156   0  48 156   0  48 156   0  48 156   0  48 156   0  48 156   0  48 156   0  48 156
  0  48 156   0  48 156   0  48 156   0  48 156   0  48 156   0  48 156   0  48 156   0  48 156   0  48 156   0  48 156   0  48 156   0  48 156
  0  48 156   0  48 156   0  48 156   0  48 156   0  48 156   0  48 156   0  48 156   0  48 156   0  48 156   0  48 156   0  48 156   0  48 156
  0  48 156   0  48 156   0  48 156   0  48 156   0  48 156   0  48 156   0  48 156   0  48 156   0  48 156   0  48 156   0  48 156   0  48 156
  0  48 156   0  48 156   0  48 156   0  48 156   0  48 156   0  48 156   0  48 156   0  48 156   0  48 156   0  48 156   0  48 156   0  48 156
  0  48 156   0  48 156   0  48 156   0  48 156   0  48 156   0  48 156   0  48 156   0  48 156   0  48 156   0  48 156   0  48 156   0  48 156
  0  48 156   0  48 156   0  48 156   0  48 156   0  48 156   0  48 156   0  48 156   0  48 156   0  48 156   0  48 156   0  48 156   0  48 156
  0  48 156   0  48 156   0  48 156   0  48 156   0  48 156   0  48 156   0  48 156   0  48 156   0  48 156   0  48 156   0  48 156   0  48 156
  0  48 156   0  48 156   0  48 156   0  48 156   0  48 156   0  48 156   0  48 156   0  48 156   0  48 156   0  48 156   0  48 156   0  48 156
  0  48 156   0  48 156   0  48 156   0  48 156   0  48 156   0  48 156   0  48 156   0  48 156   0  48 156   0  48 156   0  48 156   0  48 156
  0  48 156   0  48 156   0  48 156   0  48 156   0  48 156   0  48 156   0  48 156   0  48 156   0  48 156   0  48 156   0  48 156   0  48 156
  0  48 156   0  48 156   0  48 156   0  48 156   0  48 156   0  48 156   0  48 156   0  48 156   0  48 156   0  48 156   0  48 156   0  48 156
  0  48 156   0  48 156   0  48 156   0  48 156   0  48 156   0  48 156   0  48 156   0  48 156   0  48 156   0  48 156   0  48 156   0  48 156
  0  48 156   0  48 156   0  48 156   0  48 156   0  48 156   0  48 156   0  48 156   0  48 156   0  48 156   0  48 156   0  48 156   0  48 156
  0  48 156   0  48 156   0  48 156   0  48 156   0  48 156   0  48 156   0  48 156   0  48 156   0  48 156   0  48 156   0  48 156   0  48 156
  0  48 156   0  48 156   0  48 156   0  48 156   0  48 156   0  48 156   0  48 156   0  48 156   0  48 156   0  48 156   0  48 156   0  48 156
  0  48 156   0  48 156   0  48 156   0  48 156   0  48 156   0  48 156   0  48 156   0  48 156   0  48 156   0  48 156   0  48 156   0  48 156
  0  48 156   0  48 156   0  48 156   0  48 156   0  48 156   0  48 156   0  48 156   0  48 156   0  48 156   0  48 156   0  48 156   0  48 156
  0  48 156   0  48 156   0  48 156   0  48 156   0  48 156   0  48 156   0  48 156   0  48 156   0  48 156   0  48 156   0  48 156   0  48 156
  0  48 156   0  48 156   0  48 156   0  48 156   0  48 156   0  48 156   0  48 156   0  48 156   0  48 156   0  48 156   0  48 156   0  48 156
  0  48 156   0  48 156   0  48 156   0  48 156   0  48 156   0  48 156   0  48 156   0  48 156   0  48 156   0  48 156   0  48 156   0  48 156
  0  48 156   0  48 156   0  48 156   0  48 156   0  48 156   0  48 156   0  48 156   0  48 156   0  48 156   0  48 156   0  48 156   0  48 156
  0  48 156   0  48 156   0  48 156   0  48 156   0  48 156   0  48 156   0  48 156   0  48 156   0  48 156   0  48 156   0  48 156   0  48 156
  0  48 156   0  48 156   0  48 156   0  48 156   0  48 156   0  48 156   0  48 156   0  48 156   0  48 156   0  48 156   0  48 156   0  48 156
  0  48 156   0  48 156   0  48 156   0  48 156   0  48 156   0  48 156   0  48 156   0  48 156   0  48 156   0  48 156   0  48 156   0  48 156
  0  48 156   0  48 156   0  48 156   0  48 156   0  48 156   0  48 156   0  48 156   0  48 156   0  48 156   0  48 156   0  48 156   0  48 156
  0  48 156   0  48 156   0  48 156   0  48 156   0  48 156   0  48 156   0  48 156   0  48 156   0  48 156   0  48 156   0  48 156   0  48 156
  0  48 156   0  48 156   0  48 156   0  48 156   0  48 156   0  48 156   0  48 156   0  48 156   0  48 156   0  48 156   0  48 156   0  48 156
  0  48 156   0  48 156   0  48 156   0  48 156   0  48 156   0  48 156   0  48 156   0  48 156 238 234 238 255 250 255 255 250 255 255 250 255
255 250 255 255 250 255 255 250 255 255 250 255 255 250 255 255 250 255 255 250 255 255 250 255 255 250 255 255 250 255 238 234 238 238 234 238
  0  48 156   0  48 156   0  48 156   0  48 156   0  48 156   0  48 156   0  48 156   0  48 156   0  48 156   0  48 156   0  48 156   0  48 156
  0  48 156   0  48 156   0  48 156   0  48 156   0  48 156   0  48 156   0  48 156   0  48 156   0  48 156   0  48 156   0  48 156   0  48 156
  0  48 156   0  48 156   0  48 156   0  48 156   0  48 156   0  48 156   0  48 156   0  48 156   0  48 156   0  48 156   0  48 156   0  48 156
  0  48 156   0  48 156   0  48 156   0  48 156   0  48 156   0  48 156   0  48 156   0  48 156   0  48 156   0  48 156   0  48 156   0  48 156
  0  48 156   0  48 156   0  48 156   0  48 156   0  48 156   0  48 156   0  48 156   0  48 156   0  48 156   0  48 156   0  48 156   0  48 156
  0  48 156   0  48 156   0  48 156   0  48 156   0  48 156   0  48 156   0  48 156   0  48 156   0  48 156   0  48 156   0  48 156   0  48 156
  0  48 156   0  48 156   0  48 156   0  48 156   0  48 156   0  48 156   0  48 156   0  48 156   0  48 156   0  48 156   0  48 156   0  48 156
  0  48 156   0  48 156   0  48 156   0  48 156   0  48 156   0  48 156   0  48 156   0  48 156   0  48 156   0  48 156   0  48 156   0  48 156
  0  48 156   0  48 156   0  48 156   0  48 156   0  48 156   0  48 156   0  48 156   0  48 156   0  48 156   0  48 156   0  48 156   0  48 156
  0  48 156   0  48 156   0  48 156   0  48 156   0  48 156   0  48 156   0  48 156   0  48 156   0  48 156   0  48 156   0  48 156   0  48 156
  0  48 156   0  48 156   0  48 156   0  48 156   0  48 156   0  48 156   0  48 156   0  48 156   0  48 156   0  48 156   0  48 156   0  48 156
  0  48 156   0  48 156   0  48 156   0  48 156   0  48 156   0  48 156   0  48 156   0  48 156   0  48 156   0  48 156   0  48 156   0  48 156
  0  48 156   0  48 156   0  48 156   0  48 156   0  48 156   0  48 156   0  48 156   0  48 156   0  48 156   0  48 156   0  48 156   0  48 156
  0  48 156   0  48 156   0  48 156   0  48 156   0  48 156   0  48 156   0  48 156   0  48 156   0  48 156   0  48 156   0  48 156   0  48 156
  0  48 156   0  48 156   0  48 156   0  48 156   0  48 156   0  48 156   0  48 156   0  48 156   0  48 156   0  48 156   0  48 156   0  48 156
  0  48 156   0  48 156   0  48 156   0  48 156   0  48 156   0  48 156   0  48 156   0  48 156   0  48 156   0  48 156   0  48 156   0  48 156
  0  48 156   0  48 156   0  48 156   0  48 156   0  48 156   0  48 156   0  48 156   0  48 156   0  48 156   0  48 156   0  48 156   0  48 156
  0  48 156   0  48 156   0  48 156   0  48 156   0  48 156   0  48 156   0  48 156   0  48 156   0  48 156   0  48 156   0  48 156   0  48 156
  0  48 156   0  48 156   0  48 156   0  48 156 255 250 255 255 250 255 255 250 255 255 250 255 255 250 255 255 250 255 255 250 255 255 250 255
255 250 255 255 250 255 255 250 255 255 250 255 255 250 255 255 250 255 255 250 255 255 250 255 255 250 255 255 250 255 255 250 255 255 250 255
255 250 255 255 250 255 255 250 255 238 234 238   0  48 156   0  48 156   0  48 156   0  48 156   0  48 156   0  48 156   0  48 156   0  48 156
  0  48 156   0  48 156   0  48 156   0  48 156   0  48 156   0  48 156   0  48 156   0  48 156   0  48 156   0  48 156   0  48 156   0  48 156
  0  48 156   0  48 156   0  48 156   0  48 156   0  48 156   0  48 156   0  48 156   0  48 156   0  48 156   0  48 156   0  48 156   0  48 156
  0  48 156   0  48 156   0  48 156   0  48 156   0  48 156   0  48 156   0  48 156   0  48 156   0  48 156   0  48 156   0  48 156   0  48 156
  0  48 156   0  48 156   0  48 156   0  48 156   0  48 156   0  48 156   0  48 156   0  48 156   0  48 156   0  48 156   0  48 156   0  48 156
  0  48 156   0  48 156   0  48 156   0  48 156   0  48 156   0  48 156   0  48 156   0  48 156   0  48 156   0  48 156   0  48 156   0  48 156
  0  48 156   0  48 156   0  48 156   0  48 156   0  48 156   0  48 156   0  48 156   0  48 156   0  48 156   0  48 156   0  48 156   0  48 156
  0  48 156   0  48 156   0  48 156   0  48 156   0  48 156   0  48 156   0  48 156   0  48 156   0  48 156   0  48 156   0  48 156   0  48 156
  0  48 156   0  48 156   0  48 156   0  48 156   0  48 156   0  48 156   0  48 156   0  48 156   0  48 156   0  48 156   0  48 156   0  48 156
  0  48 156   0  48 156   0  48 156   0  48 156   0  48 156   0  48 156   0  48 156   0  48 156   0  48 156   0  48 156   0  48 156   0  48 156
  0  48 156   0  48 156   0  48 156   0  48 156   0  48 156   0  48 156   0  48 156   0  48 156   0  48 156   0  48 156   0  48 156   0  48 156
  0  48 156   0  48 156   0  48 156   0  48 156   0  48 156   0  48 156   0  48 156   0  48 156   0  48 156   0  48 156   0  48 156   0  48 156
  0  48 156   0  48 156   0  48 156   0  48 156   0  48 156   0  48 156   0  48 156   0  48 156   0  48 156   0  48 156   0  48 156   0  48 156
  0  48 156   0  48 156   0  48 156   0  48 156   0  48 156   0  48 156   0  48 156   0  48 156   0  48 156   0  48 156   0  48 156   0  48 156
  0  48 156   0  48 156   0  48 156   0  48 156   0  48 156   0  48 156   0  48 156   0  48 156   0  48 156   0  48 156   0  48 156   0  48 156
  0  48 156   0  48 156   0  48 156   0  48 156   0  48 156   0  48 156   0  48 156   0  48 156   0  48 156   0  48 156   0  48 156   0  48 156
  0  48 156   0  48 156   0  48 156   0  48 156   0  48 156   0  48 156   0  48 156   0  48 156   0  48 156   0  48 156   0  48 156   0  48 156
  0  48 156   0  48 156   0  48 156   0  48 156   0  48 156   0  48 156   0  48 156   0  48 156   0  48 156   0  48 156   0  48 156   0  48 156
  0  48 156 255 250 255 255 250 255 255 250 255 255 250 255 255 250 255 255 250 255 255 250 255 255 250 255 255 250 255 255 250 255 255 250 255
255 250 255 255 250 255 255 250 255 255 250 255 255 250 255 255 250 255 255 250 255 255 250 255 255 250 255 255 250 255 255 250 255 255 250 255
255 250 255 255 250 255 255 250 255 255 250 255 255 250 255 255 250 255 238 234 238   0  48 156   0  48 156   0  48 156   0  48 156   0  48 156
  0  48 156   0  48 156   0  48 156   0  48 156   0  48 156   0  48 156   0  48 156   0  48 156   0  48 156   0  48 156   0  48 156   0  48 156
  0  48 156   0  48 156   0  48 156   0  48 156   0  48 156   0  48 156   0  48 156   0  48 156   0  48 156   0  48 156   0  48 156   0  48 156
  0  48 156   0  48 156   0  48 156   0  48 156   0  48 156   0  48 156   0  48 156   0  48 156   0  48 156   0  48 156   0  48 156   0  48 156
  0  48 156   0  48 156   0  48 156   0  48 156   0  48 156   0  48 156   0  48 156   0  48 156   0  48 156   0  48 156   0  48 156   0  48 156
  0  48 156   0  48 156   0  48 156   0  48 156   0  48 156   0  48 156   0  48 156   0  48 156   0  48 156   0  48 156   0  48 156   0  48 156
  0  48 156   0  48 156   0  48 156   0  48 156   0  48 156   0  48 156   0  48 156   0  48 156   0  48 156   0  48 156   0  48 156   0  48 156
  0  48 156   0  48 156   0  48 156   0  48 156   0  48 156   0  48 156   0  48 156   0  48 156   0  48 156   0  48 156   0  48 156   0  48 156
  0  48 156   0  48 156   0  48 156   0  48 156   0  48 156   0  48 156   0  48 156   0  48 156   0  48 156   0  48 156   0  48 156   0  48 156
  0  48 156   0  48 156   0  48 156   0  48 156   0  48 156   0  48 156   0  48 156   0  48 156   0  48 156   0  48 156   0  48 156   0  48 156
  0  48 156   0  48 156   0  48 156   0  48 156   0  48 156   0  48 156   0  48 156   0  48 156   0  48 156   0  48 156   0  48 156   0  48 156
  0  48 156   0  48 156   0  48 156   0  48 156   0  48 156   0  48 156   0  48 156   0  48 156   0  48 156   0  48 156   0  48 156   0  48 156
  0  48 156   0  48 156   0  48 156   0  48 156   0  48 156   0  48 156   0  48 156   0  48 156   0  48 156   0  48 156   0  48 156   0  48 156
  0  48 156   0  48 156   0  48 156   0  48 156   0  48 156   0  48 156   0  48 156   0  48 156   0  48 156   0  48 156   0  48 156   0  48 156
  0  48 156   0  48 156   0  48 156   0  48 156   0  48 156   0  48 156   0  48 156   0  48 156   0  48 156   0  48 156   0  48 156   0  48 156
  0  48 156   0  48 156   0  48 156   0  48 156   0  48 156   0  48 156   0  48 156   0  48 156   0  48 156   0  48 156   0  48 156   0  48 156
  0  48 156   0  48 156   0  48 156   0  48 156   0  48 156   0  48 156   0  48 156   0  48 156   0  48 156   0  48 156   0  48 156   0  48 156
  0  48 156   0  48 156   0  48 156   0  48 156   0  48 156   0  48 156   0  48 156   0  48 156   0  48 156   0  48 156 238 234 238 255 250 255
255 250 255 255 250 255 255 250 255 255 250 255 255 250 255 255 250 255 255 250 255 255 250 255 255 250 255 255 250 255 255 250 255 255 250 255
255 250 255 255 250 255 255 250 255 255 250 255 255 250 255 255 250 255 255 250 255 255 250 255 255 250 255 255 250 255 255 250 255 255 250 255
255 250 255 255 250 255 255 250 255 255 250 255 255 250 255 255 250 255 255 250 255 255 250 255 255 250 255   0  48 156   0  48 156   0  48 156
  0  48 156   0  48 156   0  48 156   0  48 156   0  48 156   0  48 156   0  48 156   0  48 156   0  48 156   0  48 156   0  48 156   0  48 156
  0  48 156   0  48 156   0  48 156   0  48 156   0  48 156   0  48 156   0  48 156   0  48 156   0  48 156   0  48 156   0  48 156   0  48 156
  0  48 156   0  48 156   0  48 156   0  48 156   0  48 156   0  48 156   0  48 156   0  48 156   0  48 156   0  48 156   0  48 156   0  48 156
  0  48 156   0  48 156   0  48 156   0  48 156   0  48 156   0  48 156   0  48 156   0  48 156   0  48 156   0  48 156   0  48 156   0  48 156
  0  48 156   0  48 156   0  48 156   0  48 156   0  48 156   0  48 156   0  48 156   0  48 156   0  48 156   0  48 156   0  48 156   0  48 156
  0  48 156   0  48 156   0  48 156   0  48 156   0  48 156   0  48 156   0  48 156   0  48 156   0  48 156   0  48 156   0  48 156   0  48 156
  0  48 156   0  48 156   0  48 156   0  48 156   0  48 156   0  48 156   0  48 156   0  48 156   0  48 156   0  48 156   0  48 156   0  48 156
  0  48 156   0  48 156   0  48 156   0  48 156   0  48 156   0  48 156   0  48 156   0  48 156   0  48 156   0  48 156   0  48 156   0  48 156
  0  48 156   0  48 156   0  48 156   0  48 156   0  48 156   0  48 156   0  48 156   0  48 156   0  48 156   0  48 156   0  48 156   0  48 156
  0  48 156   0  48 156   0  48 156   0  48 156   0  48 156   0  48 156   0  48 156   0  48 156   0  48 156   0  48 156   0  48 156   0  48 156
  0  48 156   0  48 156   0  48 156   0  48 156   0  48 156   0  48 156   0  48 156   0  48 156   0  48 156   0  48 156   0  48 156   0  48 156
  0  48 156   0  48 156   0  48 156   0  48 156   0  48 156   0  48 156   0  48 156   0  48 156   0  48 156   0  48 156   0  48 156   0  48 156
  0  48 156   0  48 156   0  48 156   0  48 156   0  48 156   0  48 156   0  48 156   0  48 156   0  48 156   0  48 156   0  48 156   0  48 156
  0  48 156   0  48 156   0  48 156   0  48 156   0  48 156   0  48 156   0  48 156   0  48 156   0  48 156   0  48 156   0  48 156   0  48 156
  0  48 156   0  48 156   0  48 156   0  48 156   0  48 156   0  48 156   0  48 156   0  48 156   0  48 156   0  48 156   0  48 156   0  48 156
  0  48 156   0  48 156   0  48 156   0  48 156   0  48 156   0  48 156   0  48 156   0  48 156   0  48 156   0  48 156   0  48 156   0  48 156
  0  48 156   0  48 156   0  48 156   0  48 156   0  48 156   0  48 156   0  48 156   0  48 156 238 234 238 255 250 255 255 250 255 255 250 255
255 250 255 255 250 255 255 250 255 255 250 255 255 250 255 255 250 255 255 250 255 255 250 255 255 250 255 255 250 255 255 250 255 255 250 255
255 250 255 255 250 255 255 250 255 255 250 255 255 250 255 255 250 255 255 250 255 255 250 255 255 250 255 255 250 255 255 250 255 255 250 255
255 250 255 255 250 255 255 250 255 255 250 255 255 250 255 255 250 255 255 250 255 255 250 255 255 250 255 255 250 255 255 250 255   0  48 156
  0  48 156   0  48 156   0  48 156   0  48 156   0  48 156   0  48 156   0  48 156   0  48 156   0  48 156   0  48 156   0  48 156   0  48 156
  0  48 156   0  48 156   0  48 156   0  48 156   0  48 156   0  48 156   0  48 156   0  48 156   0  48 156   0  48 156   0  48 156   0  48 156
  0  48 156   0  48 156   0  48 156   0  48 156   0  48 156   0  48 156   0  48 156   0  48 156   0  48 156   0  48 156   0  48 156   0  48 156
  0  48 156   0  48 156   0  48 156   0  48 156   0  48 156   0  48 156   0  48 156   0  48 156   0  48 156   0  48 156   0  48 156   0  48 156
  0  48 156   0  48 156   0  48 156   0  48 156   0  48 156   0  48 156   0  48 156   0  48 156   0  48 156   0  48 156   0  48 156   0  48 156
  0  48 156   0  48 156   0  48 156   0  48 156   0  48 156   0  48 156   0  48 156   0  48 156   0  48 156   0  48 156   0  48 156   0  48 156
  0  48 156   0  48 156   0  48 156   0  48 156   0  48 156   0  48 156   0  48 156   0  48 156   0  48 156   0  48 156   0  48 156   0  48 156
  0  48 156   0  48 156   0  48 156   0  48 156   0  48 156   0  48 156   0  48 156   0  48 156   0  48 156   0  48 156   0  48 156   0  48 156
  0  48 156   0  48 156   0  48 156   0  48 156   0  48 156   0  48 156   0  48 156   0  48 156   0  48 156   0  48 156   0  48 156   0  48 156
  0  48 156   0  48 156   0  48 156   0  48 156   0  48 156   0  48 156   0  48 156   0  48 156   0  48 156   0  48 156   0  48 156   0  48 156
  0  48 156   0  48 156   0  48 156   0  48 156   0  48 156   0  48 156   0  48 156   0  48 156   0  48 156   0  48 156   0  48 156   0  48 156
  0  48 156   0  48 156   0  48 156   0  48 156   0  48 156   0  48 156   0  48 156   0  48 156   0  48 156   0  48 156   0  48 156   0  48 156
  0  48 156   0  48 156   0  48 156   0  48 156   0  48 156   0  48 156   0  48 156   0  48 156   0  48 156   0  48 156   0  48 156   0  48 156
  0  48 156   0  48 156   0  48 156   0  48 156   0  48 156   0  48 156   0  48 156   0  48 156   0  48 156   0  48 156   0  48 156   0  48 156
  0  48 156   0  48 156   0  48 156   0  48 156   0  48 156   0  48 156   0  48 156   0  48 156   0  48 156   0  48 156   0  48 156   0  48 156
  0  48 156   0  48 156   0  48 156   0  48 156   0  48 156   0  48 156   0  48 156   0  48 156   0  48 156   0  48 156   0  48 156   0  48 156
  0  48 156   0  48 156   0  48 156   0  48 156   0  48 156   0  48 156   0  48 156 255 250 255 255 250 255 255 250 255 255 250 255 255 250 255
255 250 255 255 250 255 255 250 255 255 250 255 255 250 255 255 250 255 255 250 255 255 250 255 255 250 255 255 250 255 255 250 255 255 250 255
255 250 255 255 250 255 255 250 255 255 250 255 255 250 255 255 250 255 255 250 255 255 250 255 255 250 255 255 250 255 255 250 255 255 250 255
255 250 255 255 250 255 255 250 255 255 250 255 255 250 255 255 250 255 255 250 255 255 250 255 255 250 255 255 250 255 255 250 255 255 250 255
255 250 255   0  48 156   0  48 156   0  48 156   0  48 156   0  48 156   0  48 156   0  48 156   0  48 156   0  48 156   0  48 156   0  48 156
  0  48 156   0  48 156   0  48 156   0  48 156   0  48 156   0  48 156   0  48 156   0  48 156   0  48 156   0  48 156   0  48 156   0  48 156
  0  48 156   0  48 156   0  48 156   0  48 156   0  48 156   0  48 156   0  48 156   0  48 156   0  48 156   0  48 156   0  48 156   0  48 156
  0  48 156   0  48 156   0  48 156   0  48 156   0  48 156   0  48 156   0  48 156   0  48 156   0  48 156   0  48 156   0  48 156   0  48 156
  0  48 156   0  48 156   0  48 156   0  48 156   0  48 156   0  48 156   0  48 156   0  48 156   0  48 156   0  48 156   0  48 156   0  48 156
  0  48 156   0  48 156   0  48 156   0  48 156   0  48 156   0  48 156   0  48 156   0  48 156   0  48 156   0  48 156   0  48 156   0  48 156
  0  48 156   0  48 156   0  48 156   0  48 156   0  48 156   0  48 156   0  48 156   0  48 156   0  48 156   0  48 156   0  48 156   0  48 156
  0  48 156   0  48 156   0  48 156   0  48 156   0  48 156   0  48 156   0  48 156   0  48 156   0  48 156   0  48 156   0  48 156   0  48 156
  0  48 156   0  48 156   0  48 156   0  48 156   0  48 156   0  48 156   0  48 156   0  48 156   0  48 156   0  48 156   0  48 156   0  48 156
  0  48 156   0  48 156   0  48 156   0  48 156   0  48 156   0  48 156   0  48 156   0  48 156   0  48 156   0  48 156   0  48 156   0  48 156
  0  48 156   0  48 156   0  48 156   0  48 156   0  48 156   0  48 156   0  48 156   0  48 156   0  48 156   0  48 156   0  48 156   0  48 156
  0  48 156   0  48 156   0  48 156   0  48 156   0  48 156   0  48 156   0  48 156   0  48 156   0  48 156   0  48 156   0  48 156   0  48 156
  0  48 156   0  48 156   0  48 156   0  48 156   0  48 156   0  48 156   0  48 156   0  48 156   0  48 156   0  48 156   0  48 156   0  48 156
  0  48 156   0  48 156   0  48 156   0  48 156   0  48 156   0  48 156   0  48 156   0  48 156   0  48 156   0  48 156   0  48 156   0  48 156
  0  48 156   0  48 156   0  48 156   0  48 156   0  48 156   0  48 156   0  48 156   0  48 156   0  48 156   0  48 156   0  48 156   0  48 156
  0  48 156   0  48 156   0  48 156   0  48 156   0  48 156   0  48 156   0  48 156   0  48 156   0  48 156   0  48 156   0  48 156   0  48 156
  0  48 156   0  48 156   0  48 156   0  48 156   0  48 156 255 250 255 255 250 255 255 250 255 255 250 255 255 250 255 255 250 255 255 250 255
255 250 255 255 250 255 255 250 255 255 250 255 255 250 255 255 250 255 255 250 255 255 250 255 255 250 255 255 250 255 255 250 255 255 250 255
255 250 255 255 250 255 255 250 255 255 250 255 255 250 255 255 250 255 255 250 255 255 250 255 255 250 255 255 250 255 255 250 255 255 250 255
255 250 255 255 250 255 255 250 255 255 250 255 255 250 255 255 250 255 255 250 255 255 250 255 255 250 255 255 250 255 255 250 255 255 250 255
255 250 255 255 250 255 238 234 238   0  48 156   0  48 156   0  48 156   0  48 156   0  48 156   0  48 156   0  48 156   0  48 156   0  48 156
  0  48 156   0  48 156   0  48 156   0  48 156   0  48 156   0  48 156   0  48 156   0  48 156   0  48 156   0  48 156   0  48 156   0  48 156
  0  48 156   0  48 156   0  48 156   0  48 156   0  48 156   0  48 156   0  48 156   0  48 156   0  48 156   0  48 156   0  48 156   0  48 156
  0  48 156   0  48 156   0  48 156   0  48 156   0  48 156   0  48 156   0  48 156   0  48 156   0  48 156   0  48 156   0  48 156   0  48 156
  0  48 156   0  48 156   0  48 156   0  48 156   0  48 156   0  48 156   0  48 156   0  48 156   0  48 156   0  48 156   0  48 156   0  48 156
  0  48 156   0  48 156   0  48 156   0  48 156   0  48 156   0  48 156   0  48 156   0  48 156   0  48 156   0  48 156   0  48 156   0  48 156
  0  48 156   0  48 156   0  48 156   0  48 156   0  48 156   0  48 156   0  48 156   0  48 156   0  48 156   0  48 156   0  48 156   0  48 156
  0  48 156   0  48 156   0  48 156   0  48 156   0  48 156   0  48 156   0  48 156   0  48 156   0  48 156   0  48 156   0  48 156   0  48 156
  0  48 156   0  48 156   0  48 156   0  48 156   0  48 156   0  48 156   0  48 156   0  48 156   0  48 156   0  48 156   0  48 156   0  48 156
  0  48 156   0  48 156   0  48 156   0  48 156   0  48 156   0  48 156   0  48 156   0  48 156   0  48 156   0  48 156   0  48 156   0  48 156
  0  48 156   0  48 156   0  48 156   0  48 156   0  48 156   0  48 156   0  48 156   0  48 156   0  48 156   0  48 156   0  48 156   0  48 156
  0  48 156   0  48 156   0  48 156   0  48 156   0  48 156   0  48 156   0  48 156   0  48 156   0  48 156   0  48 156   0  48 156   0  48 156
  0  48 156   0  48 156   0  48 156   0  48 156   0  48 156   0  48 156   0  48 156   0  48 156   0  48 156   0  48 156   0  48 156   0  48 156
  0  48 156   0  48 156   0  48 156   0  48 156   0  48 156   0  48 156   0  48 156   0  48 156   0  48 156   0  48 156   0  48 156   0  48 156
  0  48 156   0  48 156   0  48 156   0  48 156   0  48 156   0  48 156   0  48 156   0  48 156   0  48 156   0  48 156   0  48 156   0  48 156
  0  48 156   0  48 156   0  48 156   0  48 156   0  48 156   0  48 156   0  48 156   0  48 156   0  48 156   0  48 156   0  48 156   0  48 156
  0  48 156   0  48 156   0  48 156   0  48 156 255 250 255 255 250 255 255 250 255 255 250 255 255 250 255 255 250 255 255 250 255 255 250 255
255 250 255 255 250 255 255 250 255 255 250 255 255 250 255 255 250 255 255 250 255 255 250 255 255 250 255 255 250 255 255 250 255 255 250 255
255 250 255 255 250 255 255 250 255 255 250 255 255 250 255 255 250 255 255 250 255 255 250 255 255 250 255 255 250 255 255 250 255 255 250 255
255 250 255 255 250 255 255 250 255 255 250 255 255 250 255 255 250 255 255 250 255 255 250 255 255 250 255 255 250 255 255 250 255 255 250 255
255 250 255 255 250 255 255 250 255 255 250 255   0  48 156   0  48 156   0  48 156   0  48 156   0  48 156   0  48 156   0  48 156   0  48 156
  0  48 156   0  48 156   0  48 156   0  48 156   0  48 156   0  48 156   0  48 156   0  48 156   0  48 156   0  48 156   0  48 156   0  48 156
  0  48 156   0  48 156   0  48 156   0  48 156   0  48 156   0  48 156   0  48 156   0  48 156   0  48 156   0  48 156   0  48 156   0  48 156
  0  48 156   0  48 156   0  48 156   0  48 156   0  48 156   0  48 156   0  48 156   0  48 156   0  48 156   0  48 156   0  48 156   0  48 156
  0  48 156   0  48 156   0  48 156   0  48 156   0  48 156   0  48 156   0  48 156   0  48 156   0  48 156   0  48 156   0  48 156   0  48 156
  0  48 156   0  48 156   0  48 156   0  48 156   0  48 156   0  48 156   0  48 156   0  48 156   0  48 156   0  48 156   0  48 156   0  48 156
  0  48 156   0  48 156   0  48 156   0  48 156   0  48 156   0  48 156   0  48 156   0  48 156   0  48 156   0  48 156   0  48 156   0  48 156
  0  48 156   0  48 156   0  48 156   0  48 156   0  48 156   0  48 156   0  48 156   0  48 156   0  48 156   0  48 156   0  48 156   0  48 156
  0  48 156   0  48 156   0  48 156   0  48 156   0  48 156   0  48 156   0  48 156   0  48 156   0  48 156   0  48 156   0  48 156   0  48 156
  0  48 156   0  48 156   0  48 156   0  48 156   0  48 156   0  48 156   0  48 156   0  48 156   0  48 156   0  48 156   0  48 156   0  48 156
  0  48 156   0  48 156   0  48 156   0  48 156   0  48 156   0  48 156   0  48 156   0  48 156   0  48 156   0  48 156   0  48 156   0  48 156
  0  48 156   0  48 156   0  48 156   0  48 156   0  48 156   0  48 156   0  48 156   0  48 156   0  48 156   0  48 156   0  48 156   0  48 156
  0  48 156   0  48 156   0  48 156   0  48 156   0  48 156   0  48 156   0  48 156   0  48 156   0  48 156   0  48 156   0  48 156   0  48 156
  0  48 156   0  48 156   0  48 156   0  48 156   0  48 156   0  48 156   0  48 156   0  48 156   0  48 156   0  48 156   0  48 156   0  48 156
  0  48 156   0  48 156   0  48 156   0  48 156   0  48 156   0  48 156   0  48 156   0  48 156   0  48 156   0  48 156   0  48 156   0  48 156
  0  48 156   0  48 156   0  48 156   0  48 156   0  48 156   0  48 156   0  48 156   0  48 156   0  48 156   0  48 156   0  48 156   0  48 156
  0  48 156   0  48 156 238 234 238 255 250 255 255 250 255 255 250 255 255 250 255 255 250 255 255 250 255 255 250 255 255 250 255 255 250 255
255 250 255 255 250 255 255 250 255 255 250 255 255 250 255 255 250 255 255 250 255 255 250 255 255 250 255 255 250 255 255 250 255 255 250 255
255 250 255 255 250 255 255 250 255 255 250 255 255 250 255  98  96  98 156 152 156 238 234 238 255 250 255 255 250 255 255 250 255 255 250 255
255 250 255 255 250 255 255 250 255 255 250 255 255 250 255 255 250 255 255 250 255 255 250 255 255 250 255 255 250 255 255 250 255 255 250 255
255 250 255 255 250 255 255 250 255 255 250 255 255 250 255   0  48 156   0  48 156   0  48 156   0  48 156   0  48 156   0  48 156   0  48 156
  0  48 156   0  48 156   0  48 156   0  48 156   0  48 156   0  48 156   0  48 156   0  48 156   0  48 156   0  48 156   0  48 156   0  48 156
  0  48 156   0  48 156   0  48 156   0  48 156   0  48 156   0  48 156   0  48 156   0  48 156   0  48 156   0  48 156   0  48 156   0  48 156
  0  48 156   0  48 156   0  48 156   0  48 156   0  48 156   0  48 156   0  48 156   0  48 156   0  48 156   0  48 156   0  48 156   0  48 156
  0  48 156   0  48 156   0  48 156   0  48 156   0  48 156   0  48 156   0  48 156   0  48 156   0  48 156   0  48 156   0  48 156   0  48 156
  0  48 156   0  48 156   0  48 156   0  48 156   0  48 156   0  48 156   0  48 156   0  48 156   0  48 156   0  48 156   0  48 156   0  48 156
  0  48 156   0  48 156   0  48 156   0  48 156   0  48 156   0  48 156   0  48 156   0  48 156   0  48 156   0  48 156   0  48 156   0  48 156
  0  48 156   0  48 156   0  48 156   0  48 156   0  48 156   0  48 156   0  48 156   0  48 156   0  48 156   0  48 156   0  48 156   0  48 156
  0  48 156   0  48 156   0  48 156   0  48 156   0  48 156   0  48 156   0  48 156   0  48 156   0  48 156   0  48 156   0  48 156   0  48 156
  0  48 156   0  48 156   0  48 156   0  48 156   0  48 156   0  48 156   0  48 156   0  48 156   0  48 156   0  48 156   0  48 156   0  48 156
  0  48 156   0  48 156   0  48 156   0  48 156   0  48 156   0  48 156   0  48 156   0  48 156   0  48 156   0  48 156   0  48 156   0  48 156
  0  48 156   0  48 156   0  48 156   0  48 156   0  48 156   0  48 156   0  48 156   0  48 156   0  48 156   0  48 156   0  48 156   0  48 156
  0  48 156   0  48 156   0  48 156   0  48 156   0  48 156   0  48 156   0  48 156   0  48 156   0  48 156   0  48 156   0  48 156   0  48 156
  0  48 156   0  48 156   0  48 156   0  48 156   0  48 156   0  48 156   0  48 156   0  48 156   0  48 156   0  48 156   0  48 156   0  48 156
  0  48 156   0  48 156   0  48 156   0  48 156   0  48 156   0  48 156   0  48 156   0  48 156   0  48 156   0  48 156   0  48 156   0  48 156
  0  48 156   0  48 156   0  48 156   0  48 156   0  48 156   0  48 156   0  48 156   0  48 156   0  48 156   0  48 156   0  48 156   0  48 156
  0  48 156 255 250 255 255 250 255 255 250 255 255 250 255 255 250 255 255 250 255 255 250 255 255 250 255 255 250 255 255 250 255 255 250 255
255 250 255 255 250 255 255 250 255 255 250 255 255 250 255 255 250 255 255 250 255 255 250 255 255 250 255 255 250 255 255 250 255 255 250 255
255 250 255 255 250 255 255 250 255 205 202 205  49  48  49   0   0   0   0   0   0   0   0   0  98  96  98 238 234 238 255 250 255 255 250 255
255 250 255 255 250 255 255 250 255 255 250 255 255 250 255 255 250 255 255 250 255 255 250 255 255 250 255 255 250 255 255 250 255 255 250 255
255 250 255 255 250 255 255 250 255 255 250 255 255 250 255 255 250 255 238 234 238   0  48 156   0  48 156   0  48 156   0  48 156   0  48 156
  0  48 156   0  48 156   0  48 156   0  48 156   0  48 156   0  48 156   0  48 156   0  48 156   0  48 156   0  48 156   0  48 156   0  48 156
  0  48 156   0  48 156   0  48 156   0  48 156   0  48 156   0  48 156   0  48 156   0  48 156   0  48 156   0  48 156   0  48 156   0  48 156
  0  48 156   0  48 156   0  48 156   0  48 156   0  48 156   0  48 156   0  48 156   0  48 156   0  48 156   0  48 156   0  48 156   0  48 156
  0  48 156   0  48 156   0  48 156   0  48 156   0  48 156   0  48 156   0  48 156   0  48 156   0  48 156   0  48 156   0  48 156   0  48 156
  0  48 156   0  48 156   0  48 156   0  48 156   0  48 156   0  48 156   0  48 156   0  48 156   0  48 156   0  48 156   0  48 156   0  48 156
  0  48 156   0  48 156   0  48 156   0  48 156   0  48 156   0  48 156   0  48 156   0  48 156   0  48 156   0  48 156   0  48 156   0  48 156
  0  48 156   0  48 156   0  48 156   0  48 156   0  48 156   0  48 156   0  48 156   0  48 156   0  48 156   0  48 156   0  48 156   0  48 156
  0  48 156   0  48 156   0  48 156   0  48 156   0  48 156   0  48 156   0  48 156   0  48 156   0  48 156   0  48 156   0  48 156   0  48 156
  0  48 156   0  48 156   0  48 156   0  48 156   0  48 156   0  48 156   0  48 156   0  48 156   0  48 156   0  48 156   0  48 156   0  48 156
  0  48 156   0  48 156   0  48 156   0  48 156   0  48 156   0  48 156   0  48 156   0  48 156   0  48 156   0  48 156   0  48 156   0  48 156
  0  48 156   0  48 156   0  48 156   0  48 156   0  48 156   0  48 156   0  48 156   0  48 156   0  48 156   0  48 156   0  48 156   0  48 156
  0  48 156   0  48 156   0  48 156   0  48 156   0  48 156   0  48 156   0  48 156   0  48 156   0  48 156   0  48 156   0  48 156   0  48 156
  0  48 156   0  48 156   0  48 156   0  48 156   0  48 156   0  48 156   0  48 156   0  48 156   0  48 156   0  48 156   0  48 156   0  48 156
  0  48 156   0  48 156   0  48 156   0  48 156   0  48 156   0  48 156   0  48 156   0  48 156   0  48 156   0  48 156   0  48 156   0  48 156
  0  48 156   0  48 156   0  48 156   0  48 156   0  48 156   0  48 156   0  48 156   0  48 156   0  48 156   0  48 156   0  48 156   0  48 156
255 250 255 255 250 255 255 250 255 255 250 255 255 250 255 255 250 255 255 250 255 255 250 255 255 250 255 255 250 255 255 250 255 255 250 255
255 250 255 255 250 255 255 250 255 255 250 255 255 250 255 255 250 255 255 250 255 255 250 255 255 250 255 255 250 255 255 250 255 255 250 255
255 250 255 255 250 255 180 170 180 180 170 180 156 152 156  49  48  49   0   0   0   0   0   0   0   0   0  74  64  65 205 202 205 255 250 255
238 234 238 255 250 255 255 250 255 255 250 255 255 250 255 255 250 255 255 250 255 255 250 255 255 250 255 255 250 255 255 250 255 255 250 255
255 250 255 255 250 255 255 250 255 255 250 255 255 250 255 255 250 255 255 250 255 238 234 238   0  48 156   0  48 156   0  48 156   0  48 156
  0  48 156   0  48 156   0  48 156   0  48 156   0  48 156   0  48 156   0  48 156   0  48 156   0  48 156   0  48 156   0  48 156   0  48 156
  0  48 156   0  48 156   0  48 156   0  48 156   0  48 156   0  48 156   0  48 156   0  48 156   0  48 156   0  48 156   0  48 156   0  48 156
  0  48 156   0  48 156   0  48 156   0  48 156   0  48 156   0  48 156   0  48 156   0  48 156   0  48 156   0  48 156   0  48 156   0  48 156
  0  48 156   0  48 156   0  48 156   0  48 156   0  48 156   0  48 156   0  48 156   0  48 156   0  48 156   0  48 156   0  48 156   0  48 156
  0  48 156   0  48 156   0  48 156   0  48 156   0  48 156   0  48 156   0  48 156   0  48 156   0  48 156   0  48 156   0  48 156   0  48 156
  0  48 156   0  48 156   0  48 156   0  48 156   0  48 156   0  48 156   0  48 156   0  48 156   0  48 156   0  48 156   0  48 156   0  48 156
  0  48 156   0  48 156   0  48 156   0  48 156   0  48 156   0  48 156   0  48 156   0  48 156   0  48 156   0  48 156   0  48 156   0  48 156
  0  48 156   0  48 156   0  48 156   0  48 156   0  48 156   0  48 156   0  48 156   0  48 156   0  48 156   0  48 156   0  48 156   0  48 156
  0  48 156   0  48 156   0  48 156   0  48 156   0  48 156   0  48 156   0  48 156   0  48 156   0  48 156   0  48 156   0  48 156   0  48 156
  0  48 156   0  48 156   0  48 156   0  48 156   0  48 156   0  48 156   0  48 156   0  48 156   0  48 156   0  48 156   0  48 156   0  48 156
  0  48 156   0  48 156   0  48 156   0  48 156   0  48 156   0  48 156   0  48 156   0  48 156   0  48 156   0  48 156   0  48 156   0  48 156
  0  48 156   0  48 156   0  48 156   0  48 156   0  48 156   0  48 156   0  48 156   0  48 156   0  48 156   0  48 156   0  48 156   0  48 156
  0  48 156   0  48 156   0  48 156   0  48 156   0  48 156   0  48 156   0  48 156   0  48 156   0  48 156   0  48 156   0  48 156   0  48 156
  0  48 156   0  48 156   0  48 156   0  48 156   0  48 156   0  48 156   0  48 156   0  48 156   0  48 156   0  48 156   0  48 156   0  48 156
  0  48 156   0  48 156   0  48 156   0  48 156   0  48 156   0  48 156   0  48 156   0  48 156   0  48 156   0  48 156   0  48 156 255 250 255
255 250 255 255 250 255 255 250 255 255 250 255 255 250 255 255 250 255 255 250 255 255 250 255 255 250 255 255 250 255 255 250 255 255 250 255
255 250 255 255 250 255 255 250 255 255 250 255 255 250 255 255 250 255 255 250 255 255 250 255 255 250 255 255 250 255 255 250 255 255 250 255
255 250 255 255 250 255 180 170 180 205 202 205 205 202 205 205 202 205 156 152 156  49  48  49   0   0   0   0   0   0  49  48  49 180 170 180
255 250 255 238 234 238 255 250 255 255 250 255 255 250 255 255 250 255 255 250 255 255 250 255 255 250 255 255 250 255 255 250 255 255 250 255
255 250 255 255 250 255 255 250 255 255 250 255 255 250 255 255 250 255 255 250 255 255 250 255 238 234 238   0  48 156   0  48 156   0  48 156
  0  48 156   0  48 156   0  48 156   0  48 156   0  48 156   0  48 156   0  48 156   0  48 156   0  48 156   0  48 156   0  48 156   0  48 156
  0  48 156   0  48 156   0  48 156   0  48 156   0  48 156   0  48 156   0  48 156   0  48 156   0  48 156   0  48 156   0  48 156   0  48 156
  0  48 156   0  48 156   0  48 156   0  48 156   0  48 156   0  48 156   0  48 156   0  48 156   0  48 156   0  48 156   0  48 156   0  48 156
  0  48 156   0  48 156   0  48 156   0  48 156   0  48 156   0  48 156   0  48 156   0  48 156   0  48 156   0  48 156   0  48 156   0  48 156
  0  48 156   0  48 156   0  48 156   0  48 156   0  48 156   0  48 156   0  48 156   0  48 156   0  48 156   0  48 156   0  48 156   0  48 156
  0  48 156   0  48 156   0  48 156   0  48 156   0  48 156   0  48 156   0  48 156   0  48 156   0  48 156   0  48 156   0  48 156   0  48 156
  0  48 156   0  48 156   0  48 156   0  48 156   0  48 156   0  48 156   0  48 156   0  48 156   0  48 156   0  48 156   0  48 156   0  48 156
  0  48 156   0  48 156   0  48 156   0  48 156   0  48 156   0  48 156   0  48 156   0  48 156   0  48 156   0  48 156   0  48 156   0  48 156
  0  48 156   0  48 156   0  48 156   0  48 156   0  48 156   0  48 156   0  48 156   0  48 156   0  48 156   0  48 156   0  48 156   0  48 156
  0  48 156   0  48 156   0  48 156   0  48 156   0  48 156   0  48 156   0  48 156   0  48 156   0  48 156   0  48 156   0  48 156   0  48 156
  0  48 156   0  48 156   0  48 156   0  48 156   0  48 156   0  48 156   0  48 156   0  48 156   0  48 156   0  48 156   0  48 156   0  48 156
  0  48 156   0  48 156   0  48 156   0  48 156   0  48 156   0  48 156   0  48 156   0  48 156   0  48 156   0  48 156   0  48 156   0  48 156
  0  48 156   0  48 156   0  48 156   0  48 156   0  48 156   0  48 156   0  48 156   0  48 156   0  48 156   0  48 156   0  48 156   0  48 156
  0  48 156   0  48 156   0  48 156   0  48 156   0  48 156   0  48 156   0  48 156   0  48 156   0  48 156   0  48 156   0  48 156   0  48 156
  0  48 156   0  48 156   0  48 156   0  48 156   0  48 156   0  48 156   0  48 156   0  48 156   0  48 156   0  48 156 255 250 255 255 250 255
255 250 255 255 250 255 255 250 255 255 250 255 255 250 255 255 250 255 255 250 255 255 250 255 255 250 255 255 250 255 255 250 255 255 250 255
255 250 255 255 250 255 255 250 255 255 250 255 255 250 255 255 250 255 255 250 255 255 250 255 255 250 255 255 250 255 255 250 255 255 250 255
255 250 255 238 234 238 180 170 180 180 170 180 205 202 205 205 202 205 205 202 205 205 202 205  74  64  65   0   0   0   0   0   0   0   0   0
205 202 205 255 250 255 255 250 255 255 250 255 255 250 255 255 250 255 255 250 255 255 250 255 255 250 255 255 250 255 255 250 255 255 250 255
255 250 255 255 250 255 255 250 255 255 250 255 255 250 255 255 250 255 255 250 255 255 250 255 255 250 255 238 234 238   0  48 156   0  48 156
  0  48 156   0  48 156   0  48 156   0  48 156   0  48 156   0  48 156   0  48 156   0  48 156   0  48 156   0  48 156   0  48 156   0  48 156
  0  48 156   0  48 156   0  48 156   0  48 156   0  48 156   0  48 156   0  48 156   0  48 156   0  48 156   0  48 156   0  48 156   0  48 156
  0  48 156   0  48 156   0  48 156   0  48 156   0  48 156   0  48 156   0  48 156   0  48 156   0  48 156   0  48 156   0  48 156   0  48 156
  0  48 156   0  48 156   0  48 156   0  48 156   0  48 156   0  48 156   0  48 156   0  48 156   0  48 156   0  48 156   0  48 156   0  48 156
  0  48 156   0  48 156   0  48 156   0  48 156   0  48 156   0  48 156   0  48 156   0  48 156   0  48 156   0  48 156   0  48 156   0  48 156
  0  48 156   0  48 156   0  48 156   0  48 156   0  48 156   0  48 156   0  48 156   0  48 156   0  48 156   0  48 156   0  48 156   0  48 156
  0  48 156   0  48 156   0  48 156   0  48 156   0  48 156   0  48 156   0  48 156   0  48 156   0  48 156   0  48 156   0  48 156   0  48 156
  0  48 156   0  48 156   0  48 156   0  48 156   0  48 156   0  48 156   0  48 156   0  48 156   0  48 156   0  48 156   0  48 156   0  48 156
  0  48 156   0  48 156   0  48 156   0  48 156   0  48 156   0  48 156   0  48 156   0  48 156   0  48 156   0  48 156   0  48 156   0  48 156
  0  48 156   0  48 156   0  48 156   0  48 156   0  48 156   0  48 156   0  48 156   0  48 156   0  48 156   0  48 156   0  48 156   0  48 156
  0  48 156   0  48 156   0  48 156   0  48 156   0  48 156   0  48 156   0  48 156   0  48 156   0  48 156   0  48 156   0  48 156   0  48 156
  0  48 156   0  48 156   0  48 156   0  48 156   0  48 156   0  48 156   0  48 156   0  48 156   0  48 156   0  48 156   0  48 156   0  48 156
  0  48 156   0  48 156   0  48 156   0  48 156   0  48 156   0  48 156   0  48 156   0  48 156   0  48 156   0  48 156   0  48 156   0  48 156
  0  48 156   0  48 156   0  48 156   0  48 156   0  48 156   0  48 156   0  48 156   0  48 156   0  48 156   0  48 156   0  48 156   0  48 156
  0  48 156   0  48 156   0  48 156   0  48 156   0  48 156   0  48 156   0  48 156   0  48 156   0  48 156 255 250 255 255 250 255 255 250 255
255 250 255 255 250 255 255 250 255 255 250 255 255 250 255 255 250 255 255 250 255 255 250 255 255 250 255 255 250 255 255 250 255 255 250 255
255 250 255 255 250 255 255 250 255 255 250 255 255 250 255 255 250 255 255 250 255 255 250 255 255 250 255 255 250 255 255 250 255 255 250 255
255 250 255 238 234 238 180 170 180 180 170 180 180 170 180 205 202 205 205 202 205 180 170 180 205 202 205  98  96  98   0   0   0  49  48  49
  0   0   0 205 202 205 255 250 255 255 250 255 255 250 255 255 250 255 255 250 255 255 250 255 255 250 255 255 250 255 255 250 255 255 250 255
255 250 255 255 250 255 255 250 255 255 250 255 255 250 255 255 250 255 255 250 255 255 250 255 255 250 255 255 250 255 238 234 238   0  48 156
  0  48 156   0  48 156   0  48 156   0  48 156   0  48 156   0  48 156   0  48 156   0  48 156   0  48 156   0  48 156   0  48 156   0  48 156
  0  48 156   0  48 156   0  48 156   0  48 156   0  48 156   0  48 156   0  48 156   0  48 156   0  48 156   0  48 156   0  48 156   0  48 156
  0  48 156   0  48 156   0  48 156   0  48 156   0  48 156   0  48 156   0  48 156   0  48 156   0  48 156   0  48 156   0  48 156   0  48 156
  0  48 156   0  48 156   0  48 156   0  48 156   0  48 156   0  48 156   0  48 156   0  48 156   0  48 156   0  48 156   0  48 156   0  48 156
  0  48 156   0  48 156   0  48 156   0  48 156   0  48 156   0  48 156   0  48 156   0  48 156   0  48 156   0  48 156   0  48 156   0  48 156
  0  48 156   0  48 156   0  48 156   0  48 156   0  48 156   0  48 156   0  48 156   0  48 156   0  48 156   0  48 156   0  48 156   0  48 156
  0  48 156   0  48 156   0  48 156   0  48 156   0  48 156   0  48 156   0  48 156   0  48 156   0  48 156   0  48 156   0  48 156   0  48 156
  0  48 156   0  48 156   0  48 156   0  48 156   0  48 156   0  48 156   0  48 156   0  48 156   0  48 156   0  48 156   0  48 156   0  48 156
  0  48 156   0  48 156   0  48 156   0  48 156   0  48 156   0  48 156   0  48 156   0  48 156   0  48 156   0  48 156   0  48 156   0  48 156
  0  48 156   0  48 156   0  48 156   0  48 156   0  48 156   0  48 156   0  48 156   0  48 156   0  48 156   0  48 156   0  48 156   0  48 156
  0  48 156   0  48 156   0  48 156   0  48 156   0  48 156   0  48 156   0  48 156   0  48 156   0  48 156   0  48 156   0  48 156   0  48 156
  0  48 156   0  48 156   0  48 156   0  48 156   0  48 156   0  48 156   0  48 156   0  48 156   0  48 156   0  48 156   0  48 156   0  48 156
  0  48 156   0  48 156   0  48 156   0  48 156   0  48 156   0  48 156   0  48 156   0  48 156   0  48 156   0  48 156   0  48 156   0  48 156
  0  48 156   0  48 156   0  48 156   0  48 156   0  48 156   0  48 156   0  48 156   0  48 156   0  48 156   0  48 156   0  48 156   0  48 156
  0  48 156   0  48 156   0  48 156   0  48 156   0  48 156   0  48 156   0  48 156   0  48 156 255 250 255 255 250 255 255 250 255 255 250 255
255 250 255 255 250 255 255 250 255 255 250 255 255 250 255 255 250 255 255 250 255 255 250 255 255 250 255 255 250 255 255 250 255 255 250 255
255 250 255 255 250 255 255 250 255 255 250 255 255 250 255 255 250 255 255 250 255 255 250 255 255 250 255 255 250 255 255 250 255 255 250 255
255 250 255 238 234 238 156 152 156 205 202 205 156 152 156  98  96  98  98  96  98 180 170 180 205 202 205 180 170 180  98  96  98   0   0   0
 49  48  49   0   0   0 156 152 156 255 250 255 238 234 238 255 250 255 255 250 255 255 250 255 255 250 255 255 250 255 255 250 255 255 250 255
255 250 255 255 250 255 255 250 255 255 250 255 255 250 255 255 250 255 255 250 255 255 250 255 255 250 255 255 250 255 255 250 255   0  48 156
  0  48 156   0  48 156   0  48 156   0  48 156   0  48 156   0  48 156   0  48 156   0  48 156   0  48 156   0  48 156   0  48 156   0  48 156
  0  48 156   0  48 156   0  48 156   0  48 156   0  48 156   0  48 156   0  48 156   0  48 156   0  48 156   0  48 156   0  48 156   0  48 156
  0  48 156   0  48 156   0  48 156   0  48 156   0  48 156   0  48 156   0  48 156   0  48 156   0  48 156   0  48 156   0  48 156   0  48 156
  0  48 156   0  48 156   0  48 156   0  48 156   0  48 156   0  48 156   0  48 156   0  48 156   0  48 156   0  48 156   0  48 156   0  48 156
  0  48 156   0  48 156   0  48 156   0  48 156   0  48 156   0  48 156   0  48 156   0  48 156   0  48 156   0  48 156   0  48 156   0  48 156
  0  48 156   0  48 156   0  48 156   0  48 156   0  48 156   0  48 156   0  48 156   0  48 156   0  48 156   0  48 156   0  48 156   0  48 156
  0  48 156   0  48 156   0  48 156   0  48 156   0  48 156   0  48 156   0  48 156   0  48 156   0  48 156   0  48 156   0  48 156   0  48 156
  0  48 156   0  48 156   0  48 156   0  48 156   0  48 156   0  48 156   0  48 156   0  48 156   0  48 156   0  48 156   0  48 156   0  48 156
  0  48 156   0  48 156   0  48 156   0  48 156   0  48 156   0  48 156   0  48 156   0  48 156   0  48 156   0  48 156   0  48 156   0  48 156
  0  48 156   0  48 156   0  48 156   0  48 156   0  48 156   0  48 156   0  48 156   0  48 156   0  48 156   0  48 156   0  48 156   0  48 156
  0  48 156   0  48 156   0  48 156   0  48 156   0  48 156   0  48 156   0  48 156   0  48 156   0  48 156   0  48 156   0  48 156   0  48 156
  0  48 156   0  48 156   0  48 156   0  48 156   0  48 156   0  48 156   0  48 156   0  48 156   0  48 156   0  48 156   0  48 156   0  48 156
  0  48 156   0  48 156   0  48 156   0  48 156   0  48 156   0  48 156   0  48 156   0  48 156   0  48 156   0  48 156   0  48 156   0  48 156
  0  48 156   0  48 156   0  48 156   0  48 156   0  48 156   0  48 156   0  48 156   0  48 156   0  48 156   0  48 156   0  48 156   0  48 156
  0  48 156   0  48 156   0  48 156   0  48 156   0  48 156   0  48 156   0  48 156 238 234 238 255 250 255 255 250 255 255 250 255 255 250 255
255 250 255 255 250 255 255 250 255 255 250 255 255 250 255 255 250 255 255 250 255 255 250 255 255 250 255 255 250 255 255 250 255 255 250 255
255 250 255 255 250 255 255 250 255 255 250 255 255 250 255 255 250 255 255 250 255 255 250 255 255 250 255 255 250 255 255 250 255 255 250 255
255 250 255 255 250 255 156 152 156 180 170 180  98  96  98  98  96  98  98  96  98  90  88  90  98  96  98 180 170 180 205 202 205  98  96  98
 49  48  49  49  48  49  49  48  49 180 170 180 255 250 255 255 250 255 255 250 255 255 250 255 255 250 255 255 250 255 255 250 255 255 250 255
255 250 255 255 250 255 255 250 255 255 250 255 255 250 255 255 250 255 255 250 255 255 250 255 255 250 255 255 250 255 255 250 255 255 250 255
  0  48 156   0  48 156   0  48 156   0  48 156   0  48 156   0  48 156   0  48 156   0  48 156   0  48 156   0  48 156   0  48 156   0  48 156
  0  48 156   0  48 156   0  48 156   0  48 156   0  48 156   0  48 156   0  48 156   0  48 156   0  48 156   0  48 156   0  48 156   0  48 156
  0  48 156   0  48 156   0  48 156   0  48 156   0  48 156   0  48 156   0  48 156   0  48 156   0  48 156   0  48 156   0  48 156   0  48 156
  0  48 156   0  48 156   0  48 156   0  48 156   0  48 156   0  48 156   0  48 156   0  48 156   0  48 156   0  48 156   0  48 156   0  48 156
  0  48 156   0  48 156   0  48 156   0  48 156   0  48 156   0  48 156   0  48 156   0  48 156   0  48 156   0  48 156   0  48 156   0  48 156
  0  48 156   0  48 156   0  48 156   0  48 156   0  48 156   0  48 156   0  48 156   0  48 156   0  48 156   0  48 156   0  48 156   0  48 156
  0  48 156   0  48 156   0  48 156   0  48 156   0  48 156   0  48 156   0  48 156   0  48 156   0  48 156   0  48 156   0  48 156   0  48 156
  0  48 156   0  48 156   0  48 156   0  48 156   0  48 156   0  48 156   0  48 156   0  48 156   0  48 156   0  48 156   0  48 156   0  48 156
  0  48 156   0  48 156   0  48 156   0  48 156   0  48 156   0  48 156   0  48 156   0  48 156   0  48 156   0  48 156   0  48 156   0  48 156
  0  48 156   0  48 156   0  48 156   0  48 156   0  48 156   0  48 156   0  48 156   0  48 156   0  48 156   0  48 156   0  48 156   0  48 156
  0  48 156   0  48 156   0  48 156   0  48 156   0  48 156   0  48 156   0  48 156   0  48 156   0  48 156   0  48 156   0  48 156   0  48 156
  0  48 156   0  48 156   0  48 156   0  48 156   0  48 156   0  48 156   0  48 156   0  48 156   0  48 156   0  48 156   0  48 156   0  48 156
  0  48 156   0  48 156   0  48 156   0  48 156   0  48 156   0  48 156   0  48 156   0  48 156   0  48 156   0  48 156   0  48 156   0  48 156
  0  48 156   0  48 156   0  48 156   0  48 156   0  48 156   0  48 156   0  48 156   0  48 156   0  48 156   0  48 156   0  48 156   0  48 156
  0  48 156   0  48 156   0  48 156   0  48 156   0  48 156   0  48 156   0  48 156 255 250 255 255 250 255 255 250 255 255 250 255 255 250 255
255 250 255 255 250 255 255 250 255 255 250 255 255 250 255 255 250 255 255 250 255 255 250 255 255 250 255 255 250 255 255 250 255 255 250 255
255 250 255 255 250 255 255 250 255 255 250 255 255 250 255 255 250 255 255 250 255 255 250 255 255 250 255 255 250 255 255 250 255 255 250 255
255 250 255 238 234 238  90  88  90 180 170 180  98  96  98  90  88  90  98  96  98  98  96  98  98  96  98  98  96  98 156 152 156 180 170 180
 90  88  90  49  48  49  49  48  49  49  48  49 205 202 205 255 250 255 255 250 255 255 250 255 255 250 255 255 250 255 255 250 255 255 250 255
255 250 255 255 250 255 255 250 255 255 250 255 255 250 255 255 250 255 255 250 255 255 250 255 255 250 255 255 250 255 255 250 255 255 250 255
255 250 255   0  48 156   0  48 156   0  48 156   0  48 156   0  48 156   0  48 156   0  48 156   0  48 156   0  48 156   0  48 156   0  48 156
  0  48 156   0  48 156   0  48 156   0  48 156   0  48 156   0  48 156   0  48 156   0  48 156   0  48 156   0  48 156   0  48 156   0  48 156
  0  48 156   0  48 156   0  48 156   0  48 156   0  48 156   0  48 156   0  48 156   0  48 156   0  48 156   0  48 156   0  48 156   0  48 156
  0  48 156   0  48 156   0  48 156   0  48 156   0  48 156   0  48 156   0  48 156   0  48 156   0  48 156   0  48 156   0  48 156   0  48 156
  0  48 156   0  48 156   0  48 156   0  48 156   0  48 156   0  48 156   0  48 156   0  48 156   0  48 156   0  48 156   0  48 156   0  48 156
  0  48 156   0  48 156   0  48 156   0  48 156   0  48 156   0  48 156   0  48 156   0  48 156   0  48 156   0  48 156   0  48 156   0  48 156
  0  48 156   0  48 156   0  48 156   0  48 156   0  48 156   0  48 156   0  48 156   0  48 156   0  48 156   0  48 156   0  48 156   0  48 156
  0  48 156   0  48 156   0  48 156   0  48 156   0  48 156   0  48 156   0  48 156   0  48 156   0  48 156   0  48 156   0  48 156   0  48 156
  0  48 156   0  48 156   0  48 156   0  48 156   0  48 156   0  48 156   0  48 156   0  48 156   0  48 156   0  48 156   0  48 156   0  48 156
  0  48 156   0  48 156   0  48 156   0  48 156   0  48 156   0  48 156   0  48 156   0  48 156   0  48 156   0  48 156   0  48 156   0  48 156
  0  48 156   0  48 156   0  48 156   0  48 156   0  48 156   0  48 156   0  48 156   0  48 156   0  48 156   0  48 156   0  48 156   0  48 156
  0  48 156   0  48 156   0  48 156   0  48 156   0  48 156   0  48 156   0  48 156   0  48 156   0  48 156   0  48 156   0  48 156   0  48 156
  0  48 156   0  48 156   0  48 156   0  48 156   0  48 156   0  48 156   0  48 156   0  48 156   0  48 156   0  48 156   0  48 156   0  48 156
  0  48 156   0  48 156   0  48 156   0  48 156   0  48 156   0  48 156   0  48 156   0  48 156   0  48 156   0  48 156   0  48 156   0  48 156
  0  48 156   0  48 156   0  48 156   0  48 156   0  48 156   0  48 156 255 250 255 255 250 255 255 250 255 255 250 255 255 250 255 255 250 255
255 250 255 255 250 255 255 250 255 255 250 255 255 250 255 255 250 255 255 250 255 255 250 255 255 250 255 255 250 255 255 250 255 255 250 255
255 250 255 255 250 255 255 250 255 255 250 255 255 250 255 255 250 255 255 250 255 255 250 255 255 250 255 255 250 255 255 250 255 255 250 255
255 250 255 255 250 255 156 152 156 156 152 156  98  96  98  98  96  98  98  96  98  98  96  98  90  88  90  98  96  98  98  96  98 156 152 156
180 170 180  98  96  98   0   0   0  49  48  49  49  48  49 238 234 238 255 250 255 255 250 255 255 250 255 255 250 255 255 250 255 255 250 255
255 250 255 255 250 255 255 250 255 255 250 255 255 250 255 255 250 255 255 250 255 255 250 255 255 250 255 255 250 255 255 250 255 255 250 255
255 250 255 238 234 238   0  48 156   0  48 156   0  48 156   0  48 156   0  48 156   0  48 156   0  48 156   0  48 156   0  48 156   0  48 156
  0  48 156   0  48 156   0  48 156   0  48 156   0  48 156   0  48 156   0  48 156   0  48 156   0  48 156   0  48 156   0  48 156   0  48 156
  0  48 156   0  48 156   0  48 156   0  48 156   0  48 156   0  48 156   0  48 156   0  48 156   0  48 156   0  48 156   0  48 156   0  48 156
  0  48 156   0  48 156   0  48 156   0  48 156   0  48 156   0  48 156   0  48 156   0  48 156   0  48 156   0  48 156   0  48 156   0  48 156
  0  48 156   0  48 156   0  48 156   0  48 156   0  48 156   0  48 156   0  48 156   0  48 156   0  48 156   0  48 156   0  48 156   0  48 156
  0  48 156   0  48 156   0  48 156   0  48 156   0  48 156   0  48 156   0  48 156   0  48 156   0  48 156   0  48 156   0  48 156   0  48 156
  0  48 156   0  48 156   0  48 156   0  48 156   0  48 156   0  48 156   0  48 156   0  48 156   0  48 156   0  48 156   0  48 156   0  48 156
  0  48 156   0  48 156   0  48 156   0  48 156   0  48 156   0  48 156   0  48 156   0  48 156   0  48 156   0  48 156   0  48 156   0  48 156
  0  48 156   0  48 156   0  48 156   0  48 156   0  48 156   0  48 156   0  48 156   0  48 156   0  48 156   0  48 156   0  48 156   0  48 156
  0  48 156   0  48 156   0  48 156   0  48 156   0  48 156   0  48 156   0  48 156   0  48 156   0  48 156   0  48 156   0  48 156   0  48 156
  0  48 156   0  48 156   0  48 156   0  48 156   0  48 156   0  48 156   0  48 156   0  48 156   0  48 156   0  48 156   0  48 156   0  48 156
  0  48 156   0  48 156   0  48 156   0  48 156   0  48 156   0  48 156   0  48 156   0  48 156   0  48 156   0  48 156   0  48 156   0  48 156
  0  48 156   0  48 156   0  48 156   0  48 156   0  48 156   0  48 156   0  48 156   0  48 156   0  48 156   0  48 156   0  48 156   0  48 156
  0  48 156   0  48 156   0  48 156   0  48 156   0  48 156   0  48 156   0  48 156   0  48 156   0  48 156   0  48 156   0  48 156   0  48 156
  0  48 156   0  48 156   0  48 156   0  48 156   0  48 156 255 250 255 255 250 255 255 250 255 255 250 255 255 250 255 255 250 255 255 250 255
255 250 255 255 250 255 255 250 255 255 250 255 255 250 255 255 250 255 255 250 255 255 250 255 255 250 255 255 250 255 255 250 255 255 250 255
255 250 255 255 250 255 255 250 255 255 250 255 255 250 255 255 250 255 255 250 255 255 250 255 255 250 255 255 250 255 255 250 255 255 250 255
255 250 255 255 250 255 238 234 238 156 152 156  90  88  90  98  96  98  98  96  98  90  88  90  98  96  98  98  96  98  98  96  98  98  96  98
156 152 156 156 152 156  98  96  98  49  48  49  49  48  49  90  88  90 255 250 255 238 234 238 255 250 255 255 250 255 255 250 255 255 250 255
255 250 255 255 250 255 255 250 255 255 250 255 255 250 255 255 250 255 255 250 255 255 250 255 255 250 255 255 250 255 255 250 255 255 250 255
255 250 255 255 250 255   0  48 156   0  48 156   0  48 156   0  48 156   0  48 156   0  48 156   0  48 156   0  48 156   0  48 156   0  48 156
  0  48 156   0  48 156   0  48 156   0  48 156   0  48 156   0  48 156   0  48 156   0  48 156   0  48 156   0  48 156   0  48 156   0  48 156
  0  48 156   0  48 156   0  48 156   0  48 156   0  48 156   0  48 156   0  48 156   0  48 156   0  48 156   0  48 156   0  48 156   0  48 156
  0  48 156   0  48 156   0  48 156   0  48 156   0  48 156   0  48 156   0  48 156   0  48 156   0  48 156   0  48 156   0  48 156   0  48 156
  0  48 156   0  48 156   0  48 156   0  48 156   0  48 156   0  48 156   0  48 156   0  48 156   0  48 156   0  48 156   0  48 156   0  48 156
  0  48 156   0  48 156   0  48 156   0  48 156   0  48 156   0  48 156   0  48 156   0  48 156   0  48 156   0  48 156   0  48 156   0  48 156
  0  48 156   0  48 156   0  48 156   0  48 156   0  48 156   0  48 156   0  48 156   0  48 156   0  48 156   0  48 156   0  48 156   0  48 156
  0  48 156   0  48 156   0  48 156   0  48 156   0  48 156   0  48 156   0  48 156   0  48 156   0  48 156   0  48 156   0  48 156   0  48 156
  0  48 156   0  48 156   0  48 156   0  48 156   0  48 156   0  48 156   0  48 156   0  48 156   0  48 156   0  48 156   0  48 156   0  48 156
  0  48 156   0  48 156   0  48 156   0  48 156   0  48 156   0  48 156   0  48 156   0  48 156   0  48 156   0  48 156   0  48 156   0  48 156
  0  48 156   0  48 156   0  48 156   0  48 156   0  48 156   0  48 156   0  48 156   0  48 156   0  48 156   0  48 156   0  48 156   0  48 156
  0  48 156   0  48 156   0  48 156   0  48 156   0  48 156   0  48 156   0  48 156   0  48 156   0  48 156   0  48 156   0  48 156   0  48 156
  0  48 156   0  48 156   0  48 156   0  48 156   0  48 156   0  48 156   0  48 156   0  48 156   0  48 156   0  48 156   0  48 156   0  48 156
  0  48 156   0  48 156   0  48 156   0  48 156   0  48 156   0  48 156   0  48 156   0  48 156   0  48 156   0  48 156   0  48 156   0  48 156
  0  48 156   0  48 156   0  48 156   0  48 156   0  48 156 255 250 255 255 250 255 255 250 255 255 250 255 255 250 255 255 250 255 255 250 255
255 250 255 255 250 255 255 250 255 255 250 255 255 250 255 255 250 255 255 250 255 255 250 255 255 250 255 255 250 255 255 250 255 255 250 255
255 250 255 255 250 255 255 250 255 255 250 255 255 250 255 255 250 255 255 250 255 255 250 255 255 250 255 255 250 255 255 250 255 255 250 255
255 250 255 255 250 255 255 250 255  98  96  98  98  96  98  90  88  90  98  96  98  98  96  98  98  96  98  90  88  90  90  88  90  90  88  90
 90  88  90 156 152 156 156 152 156  74  64  65  49  48  49  49  48  49 156 152 156 255 250 255 238 234 238 255 250 255 255 250 255 255 250 255
255 250 255 255 250 255 255 250 255 255 250 255 255 250 255 255 250 255 255 250 255 255 250 255 255 250 255 255 250 255 255 250 255 255 250 255
255 250 255 255 250 255 255 250 255   0  48 156   0  48 156   0  48 156   0  48 156   0  48 156   0  48 156   0  48 156   0  48 156   0  48 156
  0  48 156   0  48 156   0  48 156   0  48 156   0  48 156   0  48 156   0  48 156   0  48 156   0  48 156   0  48 156   0  48 156   0  48 156
  0  48 156   0  48 156   0  48 156   0  48 156   0  48 156   0  48 156   0  48 156   0  48 156   0  48 156   0  48 156   0  48 156   0  48 156
  0  48 156   0  48 156   0  48 156   0  48 156   0  48 156   0  48 156   0  48 156   0  48 156   0  48 156   0  48 156   0  48 156   0  48 156
  0  48 156   0  48 156   0  48 156   0  48 156   0  48 156   0  48 156   0  48 156   0  48 156   0  48 156   0  48 156   0  48 156   0  48 156
  0  48 156   0  48 156   0  48 156   0  48 156   0  48 156   0  48 156   0  48 156   0  48 156   0  48 156   0  48 156   0  48 156   0  48 156
  0  48 156   0  48 156   0  48 156   0  48 156   0  48 156   0  48 156   0  48 156   0  48 156   0  48 156   0  48 156   0  48 156   0  48 156
  0  48 156   0  48 156   0  48 156   0  48 156   0  48 156   0  48 156   0  48 156   0  48 156   0  48 156   0  48 156   0  48 156   0  48 156
  0  48 156   0  48 156   0  48 156   0  48 156   0  48 156   0  48 156   0  48 156   0  48 156   0  48 156   0  48 156   0  48 156   0  48 156
  0  48 156   0  48 156   0  48 156   0  48 156   0  48 156   0  48 156   0  48 156   0  48 156   0  48 156   0  48 156   0  48 156   0  48 156
  0  48 156   0  48 156   0  48 156   0  48 156   0  48 156   0  48 156   0  48 156   0  48 156   0  48 156   0  48 156   0  48 156   0  48 156
  0  48 156   0  48 156   0  48 156   0  48 156   0  48 156   0  48 156   0  48 156   0  48 156   0  48 156   0  48 156   0  48 156   0  48 156
  0  48 156   0  48 156   0  48 156   0  48 156   0  48 156   0  48 156   0  48 156   0  48 156   0  48 156   0  48 156   0  48 156   0  48 156
  0  48 156   0  48 156   0  48 156   0  48 156   0  48 156   0  48 156   0  48 156   0  48 156   0  48 156   0  48 156   0  48 156   0  48 156
  0  48 156   0  48 156   0  48 156   0  48 156 255 250 255 255 250 255 255 250 255 255 250 255 255 250 255 255 250 255 255 250 255 255 250 255
255 250 255 255 250 255 255 250 255 255 250 255 255 250 255 255 250 255 255 250 255 255 250 255 255 250 255 255 250 255 255 250 255 255 250 255
255 250 255 255 250 255 255 250 255 255 250 255 255 250 255 255 250 255 255 250 255 255 250 255 255 250 255 238 234 238 255 250 255 255 250 255
255 250 255 255 250 255 238 234 238 156 152 156  98  96  98  90  88  90  98  96  98  90  88  90  98  96  98  98  96  98  98  96  98  98  96  98
 98  96  98  90  88  90 156 152 156 156 152 156  49  48  49  74  64  65  90  88  90 156 152 156 255 250 255 255 250 255 255 250 255 255 250 255
255 250 255 255 250 255 255 250 255 255 250 255 255 250 255 255 250 255 255 250 255 255 250 255 255 250 255 255 250 255 255 250 255 255 250 255
255 250 255 255 250 255 255 250 255   0  48 156   0  48 156   0  48 156   0  48 156   0  48 156   0  48 156   0  48 156   0  48 156   0  48 156
  0  48 156   0  48 156   0  48 156   0  48 156   0  48 156   0  48 156   0  48 156   0  48 156   0  48 156   0  48 156   0  48 156   0  48 156
  0  48 156   0  48 156   0  48 156   0  48 156   0  48 156   0  48 156   0  48 156   0  48 156   0  48 156   0  48 156   0  48 156   0  48 156
  0  48 156   0  48 156   0  48 156   0  48 156   0  48 156   0  48 156   0  48 156   0  48 156   0  48 156   0  48 156   0  48 156   0  48 156
  0  48 156   0  48 156   0  48 156   0  48 156   0  48 156   0  48 156   0  48 156   0  48 156   0  48 156   0  48 156   0  48 156   0  48 156
  0  48 156   0  48 156   0  48 156   0  48 156   0  48 156   0  48 156   0  48 156   0  48 156   0  48 156   0  48 156   0  48 156   0  48 156
  0  48 156   0  48 156   0  48 156   0  48 156   0  48 156   0  48 156   0  48 156   0  48 156   0  48 156   0  48 156   0  48 156   0  48 156
  0  48 156   0  48 156   0  48 156   0  48 156   0  48 156   0  48 156   0  48 156   0  48 156   0  48 156   0  48 156   0  48 156   0  48 156
  0  48 156   0  48 156   0  48 156   0  48 156   0  48 156   0  48 156   0  48 156   0  48 156   0  48 156   0  48 156   0  48 156   0  48 156
  0  48 156   0  48 156   0  48 156   0  48 156   0  48 156   0  48 156   0  48 156   0  48 156   0  48 156   0  48 156   0  48 156   0  48 156
  0  48 156   0  48 156   0  48 156   0  48 156   0  48 156   0  48 156   0  48 156   0  48 156   0  48 156   0  48 156   0  48 156   0  48 156
  0  48 156   0  48 156   0  48 156   0  48 156   0  48 156   0  48 156   0  48 156   0  48 156   0  48 156   0  48 156   0  48 156   0  48 156
  0  48 156   0  48 156   0  48 156   0  48 156   0  48 156   0  48 156   0  48 156   0  48 156   0  48 156   0  48 156   0  48 156   0  48 156
  0  48 156   0  48 156   0  48 156   0  48 156   0  48 156   0  48 156   0  48 156   0  48 156   0  48 156   0  48 156   0  48 156   0  48 156
  0  48 156   0  48 156   0  48 156   0  48 156 255 250 255 255 250 255 255 250 255 255 250 255 255 250 255 255 250 255 255 250 255 255 250 255
255 250 255 255 250 255 255 250 255 255 250 255 255 250 255 255 250 255 255 250 255 255 250 255 255 250 255 255 250 255 255 250 255 255 250 255
255 250 255 255 250 255 255 250 255 238 234 238 255 250 255 255 250 255 255 250 255 255 250 255 255 250 205 255 202 205 255 250 205 255 250 205
255 250 255 238 234 238 255 250 255 255 250 255  98  96  98  98  96  98  98  96  98  98  96  98  98  96  98  98  96  98  90  88  90  98  96  98
 90  88  90  98  96  98  98  96  98 156 152 156  98  96  98  74  64  65  49  48  49  49  48  49 238 234 238 238 234 238 255 250 255 255 250 255
238 234 238 255 250 255 255 250 255 255 250 255 255 250 255 255 250 255 255 250 255 255 250 255 255 250 255 255 250 255 255 250 255 255 250 255
255 250 255 255 250 255 255 250 255 255 250 255   0  48 156   0  48 156   0  48 156   0  48 156   0  48 156   0  48 156   0  48 156   0  48 156
  0  48 156   0  48 156   0  48 156   0  48 156   0  48 156   0  48 156   0  48 156   0  48 156   0  48 156   0  48 156   0  48 156   0  48 156
  0  48 156   0  48 156   0  48 156   0  48 156   0  48 156   0  48 156   0  48 156   0  48 156   0  48 156   0  48 156   0  48 156   0  48 156
  0  48 156   0  48 156   0  48 156   0  48 156   0  48 156   0  48 156   0  48 156   0  48 156   0  48 156   0  48 156   0  48 156   0  48 156
  0  48 156   0  48 156   0  48 156   0  48 156   0  48 156   0  48 156   0  48 156   0  48 156   0  48 156   0  48 156   0  48 156   0  48 156
  0  48 156   0  48 156   0  48 156   0  48 156   0  48 156   0  48 156   0  48 156   0  48 156   0  48 156   0  48 156   0  48 156   0  48 156
  0  48 156   0  48 156   0  48 156   0  48 156   0  48 156   0  48 156   0  48 156   0  48 156   0  48 156   0  48 156   0  48 156   0  48 156
  0  48 156   0  48 156   0  48 156   0  48 156   0  48 156   0  48 156   0  48 156   0  48 156   0  48 156   0  48 156   0  48 156   0  48 156
  0  48 156   0  48 156   0  48 156   0  48 156   0  48 156   0  48 156   0  48 156   0  48 156   0  48 156   0  48 156   0  48 156   0  48 156
  0  48 156   0  48 156   0  48 156   0  48 156   0  48 156   0  48 156   0  48 156   0  48 156   0  48 156   0  48 156   0  48 156   0  48 156
  0  48 156   0  48 156   0  48 156   0  48 156   0  48 156   0  48 156   0  48 156   0  48 156   0  48 156   0  48 156   0  48 156   0  48 156
  0  48 156   0  48 156   0  48 156   0  48 156   0  48 156   0  48 156   0  48 156   0  48 156   0  48 156   0  48 156   0  48 156   0  48 156
  0  48 156   0  48 156   0  48 156   0  48 156   0  48 156   0  48 156   0  48 156   0  48 156   0  48 156   0  48 156   0  48 156   0  48 156
  0  48 156   0  48 156   0  48 156   0  48 156   0  48 156   0  48 156   0  48 156   0  48 156   0  48 156   0  48 156   0  48 156   0  48 156
  0  48 156   0  48 156   0  48 156 255 250 255 255 250 255 255 250 255 255 250 255 255 250 255 255 250 255 255 250 255 255 250 255 255 250 255
255 250 255 255 250 255 255 250 255 255 250 255 255 250 255 255 250 255 255 250 255 255 250 255 255 250 255 255 250 255 255 250 255 255 250 255
255 250 255 255 250 255 255 250 255 255 202 205 255 250 255 255 250 205  98  96  49  98  96  49  98  48   0  98  96  49 156  96   0  98  96  49
156 152  98 255 250 205 255 250 255 255 250 205  98  96  98  98  96  98  98  96  98  90  88  90  98  96  98  90  88  90  98  96  98  98  96  98
 98  96  98  98  96  98  90  88  90  98  96  98 156 152 156  98  96  98  74  64  65  90  88  90  90  88  90 255 250 255 255 250 255 255 250 255
255 250 255 255 250 255 255 250 255 255 250 255 255 250 255 255 250 255 255 250 255 255 250 255 255 250 255 255 250 255 255 250 255 255 250 255
255 250 255 255 250 255 255 250 255 255 250 255   0  48 156   0  48 156   0  48 156   0  48 156   0  48 156   0  48 156   0  48 156   0  48 156
  0  48 156   0  48 156   0  48 156   0  48 156   0  48 156   0  48 156   0  48 156   0  48 156   0  48 156   0  48 156   0  48 156   0  48 156
  0  48 156   0  48 156   0  48 156   0  48 156   0  48 156   0  48 156   0  48 156   0  48 156   0  48 156   0  48 156   0  48 156   0  48 156
  0  48 156   0  48 156   0  48 156   0  48 156   0  48 156   0  48 156   0  48 156   0  48 156   0  48 156   0  48 156   0  48 156   0  48 156
  0  48 156   0  48 156   0  48 156   0  48 156   0  48 156   0  48 156   0  48 156   0  48 156   0  48 156   0  48 156   0  48 156   0  48 156
  0  48 156   0  48 156   0  48 156   0  48 156   0  48 156   0  48 156   0  48 156   0  48 156   0  48 156   0  48 156   0  48 156   0  48 156
  0  48 156   0  48 156   0  48 156   0  48 156   0  48 156   0  48 156   0  48 156   0  48 156   0  48 156   0  48 156   0  48 156   0  48 156
  0  48 156   0  48 156   0  48 156   0  48 156   0  48 156   0  48 156   0  48 156   0  48 156   0  48 156   0  48 156   0  48 156   0  48 156
  0  48 156   0  48 156   0  48 156   0  48 156   0  48 156   0  48 156   0  48 156   0  48 156   0  48 156   0  48 156   0  48 156   0  48 156
  0  48 156   0  48 156   0  48 156   0  48 156   0  48 156   0  48 156   0  48 156   0  48 156   0  48 156   0  48 156   0  48 156   0  48 156
  0  48 156   0  48 156   0  48 156   0  48 156   0  48 156   0  48 156   0  48 156   0  48 156   0  48 156   0  48 156   0  48 156   0  48 156
  0  48 156   0  48 156   0  48 156   0  48 156   0  48 156   0  48 156   0  48 156   0  48 156   0  48 156   0  48 156   0  48 156   0  48 156
  0  48 156   0  48 156   0  48 156   0  48 156   0  48 156   0  48 156   0  48 156   0  48 156   0  48 156   0  48 156   0  48 156   0  48 156
  0  48 156   0  48 156   0  48 156   0  48 156   0  48 156   0  48 156   0  48 156   0  48 156   0  48 156   0  48 156   0  48 156   0  48 156
  0  48 156   0  48 156   0  48 156 255 250 255 255 250 255 255 250 255 255 250 255 255 250 255 255 250 255 255 250 255 255 250 255 255 250 255
255 250 255 255 250 255 255 250 255 255 250 255 255 250 255 255 250 255 255 250 255 255 250 255 255 250 255 255 250 255 255 250 255 255 250 255
255 250 255 255 250 255 156  96  98  98  96   0 205 202  98  98  96  49  49  48  49  98  96   0 156  96  49 156 152   0 205 152  49 156  96   0
205 152  49 156  96   0 180 170 180 255 250 255 205 202 205  90  88  90  98  96  98  98  96  98  98  96  98  98  96  98  98  96  98  90  88  90
 98  96  98  98  96  98  98  96  98  90  88  90  98  96  98 156 152 156  74  64  65  74  64  65  74  64  65 156  96  98 255 250 255 255 250 255
255 250 255 255 250 255 255 250 255 255 250 255 255 250 255 255 250 255 255 250 255 255 250 255 255 250 255 255 250 255 255 250 255 255 250 255
255 250 255 255 250 255 255 250 255 255 250 255 255 250 255   0  48 156   0  48 156   0  48 156   0  48 156   0  48 156   0  48 156   0  48 156
  0  48 156   0  48 156   0  48 156   0  48 156   0  48 156   0  48 156   0  48 156   0  48 156   0  48 156   0  48 156   0  48 156   0  48 156
  0  48 156   0  48 156   0  48 156   0  48 156   0  48 156   0  48 156   0  48 156  49  88 172   0  48 156   0  48 156   0  48 156   0  48 156
  0  48 156   0  48 156   0  48 156   0  48 156   0  48 156   0  48 156   0  48 156   0  48 156   0  48 156   0  48 156   0  48 156   0  48 156
  0  48 156   0  48 156   0  48 156   0  48 156   0  48 156   0  48 156   0  48 156   0  48 156   0  48 156   0  48 156   0  48 156   0  48 156
  0  48 156   0  48 156  49  88 172   0  48 156   0  48 156   0  48 156   0  48 156   0  48 156   0  48 156   0  48 156   0  48 156   0  48 156
  0  48 156   0  48 156   0  48 156   0  48 156   0  48 156   0  48 156   0  48 156   0  48 156  49  88 172   0  48 156   0  48 156   0  48 156
  0  48 156   0  48 156   0  48 156   0  48 156   0  48 156   0  48 156   0  48 156   0  48 156   0  48 156   0  48 156   0  48 156   0  48 156
  0  48 156   0  48 156   0  48 156   0  48 156   0  48 156   0  48 156   0  48 156   0  48 156   0  48 156   0  48 156   0  48 156   0  48 156
  0  48 156   0  48 156   0  48 156   0  48 156   0  48 156   0  48 156   0  48 156   0  48 156   0  48 156   0  48 156   0  48 156   0  48 156
  0  48 156   0  48 156   0  48 156   0  48 156   0  48 156   0  48 156  49  88 172  49  88 172  49  88 172   0  48 156   0  48 156   0  48 156
  0  48 156   0  48 156   0  48 156   0  48 156   0  48 156   0  48 156   0  48 156   0  48 156   0  48 156   0  48 156   0  48 156   0  48 156
 49  88 172  49  88 172  49  88 172  49  88 172   0  48 156   0  48 156   0  48 156   0  48 156   0  48 156   0  48 156   0  48 156   0  48 156
  0  48 156   0  48 156   0  48 156   0  48 156   0  48 156   0  48 156   0  48 156   0  48 156   0  48 156   0  48 156   0  48 156   0  48 156
  0  48 156   0  48 156 255 250 255 255 250 255 255 250 255 255 250 255 255 250 255 255 250 255 255 250 255 255 250 255 255 250 255 255 250 255
255 250 255 255 250 255 255 250 255 255 250 255 255 250 255 255 250 255 255 250 255 255 250 255 255 250 255 255 250 255 255 250 255 238 234 238
255 250 255 156 152  98 156 152  98 255 202 205 255 250 156 205 202  98 205 152  49  98  96  49 156  96  98 156 152  49 205 152  49 205 152  49
205 152  49 205 152   0 156 152  49  98  96  49 255 202 156  98  96  98  90  88  90  90  88  90  98  96  49  98  96  98  90  88  90  98  96  98
 90  88  90  90  88  90  90  88  90  90  88  90  98  96  98  98  96  98  98  96  98  90  88  90  90  88  90  74  64  65 238 234 238 255 250 255
255 250 255 255 250 255 255 250 255 255 250 255 255 250 255 255 250 255 255 250 255 255 250 255 255 250 255 255 250 255 255 250 255 255 250 255
255 250 255 255 250 255 255 250 255 255 250 255 255 250 255   0  48 156   0  48 156   0  48 156   0  48 156   0  48 156   0  48 156   0  48 156
  0  48 156   0  48 156   0  48 156   0  48 156   0  48 156   0  48 156   0  48 156   0  48 156   0  48 156   0  48 156   0  48 156   0  48 156
  0  48 156   0  48 156   0  48 156   0  48 156   0  48 156  98  96 205 255 250 255 238 234 238   0  48 156   0  48 156   0  48 156   0  48 156
  0  48 156   0  48 156   0  48 156   0  48 156   0  48 156  98  96 205 205 202 255 238 234 238   0  48 156   0  48 156   0  48 156   0  48 156
  0  48 156   0  48 156   0  48 156   0  48 156   0  48 156   0  48 156   0  48 156   0  48 156   0  48 156   0  48 156   0  48 156   0  48 156
  0  48 156 205 202 255 115 136 197   0  48 156   0  48 156   0  48 156   0  48 156   0  48 156   0  48 156   0  48 156   0  48 156   0  48 156
  0  48 156   0  48 156   0  48 156   0  48 156   0  48 156   0  48 156   0  48 156 156 202 255 205 202 205   0  48 156   0  48 156   0  48 156
  0  48 156 156 152 205  98  96 205   0  48 156   0  48 156   0  48 156   0  48 156   0  48 156   0  48 156   0  48 156  98  96 205 238 234 238
  0  48 156   0  48 156   0  48 156   0  48 156 115 136 197 238 234 238 156 152 205   0  48 156   0  48 156   0  48 156   0  48 156   0  48 156
  0  48 156   0  48 156   0  48 156   0  48 156   0  48 156   0  48 156   0  48 156   0  48 156   0  48 156   0  48 156   0  48 156   0  48 156
 98  96 205 156 152 205 205 202 205 238 234 238 255 250 255 255 250 255 255 250 255 255 250 255 255 250 255 255 250 255 205 202 255 115 136 197
  0  48 156   0  48 156   0  48 156   0  48 156   0  48 156   0  48 156   0  48 156   0  48 156   0  48 156   0  48 156 156 152 205 238 234 238
255 250 255 255 250 255 255 250 255 255 250 255 115 136 197   0  48 156   0  48 156   0  48 156   0  48 156   0  48 156   0  48 156   0  48 156
  0  48 156   0  48 156   0  48 156   0  48 156   0  48 156   0  48 156   0  48 156   0  48 156   0  48 156   0  48 156   0  48 156   0  48 156
  0  48 156   0  48 156 255 250 255 255 250 255 255 250 255 255 250 255 255 250 255 255 250 255 255 250 255 255 250 255 255 250 255 255 250 255
255 250 255 255 250 255 255 250 255 255 250 255 255 250 255 255 250 255 255 250 255 255 250 255 255 250 255 255 250 255 255 250 255 255 250 255
255 250 255  49  48  49 255 250 205 255 250 255 255 250 205 255 250 156 255 202  98  98  96   0 156 152 156  98  96  49  98  48   0  98  96   0
 98  96   0  98  96   0  98  48  49  98  96   0  98  48  49 156 152  98  90  88  90  98  96  98  90  88  90  90  88  90  98  96  98  90  88  90
 90  88  90  98  96  98  90  88  90  90  88  90  98  96  98  98  96  98 156 152 156  98  96  98  90  88  90  90  88  90  98  96  98 255 250 255
255 250 255 255 250 255 255 250 255 255 250 255 255 250 255 255 250 255 255 250 255 255 250 255 255 250 255 255 250 255 255 250 255 255 250 255
255 250 255 255 250 255 255 250 255 255 250 255 255 250 255 238 234 238   0  48 156   0  48 156   0  48 156   0  48 156   0  48 156   0  48 156
  0  48 156   0  48 156   0  48 156   0  48 156   0  48 156   0  48 156   0  48 156   0  48 156   0  48 156   0  48 156   0  48 156   0  48 156
  0  48 156   0  48 156   0  48 156   0  48 156   0  48 156 238 234 238 255 250 255 205 202 205   0  48 156   0  48 156   0  48 156   0  48 156
  0  48 156   0  48 156   0  48 156   0  48 156  49  88 172 238 234 238 255 250 255 238 234 238   0  48 156   0  48 156   0  48 156   0  48 156
  0  48 156   0  48 156   0  48 156   0  48 156 115 136 197 156 152 205   0  48 156   0  48 156   0  48 156   0  48 156   0  48 156   0  48 156
 98  96 205 255 250 255 115 136 197   0  48 156   0  48 156   0  48 156   0  48 156  98  96 205   0  48 156   0  48 156   0  48 156   0  48 156
  0  48 156   0  48 156   0  48 156   0  48 156   0  48 156   0  48 156 115 136 197 255 250 255 205 202 255   0  48 156   0  48 156   0  48 156
205 202 255 255 250 255 255 250 255   0  48 156   0  48 156   0  48 156   0  48 156   0  48 156   0  48 156 115 136 197 255 250 255 255 250 255
 49  88 172   0  48 156   0  48 156 205 202 205 255 250 255 255 250 255 115 136 197   0  48 156   0  48 156   0  48 156   0  48 156   0  48 156
  0  48 156   0  48 156   0  48 156   0  48 156   0  48 156   0  48 156   0  48 156   0  48 156   0  48 156   0  48 156   0  48 156 205 202 205
255 250 255 255 250 255 255 250 255 255 250 255 255 250 255 255 250 255 255 250 255 255 250 255 255 250 255 255 250 255 255 250 255 255 250 255
238 234 238   0  48 156   0  48 156   0  48 156   0  48 156   0  48 156   0  48 156   0  48 156  49  88 172 255 250 255 255 250 255 255 250 255
255 250 255 255 250 255 255 250 255 255 250 255 115 136 197   0  48 156   0  48 156   0  48 156   0  48 156   0  48 156   0  48 156   0  48 156
  0  48 156   0  48 156   0  48 156   0  48 156   0  48 156   0  48 156   0  48 156   0  48 156   0  48 156   0  48 156   0  48 156   0  48 156
  0  48 156   0  48 156 255 250 255 255 250 255 255 250 255 255 250 255 255 250 255 255 250 255 255 250 255 255 250 255 255 250 255 255 250 255
255 250 255 255 250 255 255 250 255 255 250 255 255 250 255 255 250 255 255 250 255 255 250 255 255 250 255 255 250 255 238 234 238 238 234 238
255 250 255  98  96  49 255 250 255 255 250 255 255 250 255 255 250 205 205 202  98  49  48   0 156 152 156  49  48   0  49  48   0  98  48   0
 98  48   0  49  48   0  98  48   0  98  48   0  98  48   0 156  96  49  98  96  98  90  88  90  90  88  90  90  88  90  90  88  90  90  88  90
 90  88  90  90  88  90  90  88  90  90  88  90  90  88  90  90  88  90  90  88  90  98  96  98  98  96  98  90  88  90  90  88  90 156 152 156
255 250 255 238 234 238 255 250 255 255 250 255 255 250 255 255 250 255 255 250 255 255 250 255 255 250 255 255 250 255 255 250 255 255 250 255
255 250 255 255 250 255 255 250 255 255 250 255 255 250 255 255 250 255   0  48 156   0  48 156   0  48 156   0  48 156   0  48 156   0  48 156
  0  48 156   0  48 156   0  48 156   0  48 156   0  48 156   0  48 156   0  48 156   0  48 156   0  48 156   0  48 156   0  48 156   0  48 156
  0  48 156   0  48 156   0  48 156   0  48 156 115 136 197 255 250 255 255 250 255 156 202 205   0  48 156   0  48 156   0  48 156   0  48 156
  0  48 156   0  48 156   0  48 156   0  48 156 115 136 197 255 250 255 255 250 255 205 202 205   0  48 156   0  48 156   0  48 156   0  48 156
  0  48 156 115 136 197 238 234 238 205 202 205 238 234 238 156 152 205   0  48 156   0  48 156   0  48 156   0  48 156   0  48 156   0  48 156
156 202 205 255 250 255  49  88 172   0  48 156   0  48 156   0  48 156   0  48 156 255 250 255 156 202 205   0  48 156   0  48 156   0  48 156
  0  48 156   0  48 156   0  48 156   0  48 156   0  48 156   0  48 156 156 202 205 255 250 255 205 202 205   0  48 156   0  48 156  49  88 172
255 250 255 255 250 255 255 250 255  49  88 172   0  48 156   0  48 156   0  48 156   0  48 156 205 202 255 255 250 255 255 250 255 255 250 255
 49  88 172   0  48 156 115 136 197 255 250 255 255 250 255 238 234 238   0  48 156   0  48 156   0  48 156   0  48 156   0  48 156   0  48 156
  0  48 156   0  48 156   0  48 156   0  48 156   0  48 156   0  48 156   0  48 156   0  48 156   0  48 156   0  48 156  49  88 172 205 202 255
156 152 205  98 152 205 156 152 205 255 250 255 205 202 255  49  88 172  49  88 172 115 136 197 156 202 205 255 250 255 255 250 255 255 250 255
255 250 255  49  88 172   0  48 156   0  48 156   0  48 156   0  48 156   0  48 156  49  88 172 238 234 238 255 250 255 238 234 238 205 202 205
115 136 197 115 136 197 156 202 205 255 250 255  49  88 172   0  48 156   0  48 156   0  48 156   0  48 156   0  48 156   0  48 156   0  48 156
  0  48 156   0  48 156   0  48 156   0  48 156   0  48 156   0  48 156   0  48 156   0  48 156   0  48 156   0  48 156   0  48 156   0  48 156
  0  48 156 255 250 255 255 250 255 255 250 255 255 250 255 255 250 255 255 250 255 255 250 255 255 250 255 255 250 255 255 250 255 255 250 255
255 250 255 255 250 255 255 250 255 255 250 255 255 250 255 255 250 255 255 250 255 255 250 255 255 250 255 255 250 255 255 250 255 255 250 255
255 250 255  49  48   0 255 202 205 238 234 238 255 250 255 255 250 156 255 202  98  98  96  49  49  48   0 156 152  49 205 152   0 205 152  49
205 152  49 205 152  49 205 152  49 156 152  49  98  48   0  49  48   0 156  96  98  90  88  90  90  88  90  90  88  90  90  88  90  90  88  90
 90  88  90  90  88  90  90  88  90  90  88  90  74  64  65  90  88  90  90  88  90  98  96  98  98  96  98  98  96  98  98  96  98  98  96  98
238 234 238 255 250 255 255 250 255 255 250 255 255 250 255 255 250 255 255 250 255 255 250 255 255 250 255 255 250 255 255 250 255 255 250 255
255 250 255 255 250 255 255 250 255 255 250 255 255 250 255 255 250 255   0  48 156   0  48 156   0  48 156   0  48 156   0  48 156   0  48 156
  0  48 156   0  48 156   0  48 156   0  48 156   0  48 156   0  48 156   0  48 156   0  48 156   0  48 156   0  48 156   0  48 156   0  48 156
  0  48 156   0  48 156   0  48 156   0  48 156 205 202 205 255 250 255 255 250 255 115 136 197   0  48 156   0  48 156   0  48 156   0  48 156
  0  48 156   0  48 156   0  48 156   0  48 156 205 202 205 255 250 255 255 250 255 156 152 205   0  48 156   0  48 156   0  48 156   0  48 156
  0  48 156 238 234 238 255 250 255 255 250 255 255 250 255  49  88 172   0  48 156   0  48 156   0  48 156   0  48 156   0  48 156   0  48 156
238 234 238 255 250 255  49  88 172   0  48 156   0  48 156   0  48 156  49  88 172 255 250 255 255 250 255 115 136 197   0  48 156   0  48 156
  0  48 156   0  48 156   0  48 156   0  48 156   0  48 156   0  48 156 255 250 255 255 250 255 205 202 255   0  48 156   0  48 156 115 136 197
255 250 255 255 250 255 255 250 255   0  48 156   0  48 156   0  48 156   0  48 156 156 152 205 255 250 255 255 250 255 255 250 255 238 234 238
  0  48 156   0  48 156 156 202 205 255 250 255 255 250 255 156 152 205   0  48 156   0  48 156   0  48 156   0  48 156   0  48 156   0  48 156
  0  48 156   0  48 156   0  48 156   0  48 156   0  48 156   0  48 156   0  48 156   0  48 156   0  48 156   0  48 156   0  48 156   0  48 156
  0  48 156   0  48 156 205 202 205 255 250 255 115 136 197   0  48 156   0  48 156   0  48 156   0  48 156  49  88 172 255 250 255 255 250 255
255 250 255  49  88 172   0  48 156   0  48 156   0  48 156   0  48 156  49  88 172 238 234 238 255 250 255 115 136 197   0  48 156   0  48 156
  0  48 156   0  48 156   0  48 156   0  48 156   0  48 156   0  48 156   0  48 156   0  48 156   0  48 156   0  48 156   0  48 156   0  48 156
  0  48 156   0  48 156   0  48 156   0  48 156   0  48 156   0  48 156   0  48 156   0  48 156   0  48 156   0  48 156   0  48 156   0  48 156
  0  48 156 255 250 255 255 250 255 255 250 255 255 250 255 255 250 255 255 250 255 255 250 255 255 250 255 255 250 255 255 250 255 255 250 255
255 250 255 255 250 255 255 250 255 255 250 255 255 250 255 255 250 255 255 250 255 255 250 255 255 250 255 255 250 255 238 234 238 255 250 255
255 250 205 156  96  49 156 152  98 255 250 255 238 234 238 255 250 205 156 152  98  49   0   0  98  96  49 205 202  49 205 152  49 205 202   0
205 152  49 205 152   0 205 152  49 205 152   0 205 202  49 156  96  49 156  96  49  98  96  98  90  88  90  90  88  90  90  88  90  74  64  65
 90  88  90  74  64  65  90  88  90  90  88  90  90  88  90  74  64  65  74  64  65  90  88  90  98  96  98  98  96  98  98  96  98  98  96  98
 98  96  98 255 250 255 255 250 255 255 250 255 255 250 255 255 250 255 255 250 255 255 250 255 255 250 255 255 250 255 255 250 255 255 250 255
255 250 255 255 250 255 255 250 255 255 250 255 255 250 255 255 250 255 238 234 238   0  48 156   0  48 156   0  48 156   0  48 156   0  48 156
  0  48 156   0  48 156   0  48 156   0  48 156   0  48 156   0  48 156   0  48 156   0  48 156   0  48 156   0  48 156   0  48 156   0  48 156
  0  48 156   0  48 156   0  48 156  49  88 172 255 250 255 255 250 255 255 250 255  98  96 205   0  48 156   0  48 156   0  48 156   0  48 156
  0  48 156   0  48 156   0  48 156  49  88 172 255 250 255 255 250 255 255 250 255 115 136 197   0  48 156   0  48 156   0  48 156   0  48 156
  0  48 156 205 202 255 255 250 255 255 250 255 255 250 255   0  48 156   0  48 156   0  48 156   0  48 156   0  48 156   0  48 156  49  88 172
255 250 255 255 250 255  49  88 172   0  48 156   0  48 156   0  48 156  49  88 172 255 250 255 255 250 255 115 136 197   0  48 156   0  48 156
  0  48 156   0  48 156   0  48 156   0  48 156   0  48 156 115 136 197 255 250 255 255 250 255 115 136 197   0  48 156   0  48 156 115 136 197
255 250 255 255 250 255 255 250 255   0  48 156   0  48 156   0  48 156   0  48 156  98  96 205 156 202 205 255 250 255 255 250 255 156 152 205
  0  48 156   0  48 156 156 152 205 255 250 255 255 250 255  98 152 205   0  48 156   0  48 156   0  48 156   0  48 156   0  48 156   0  48 156
  0  48 156   0  48 156   0  48 156   0  48 156   0  48 156   0  48 156   0  48 156   0  48 156   0  48 156   0  48 156   0  48 156   0  48 156
  0  48 156 156 152 205 255 250 255 255 250 255  49  88 172   0  48 156   0  48 156   0  48 156   0  48 156  49  88 172 255 250 255 255 250 255
205 202 205   0  48 156   0  48 156   0  48 156   0  48 156   0  48 156 205 202 205 255 250 255 255 250 255   0  48 156   0  48 156   0  48 156
  0  48 156   0  48 156   0  48 156   0  48 156   0  48 156   0  48 156   0  48 156   0  48 156   0  48 156   0  48 156   0  48 156   0  48 156
  0  48 156   0  48 156   0  48 156   0  48 156   0  48 156   0  48 156   0  48 156   0  48 156   0  48 156   0  48 156   0  48 156   0  48 156
  0  48 156 255 250 255 255 250 255 255 250 255 255 250 255 255 250 255 255 250 255 255 250 255 255 250 255 255 250 255 255 250 255 255 250 255
255 250 255 255 250 255 255 250 255 255 250 255 255 250 255 255 250 255 255 250 255 255 250 255 238 234 238 255 250 255 255 250 205 255 250 205
255 202 156 205 152  49  98  96  49 156 152  49 205 202 156 156  96  49  98  48   0 156 152  49 205 152  49 255 152  49 205 202   0 255 202   0
255 152   0 205 202   0 205 152  49 205 152   0 205 152  49 156 152   0  98  96   0 156 152  98  74  64  65  90  88  90  74  64  65  74  64  65
 74  64  65  90  88  90  74  64  65  90  88  90  74  64  65  74  64  65  90  88  90  74  64  65  98  96  98  98  96  98  98  96  98  98  96  98
 90  88  90 180 170 180 255 250 255 255 250 255 255 250 255 255 250 255 255 250 255 255 250 255 255 250 255 255 250 255 255 250 255 255 250 255
255 250 255 255 250 255 255 250 255 255 250 255 255 250 255 255 250 255 255 250 255   0  48 156   0  48 156   0  48 156   0  48 156   0  48 156
  0  48 156   0  48 156   0  48 156   0  48 156   0  48 156   0  48 156   0  48 156   0  48 156   0  48 156   0  48 156   0  48 156   0  48 156
  0  48 156   0  48 156   0  48 156  49  88 172 255 250 255 255 250 255 255 250 255  49  88 172   0  48 156   0  48 156   0  48 156   0  48 156
  0  48 156   0  48 156   0  48 156  98  96 205 255 250 255 255 250 255 255 250 255  49  88 172   0  48 156   0  48 156   0  48 156   0  48 156
  0  48 156 238 234 238 255 250 255 255 250 255 238 234 238   0  48 156   0  48 156   0  48 156   0  48 156   0  48 156   0  48 156  49  88 172
255 250 255 255 250 255   0  48 156   0  48 156   0  48 156   0  48 156  98  96 205 255 250 255 255 250 255 115 136 197   0  48 156   0  48 156
  0  48 156   0  48 156   0  48 156   0  48 156   0  48 156 156 202 205 255 250 255 255 250 255  49  88 172   0  48 156   0  48 156  49  88 172
255 250 255 255 250 255 255 250 255   0  48 156   0  48 156   0  48 156   0  48 156  49  88 172 255 250 255 255 250 255 238 234 238   0  48 156
  0  48 156   0  48 156 205 202 255 255 250 255 238 234 238   0  48 156   0  48 156   0  48 156   0  48 156   0  48 156   0  48 156   0  48 156
  0  48 156   0  48 156   0  48 156   0  48 156   0  48 156   0  48 156   0  48 156   0  48 156   0  48 156   0  48 156   0  48 156   0  48 156
  0  48 156 205 202 255 255 250 255 255 250 255   0  48 156   0  48 156   0  48 156   0  48 156   0  48 156 156 202 205 255 250 255 205 202 255
  0  48 156   0  48 156   0  48 156   0  48 156   0  48 156   0  48 156 255 250 255 255 250 255 205 202 205   0  48 156   0  48 156   0  48 156
  0  48 156   0  48 156   0  48 156   0  48 156   0  48 156   0  48 156   0  48 156   0  48 156   0  48 156   0  48 156   0  48 156   0  48 156
  0  48 156   0  48 156   0  48 156   0  48 156   0  48 156   0  48 156   0  48 156   0  48 156   0  48 156   0  48 156   0  48 156   0  48 156
238 234 238 255 250 255 255 250 255 255 250 255 255 250 255 255 250 255 255 250 255 255 250 255 255 250 255 255 250 255 255 250 255 255 250 255
255 250 255 255 250 255 255 250 255 255 250 255 255 250 255 255 250 255 255 250 255 255 250 205 255 250 156 255 202  49 205 152  49 205 152  49
205 152  49 205 202  49 205 152   0 205 152  49 156  96   0 205 152  49 156 152  49 205 152   0 205 152   0 205 202  49 205 152   0 205 152  49
205 202  49 156  96   0 205 152   0 205 152  49 205 152   0 156  96   0 156  96   0  98  96  49  90  88  90  74  64  65  74  64  65  74  64  65
 74  64  65  74  64  65  74  64  65  74  64  65  74  64  65  74  64  65  74  64  65  74  64  65  74  64  65  98  96  98  98  96  98  98  96  98
156 152  98  90  88  90 255 250 255 238 234 238 255 250 255 255 250 255 255 250 255 255 250 255 255 250 255 255 250 255 255 250 255 255 250 255
255 250 255 255 250 255 255 250 255 255 250 255 255 250 255 255 250 255 255 250 255   0  48 156   0  48 156   0  48 156   0  48 156   0  48 156
  0  48 156   0  48 156   0  48 156   0  48 156   0  48 156   0  48 156   0  48 156   0  48 156   0  48 156   0  48 156   0  48 156   0  48 156
  0  48 156   0  48 156   0  48 156 115 136 197 255 250 255 255 250 255 255 250 255   0  48 156   0  48 156   0  48 156   0  48 156   0  48 156
  0  48 156   0  48 156   0  48 156 115 136 197 255 250 255 255 250 255 205 202 255   0  48 156   0  48 156   0  48 156   0  48 156   0  48 156
 49  88 172 255 250 255 255 250 255 255 250 255 255 250 255  49  88 172   0  48 156   0  48 156   0  48 156   0  48 156   0  48 156  49  88 172
255 250 255 255 250 255   0  48 156   0  48 156   0  48 156   0  48 156 115 136 197 255 250 255 255 250 255  49  88 172   0  48 156   0  48 156
  0  48 156   0  48 156   0  48 156   0  48 156   0  48 156 238 234 238 255 250 255 255 250 255  49  88 172   0  48 156   0  48 156   0  48 156
238 234 238 255 250 255 255 250 255 115 136 197   0  48 156   0  48 156   0  48 156 238 234 238 255 250 255 238 234 238  49  88 172   0  48 156
  0  48 156   0  48 156 255 250 255 255 250 255 156 152 205   0  48 156   0  48 156   0  48 156   0  48 156 205 202 255 255 250 255 156 152 205
  0  48 156   0  48 156   0  48 156   0  48 156   0  48 156   0  48 156   0  48 156   0  48 156   0  48 156   0  48 156   0  48 156   0  48 156
  0  48 156 238 234 238 255 250 255 205 202 205   0  48 156   0  48 156   0  48 156  49  88 172 205 202 205 255 250 255 205 202 255   0  48 156
  0  48 156   0  48 156   0  48 156   0  48 156   0  48 156  49  88 172 255 250 255 255 250 255 115 136 197   0  48 156   0  48 156   0  48 156
  0  48 156   0  48 156   0  48 156   0  48 156   0  48 156   0  48 156   0  48 156   0  48 156   0  48 156   0  48 156   0  48 156   0  48 156
  0  48 156   0  48 156   0  48 156   0  48 156   0  48 156   0  48 156   0  48 156   0  48 156   0  48 156   0  48 156   0  48 156   0  48 156
238 234 238 255 250 255 255 250 255 255 250 255 255 250 255 255 250 255 255 250 255 255 250 255 255 250 255 255 250 255 255 250 255 255 250 255
255 250 255 255 250 255 255 250 255 255 250 255 255 250 255 255 250 255 255 250 205 255 202 205 156 152  49 156  96  49 156  96  49 156 152   0
156  96   0 156  96   0 156 152  49 156  96   0 156 152   0 156 152   0 156  96   0 205 152  49 156 152   0 205 152  49 205 152   0 205 202   0
205 152  49 156  96   0 156 152   0 205 152  49 156  96   0 156  96   0 156  96  49 156 152   0 205 152  98  90  88  90  74  64  65  74  64  65
 74  64  65  74  64  65  74  64  65  74  64  65  74  64  65  74  64  65  74  64  65  74  64  65  74  64  65  74  64  65  90  88  90  98  96  98
 98  96 156  98  96  98 156 152 156 255 250 255 255 250 255 255 250 255 255 250 255 255 250 255 255 250 255 255 250 255 255 250 255 255 250 255
255 250 255 255 250 255 255 250 255 255 250 255 255 250 255 255 250 255 255 250 255   0  48 156   0  48 156   0  48 156   0  48 156   0  48 156
  0  48 156   0  48 156   0  48 156   0  48 156   0  48 156   0  48 156   0  48 156   0  48 156   0  48 156   0  48 156   0  48 156   0  48 156
  0  48 156   0  48 156   0  48 156 156 202 205 255 250 255 255 250 255 238 234 238   0  48 156   0  48 156   0  48 156   0  48 156   0  48 156
  0  48 156   0  48 156   0  48 156 115 136 197 255 250 255 255 250 255 205 202 205   0  48 156   0  48 156   0  48 156   0  48 156   0  48 156
 49  88 172 255 250 255 255 250 255 255 250 255 255 250 255 156 152 205   0  48 156   0  48 156   0  48 156   0  48 156   0  48 156  98  96 205
255 250 255 238 234 238   0  48 156   0  48 156   0  48 156   0  48 156 115 136 197 255 250 255 255 250 255  49  48 156   0  48 156   0  48 156
  0  48 156   0  48 156   0  48 156   0  48 156  49  88 172 255 250 255 255 250 255 238 234 238   0  48 156   0  48 156   0  48 156   0  48 156
156 152 205 255 250 255 255 250 255 156 152 205   0  48 156   0  48 156 115 136 197 255 250 255 255 250 255  98  96 205   0  48 156   0  48 156
  0  48 156  98  96 205 255 250 255 255 250 255  49  88 172   0  48 156   0  48 156   0  48 156  49  88 172 255 250 255 255 250 255 205 202 255
  0  48 156   0  48 156   0  48 156   0  48 156   0  48 156   0  48 156   0  48 156   0  48 156   0  48 156   0  48 156   0  48 156   0  48 156
  0  48 156 255 250 255 255 250 255 205 202 255   0  48 156   0  48 156 115 136 197 238 234 238 255 250 255 156 152 205   0  48 156   0  48 156
  0  48 156   0  48 156   0  48 156   0  48 156   0  48 156 156 152 205 255 250 255 255 250 255  98  96 205   0  48 156   0  48 156   0  48 156
  0  48 156   0  48 156   0  48 156   0  48 156   0  48 156   0  48 156   0  48 156   0  48 156   0  48 156   0  48 156   0  48 156   0  48 156
  0  48 156   0  48 156   0  48 156   0  48 156   0  48 156   0  48 156   0  48 156   0  48 156   0  48 156   0  48 156   0  48 156   0  48 156
255 250 255 255 250 255 255 250 255 255 250 255 255 250 255 255 250 255 255 250 255 255 250 255 255 250 255 255 250 255 255 250 255 255 250 255
255 250 255 255 250 255 255 250 255 255 250 255 255 250 255 255 250 255 255 250 255 238 234 238 255 202 156 205 202 156 255 202 156 255 202 205
255 250 205  49  48   0  49  48   0  49  48   0  49  48  49  49   0   0   0   0   0   0  48  49 156  96  98 156  96  49  98  96  49 156  96  49
156 152  49  98  96   0 156  96  49 156 152  49 156  96  49 156  96   0 156  96   0 205 152  49  98  96  49  98  96  98  90  88  90  74  64  65
 49  48  49   0   0   0  49  48  49  49  48  49  74  64  65  74  64  65  74  64  65  74  64  65  74  64  65  74  64  65  90  88  90  74  64  65
156 152  98  98 152 156 156  96  98 238 234 238 255 250 255 238 234 238 255 250 255 255 250 255 255 250 255 255 250 255 255 250 255 255 250 255
255 250 255 255 250 255 255 250 255 255 250 255 255 250 255 255 250 255 255 250 255   0  48 156   0  48 156   0  48 156   0  48 156   0  48 156
  0  48 156   0  48 156   0  48 156   0  48 156   0  48 156   0  48 156   0  48 156   0  48 156   0  48 156   0  48 156   0  48 156   0  48 156
  0  48 156   0  48 156   0  48 156 238 234 238 255 250 255 255 250 255 115 136 197   0  48 156   0  48 156   0  48 156   0  48 156   0  48 156
  0  48 156   0  48 156   0  48 156   0  48 156 255 250 255 255 250 255 115 136 197   0  48 156   0  48 156   0  48 156   0  48 156   0  48 156
115 136 197 255 250 255 255 250 255 255 250 255 255 250 255 238 234 238   0  48 156   0  48 156   0  48 156   0  48 156   0  48 156  98  96 205
255 250 255 205 202 255   0  48 156   0  48 156   0  48 156   0  48 156 115 136 197 255 250 255 255 250 255   0  48 156   0  48 156   0  48 156
  0  48 156   0  48 156   0  48 156   0  48 156 115 136 197 255 250 255 255 250 255 156 152 205   0  48 156   0  48 156   0  48 156   0  48 156
115 136 197 255 250 255 255 250 255 205 202 255   0  48 156  49  88 172 238 234 238 255 250 255 156 152 205   0  48 156   0  48 156   0  48 156
  0  48 156 115 136 197 255 250 255 238 234 238   0  48 156   0  48 156   0  48 156   0  48 156  98  96 205 255 250 255 255 250 255 156 152 205
  0  48 156   0  48 156   0  48 156   0  48 156   0  48 156   0  48 156   0  48 156   0  48 156   0  48 156   0  48 156   0  48 156   0  48 156
 49  88 172 255 250 255 255 250 255 115 136 197 115 136 197 238 234 238 255 250 255 205 202 255  49  88 172   0  48 156   0  48 156   0  48 156
  0  48 156   0  48 156   0  48 156   0  48 156   0  48 156 156 152 205 255 250 255 255 250 255   0  48 156   0  48 156   0  48 156   0  48 156
  0  48 156   0  48 156   0  48 156   0  48 156   0  48 156   0  48 156   0  48 156   0  48 156   0  48 156   0  48 156   0  48 156   0  48 156
  0  48 156   0  48 156   0  48 156   0  48 156   0  48 156   0  48 156   0  48 156   0  48 156   0  48 156   0  48 156   0  48 156   0  48 156
255 250 255 255 250 255 255 250 255 255 250 255 255 250 255 255 250 255 255 250 255 255 250 255 255 250 255 255 250 255 255 250 255 255 250 255
255 250 255 255 250 255 255 250 255 255 250 255 255 250 255 255 250 255 255 250 255 255 250 205 255 250 255 255 250 205 255 250 255 255 250 255
255 250 255   0   0   0   0   0   0  49   0   0  49  48   0  49  48  49   0   0   0   0   0   0   0   0   0   0   0   0  90  88  90 156  96 156
 49  48   0  49  48   0   0   0   0  49  48   0  98  96   0  98  96  49  98  96   0  98  96  49 205 152  98 255 250 255  74  64  65  49  48  49
  0   0   0   0   0   0   0   0   0  49  48  49  49  48  49  74  64  65  74  64  65  74  64  65  74  64  65  74  64  65  74  64  65  74  64  65
 98  96  98 156  96  98 156 152 156  98  96  98 255 250 255 255 250 255 255 250 255 255 250 255 255 250 255 255 250 255 255 250 255 255 250 255
255 250 255 255 250 255 255 250 255 255 250 255 255 250 255 255 250 255 255 250 255   0  48 156   0  48 156   0  48 156   0  48 156   0  48 156
  0  48 156   0  48 156   0  48 156   0  48 156   0  48 156   0  48 156   0  48 156   0  48 156   0  48 156   0  48 156   0  48 156   0  48 156
  0  48 156   0  48 156   0  48 156 238 234 238 255 250 255 255 250 255  49  88 172   0  48 156   0  48 156   0  48 156   0  48 156   0  48 156
  0  48 156   0  48 156   0  48 156   0  48 156 255 250 255 255 250 255 115 136 197   0  48 156   0  48 156   0  48 156   0  48 156   0  48 156
156 152 205 255 250 255 255 250 255 205 202 205 255 250 255 255 250 255 115 136 197   0  48 156   0  48 156   0  48 156   0  48 156 115 136 197
255 250 255 205 202 205   0  48 156   0  48 156   0  48 156   0  48 156 115 136 197 255 250 255 205 202 205   0  48 156   0  48 156   0  48 156
  0  48 156   0  48 156   0  48 156   0  48 156 156 152 205 255 250 255 255 250 255 115 136 197   0  48 156   0  48 156   0  48 156   0  48 156
  0  48 156 255 250 255 255 250 255 255 250 255  49  96 156 205 202 255 255 250 255 205 202 255   0  48 156   0  48 156   0  48 156   0  48 156
  0  48 156 156 202 205 255 250 255 156 152 205   0  48 156   0  48 156   0  48 156   0  48 156 115 136 197 255 250 255 255 250 255 115 136 197
  0  48 156   0  48 156   0  48 156   0  48 156   0  48 156   0  48 156   0  48 156   0  48 156   0  48 156   0  48 156   0  48 156   0  48 156
 98  96 205 255 250 255 255 250 255 255 250 255 255 250 255 205 202 255 115 136 197   0  48 156   0  48 156   0  48 156   0  48 156   0  48 156
  0  48 156   0  48 156   0  48 156   0  48 156   0  48 156 238 234 238 255 250 255 205 202 205   0  48 156   0  48 156  49  88 172 115 136 197
156 202 205 205 202 255 156 152 205   0  48 156   0  48 156   0  48 156   0  48 156   0  48 156   0  48 156   0  48 156   0  48 156   0  48 156
  0  48 156   0  48 156   0  48 156   0  48 156   0  48 156   0  48 156   0  48 156   0  48 156   0  48 156   0  48 156   0  48 156   0  48 156
255 250 255 255 250 255 255 250 255 255 250 255 255 250 255 255 250 255 255 250 255 255 250 255 255 250 255 255 250 255 255 250 255 255 250 255
255 250 255 255 250 255 255 250 255 255 250 255 255 250 255 255 250 255 255 250 255 255 250 255 255 250 255 255 250 255 255 250 255 255 250 255
255 250 255   0   0   0  49  48  49 205 202 205 180 170 180  74  64  65   0   0   0   0   0   0   0   0   0 156 152  98 205 202 205 238 234 238
180 170 180  49   0  49   0   0   0   0   0   0  49   0   0   0   0   0 156 152  98 255 250 205 255 250 205 255 250 255 180 170 180  74  64  65
  0   0   0   0   0   0   0   0   0   0   0   0  49  48  49  49  48  49  49  48  49  49  48  49  74  64  65  49  48  49  49  48  49  74  64  65
 74  64  65  98  96 156 156 152 156  98 152 156 180 170 180 255 250 255 255 250 255 255 250 255 255 250 255 255 250 255 255 250 255 255 250 255
255 250 255 255 250 255 255 250 255 255 250 255 255 250 255 255 250 255 255 250 255 238 234 238   0  48 156   0  48 156   0  48 156   0  48 156
  0  48 156   0  48 156   0  48 156   0  48 156   0  48 156   0  48 156   0  48 156   0  48 156   0  48 156   0  48 156   0  48 156   0  48 156
  0  48 156   0  48 156   0  48 156 156 152 205 255 250 255 255 250 255   0  48 156   0  48 156   0  48 156   0  48 156   0  48 156   0  48 156
  0  48 156   0  48 156   0  48 156  49  88 172 255 250 255 255 250 255  49  88 172   0  48 156   0  48 156   0  48 156   0  48 156   0  48 156
205 202 255 255 250 255 238 234 238  49  96 205 255 250 255 255 250 255 115 136 197   0  48 156   0  48 156   0  48 156   0  48 156 115 136 197
255 250 255 115 136 197   0  48 156   0  48 156   0  48 156   0  48 156 115 136 197 255 250 255 205 202 255   0  48 156   0  48 156   0  48 156
  0  48 156   0  48 156   0  48 156   0  48 156 238 234 238 255 250 255 255 250 255   0  48 156   0  48 156   0  48 156   0  48 156   0  48 156
  0  48 156 156 152 205 255 250 255 255 250 255 205 202 255 255 250 255 255 250 255  49  88 172   0  48 156   0  48 156   0  48 156   0  48 156
  0  48 156 238 234 238 255 250 255  98  96 205   0  48 156   0  48 156   0  48 156   0  48 156 156 202 205 255 250 255 255 250 255  49  88 172
  0  48 156   0  48 156   0  48 156   0  48 156   0  48 156   0  48 156   0  48 156   0  48 156   0  48 156   0  48 156   0  48 156  49  88 172
156 202 205 255 250 255 255 250 255 238 234 238 115 136 197   0  48 156   0  48 156   0  48 156   0  48 156   0  48 156   0  48 156   0  48 156
  0  48 156   0  48 156   0  48 156   0  48 156   0  48 156 255 250 255 255 250 255 115 136 197 115 136 197 238 234 238 255 250 255 255 250 255
255 250 255 255 250 255 255 250 255  49  88 172   0  48 156   0  48 156   0  48 156   0  48 156   0  48 156   0  48 156   0  48 156   0  48 156
  0  48 156   0  48 156   0  48 156   0  48 156   0  48 156   0  48 156   0  48 156   0  48 156   0  48 156   0  48 156   0  48 156   0  48 156
255 250 255 255 250 255 255 250 255 255 250 255 255 250 255 255 250 255 255 250 255 255 250 255 255 250 255 255 250 255 255 250 255 255 250 255
255 250 255 255 250 255 255 250 255 255 250 255 255 250 255 255 250 255 255 250 255 255 250 255 255 250 255 255 250 255 255 250 255 255 250 255
255 250 255   0   0   0 156 152 156 180 170 180 205 202 205 255 250 255   0   0   0   0   0   0  49  48  49 238 234 238 180 170 180  49  48  49
238 234 238 205 202 205   0   0   0   0   0   0   0   0   0   0   0   0 156 152 156 255 250 205 255 250 255 255 250 255 255 250 255  90  88  90
 49  48  49   0   0   0   0   0   0   0   0   0  49  48  49  49  48  49  49  48  49  49  48  49  49  48  49  49  48  49  74  64  65  49  48  49
 74  64  65  74  64  65  98  96  98 156 152 156  98  96  98 255 250 255 255 250 255 255 250 255 255 250 255 255 250 255 255 250 255 255 250 255
255 250 255 255 250 255 255 250 255 255 250 255 255 250 255 255 250 255 255 250 255 255 250 255   0  48 156   0  48 156   0  48 156   0  48 156
  0  48 156   0  48 156   0  48 156   0  48 156   0  48 156   0  48 156   0  48 156   0  48 156   0  48 156   0  48 156   0  48 156   0  48 156
  0  48 156   0  48 156   0  48 156 205 202 255 255 250 255 205 202 255   0  48 156   0  48 156   0  48 156   0  48 156   0  48 156   0  48 156
  0  48 156   0  48 156   0  48 156  49  88 172 255 250 255 255 250 255   0  48 156   0  48 156   0  48 156   0  48 156   0  48 156   0  48 156
255 250 255 255 250 255 156 152 205   0  48 156 238 234 238 255 250 255 255 250 255   0  48 156   0  48 156   0  48 156   0  48 156 156 152 205
255 250 255 115 136 197   0  48 156   0  48 156   0  48 156   0  48 156 115 136 197 255 250 255 205 202 205   0  48 156   0  48 156   0  48 156
  0  48 156   0  48 156   0  48 156  49  88 172 255 250 255 255 250 255 205 202 255   0  48 156   0  48 156   0  48 156   0  48 156   0  48 156
  0  48 156  98  96 205 255 250 255 255 250 255 255 250 255 255 250 255 115 136 197   0  48 156   0  48 156   0  48 156   0  48 156   0  48 156
  0  48 156 255 250 255 255 250 255   0  48 156   0  48 156   0  48 156   0  48 156   0  48 156 205 202 255 255 250 255 238 234 238   0  48 156
  0  48 156   0  48 156   0  48 156   0  48 156   0  48 156   0  48 156   0  48 156   0  48 156   0  48 156   0  48 156   0  48 156 255 250 255
255 250 255 255 250 255 255 250 255 205 202 255   0  48 156   0  48 156   0  48 156   0  48 156   0  48 156   0  48 156   0  48 156   0  48 156
  0  48 156   0  48 156   0  48 156   0  48 156  49  88 172 255 250 255 255 250 255 238 234 238 255 250 255 255 250 255 255 250 255 255 250 255
255 250 255 205 202 255 255 250 255   0  48 156   0  48 156   0  48 156   0  48 156   0  48 156   0  48 156   0  48 156   0  48 156   0  48 156
  0  48 156   0  48 156   0  48 156   0  48 156   0  48 156   0  48 156   0  48 156   0  48 156   0  48 156   0  48 156   0  48 156   0  48 156
255 250 255 255 250 255 255 250 255 255 250 255 255 250 255 255 250 255 255 250 255 255 250 255 255 250 255 255 250 255 255 250 255 255 250 255
255 250 255 255 250 255 255 250 255 255 250 255 255 250 255 255 250 255 255 250 255 255 250 255 255 250 255 255 250 255 255 250 255 255 250 255
238 234 238  49   0   0 205 202 205  49  48  49  98  96  98 238 234 238   0   0   0  49  48  49  74  64  65 255 250 255   0   0   0   0   0   0
 90  88  90 255 250 255   0   0   0   0   0   0   0   0   0   0   0   0 156 152 156 255 250 255 255 250 255 255 250 255 255 250 255 255 250 255
  0   0   0   0   0   0   0   0   0   0   0   0   0   0   0  49  48  49  49  48  49  49  48  49  49  48  49  49  48  49  49  48  49  49  48  49
 49  48  49  74  64  65  98 152 156 156  96  98 156 152 156 255 250 255 255 250 255 255 250 255 255 250 255 255 250 255 255 250 255 255 250 255
255 250 255 255 250 255 255 250 255 255 250 255 255 250 255 255 250 255 255 250 255 255 250 255   0  48 156   0  48 156   0  48 156   0  48 156
  0  48 156   0  48 156   0  48 156   0  48 156   0  48 156   0  48 156   0  48 156   0  48 156   0  48 156   0  48 156   0  48 156   0  48 156
  0  48 156   0  48 156   0  48 156 238 234 238 255 250 255 156 152 205   0  48 156   0  48 156   0  48 156   0  48 156   0  48 156   0  48 156
  0  48 156   0  48 156   0  48 156 115 136 197 255 250 255 255 250 255   0  48 156   0  48 156   0  48 156   0  48 156   0  48 156   0  48 156
255 250 255 255 250 255 115 136 197   0  48 156 115 136 197 255 250 255 255 250 255  98  96 205   0  48 156   0  48 156   0  48 156 205 202 205
255 250 255 115 136 197   0  48 156   0  48 156   0  48 156   0  48 156 115 136 197 255 250 255 205 202 255   0  48 156   0  48 156   0  48 156
  0  48 156   0  48 156   0  48 156 115 136 197 255 250 255 255 250 255 156 202 205   0  48 156   0  48 156   0  48 156   0  48 156   0  48 156
  0  48 156   0  48 156 238 234 238 255 250 255 255 250 255 205 202 255   0  48 156   0  48 156   0  48 156   0  48 156   0  48 156   0  48 156
 49  88 172 255 250 255 205 202 255   0  48 156   0  48 156   0  48 156   0  48 156   0  48 156 205 202 205 255 250 255 205 202 255   0  48 156
  0  48 156   0  48 156   0  48 156   0  48 156   0  48 156   0  48 156   0  48 156   0  48 156   0  48 156   0  48 156   0  48 156 115 136 197
238 234 238 255 250 255 255 250 255 255 250 255 255 250 255 156 152 205  49  88 172   0  48 156   0  48 156   0  48 156   0  48 156   0  48 156
  0  48 156   0  48 156   0  48 156   0  48 156  49  88 172 255 250 255 255 250 255 238 234 238 115 136 197  98  96 205   0  48 156   0  48 156
  0  48 156   0  48 156   0  48 156   0  48 156   0  48 156   0  48 156   0  48 156   0  48 156   0  48 156   0  48 156   0  48 156   0  48 156
  0  48 156   0  48 156   0  48 156   0  48 156   0  48 156   0  48 156   0  48 156   0  48 156   0  48 156   0  48 156   0  48 156   0  48 156
255 250 255 255 250 255 255 250 255 255 250 255 255 250 255 255 250 255 255 250 255 255 250 255 255 250 255 255 250 255 255 250 255 255 250 255
255 250 255 255 250 255 255 250 255 255 250 255 255 250 255 255 250 255 255 250 255 255 250 255 255 250 255 255 250 255 255 250 255 255 250 205
205 202 205   0   0   0 205 202 205   0   0   0  49   0   0 205 202 156  98  48   0  98  48   0  98  48   0 205 202 205   0   0   0   0   0   0
  0   0   0 255 250 255   0   0   0   0   0   0   0   0   0   0   0   0 156 152 156 255 250 255 255 250 255 255 250 255 255 250 255 255 250 255
156 152 156   0   0   0   0   0   0   0   0   0   0   0   0  49  48  49  49  48  49  49  48  49  49  48  49  74  64  65  49  48  49  49  48  49
 74  64  65  49  48  49  74  64  65 156 152 156 156 152 156  98  96  98 255 250 255 255 250 255 255 250 255 255 250 255 255 250 255 255 250 255
255 250 255 255 250 255 255 250 255 255 250 255 255 250 255 255 250 255 255 250 255 255 250 255   0  48 156   0  48 156   0  48 156   0  48 156
  0  48 156   0  48 156   0  48 156   0  48 156   0  48 156   0  48 156   0  48 156   0  48 156   0  48 156   0  48 156   0  48 156   0  48 156
  0  48 156   0  48 156   0  48 156 255 250 255 255 250 255 115 136 197   0  48 156   0  48 156   0  48 156   0  48 156   0  48 156   0  48 156
  0  48 156   0  48 156   0  48 156 115 136 197 255 250 255 205 202 205   0  48 156   0  48 156   0  48 156   0  48 156   0  48 156  49  88 172
255 250 255 255 250 255  49  88 172   0  48 156  49  88 172 255 250 255 255 250 255 156 152 205   0  48 156   0  48 156   0  48 156 205 202 255
255 250 255  49  88 172   0  48 156   0  48 156   0  48 156   0  48 156 115 136 197 255 250 255 238 234 238   0  48 156   0  48 156   0  48 156
  0  48 156   0  48 156   0  48 156 205 202 255 255 250 255 255 250 255 115 136 197   0  48 156   0  48 156   0  48 156   0  48 156   0  48 156
  0  48 156   0  48 156 156 152 205 255 250 255 255 250 255 156 202 205   0  48 156   0  48 156   0  48 156   0  48 156   0  48 156   0  48 156
 49  88 172 255 250 255 205 202 205   0  48 156   0  48 156   0  48 156   0  48 156   0  48 156 255 250 255 255 250 255 115 136 197   0  48 156
  0  48 156   0  48 156   0  48 156   0  48 156   0  48 156   0  48 156   0  48 156   0  48 156   0  48 156   0  48 156   0  48 156   0  48 156
205 202 255 255 250 255 255 250 255 205 202 255 255 250 255 255 250 255 255 250 255 205 202 255 115 136 197   0  48 156   0  48 156   0  48 156
  0  48 156   0  48 156   0  48 156   0  48 156 115 136 197 255 250 255 255 250 255   0  48 156   0  48 156   0  48 156   0  48 156   0  48 156
  0  48 156   0  48 156   0  48 156   0  48 156   0  48 156   0  48 156   0  48 156   0  48 156   0  48 156   0  48 156   0  48 156   0  48 156
  0  48 156   0  48 156   0  48 156   0  48 156   0  48 156   0  48 156   0  48 156   0  48 156   0  48 156   0  48 156   0  48 156   0  48 156
255 250 255 255 250 255 255 250 255 255 250 255 255 250 255 255 250 255 255 250 255 255 250 255 255 250 255 255 250 255 255 250 255 255 250 255
255 250 255 255 250 255 255 250 255 255 250 255 255 250 255 255 250 255 255 250 255 255 250 255 255 250 255 255 250 255 255 250 255 255 250 255
238 234 238   0   0   0 156 152 156  98  96  49  49  48   0 156  96  49 205 202  49 205 152  49 156  96   0 156 152  49  98  48   0   0   0  49
156 152 156 238 234 238   0   0   0   0   0   0   0   0   0   0   0   0 156 152 156 238 234 238 255 250 255 255 250 255 255 250 255 255 250 255
238 234 238   0   0   0   0   0   0   0   0   0   0   0   0  49  48  49  49  48  49  49  48  49  49  48  49  49  48  49  49  48  49  49  48  49
 49  48  49  49  48  49  49  48  49 156 152 156 156 152 156 156 152 156 205 202 205 255 250 255 255 250 255 255 250 255 255 250 255 255 250 255
255 250 255 255 250 255 255 250 255 255 250 255 255 250 255 255 250 255 255 250 255 255 250 255   0  48 156   0  48 156   0  48 156   0  48 156
  0  48 156   0  48 156   0  48 156   0  48 156   0  48 156   0  48 156   0  48 156   0  48 156   0  48 156   0  48 156   0  48 156   0  48 156
  0  48 156   0  48 156  49  88 172 255 250 255 255 250 255  49  88 172   0  48 156   0  48 156   0  48 156   0  48 156   0  48 156   0  48 156
  0  48 156   0  48 156   0  48 156 115 136 197 255 250 255 205 202 255   0  48 156   0  48 156   0  48 156   0  48 156   0  48 156 115 136 197
255 250 255 205 202 255   0  48 156   0  48 156   0  48 156 205 202 205 255 250 255 238 234 238   0  48 156   0  48 156   0  48 156 255 250 255
255 250 255   0  48 156   0  48 156   0  48 156   0  48 156   0  48 156 115 136 197 255 250 255 255 250 255   0  48 156   0  48 156   0  48 156
  0  48 156   0  48 156  49  88 172 255 250 255 255 250 255 255 250 255  49  88 172   0  48 156   0  48 156   0  48 156   0  48 156   0  48 156
  0  48 156   0  48 156 238 234 238 255 250 255 255 250 255 255 250 255   0  48 156   0  48 156   0  48 156   0  48 156   0  48 156   0  48 156
 49  88 172 255 250 255 238 234 238  49  88 172   0  48 156   0  48 156   0  48 156   0  48 156 255 250 255 255 250 255 115 136 197 115 136 197
238 234 238  49  88 172   0  48 156   0  48 156   0  48 156   0  48 156   0  48 156   0  48 156   0  48 156   0  48 156   0  48 156   0  48 156
156 152 205 255 250 255 205 202 255   0  48 156  49  88 172 115 136 197 238 234 238 255 250 255 255 250 255 238 234 238  98  96 205   0  48 156
  0  48 156   0  48 156   0  48 156   0  48 156 115 136 197 255 250 255 205 202 205   0  48 156   0  48 156   0  48 156   0  48 156   0  48 156
  0  48 156   0  48 156   0  48 156   0  48 156   0  48 156   0  48 156   0  48 156   0  48 156   0  48 156   0  48 156   0  48 156   0  48 156
  0  48 156   0  48 156   0  48 156   0  48 156   0  48 156   0  48 156   0  48 156   0  48 156   0  48 156   0  48 156   0  48 156   0  48 156
255 250 255 255 250 255 255 250 255 255 250 255 255 250 255 255 250 255 255 250 255 255 250 255 255 250 255 255 250 255 255 250 255 255 250 255
255 250 255 255 250 255 255 250 255 255 250 255 255 250 255 255 250 255 255 250 255 255 250 255 255 250 255 255 250 255 255 250 255 255 250 255
255 250 255   0   0   0   0   0   0 205 152  98 205 152   0 255 202   0 205 152   0 156 152   0 156 152  49 156  96   0 205 202  49 205 152  49
205 202  49  49  48   0   0   0   0   0   0   0   0   0  49   0   0   0  98  96  98 255 250 255 255 250 255 255 250 255 255 250 255 255 250 255
255 250 255   0   0   0   0   0   0   0   0   0   0   0   0   0   0   0  49  48  49  49  48  49  49  48  49  49  48  49  49  48  49  49  48  49
 49  48  49  49  48  49  49  48  49  49  48  49 180 170 180 156 152 156 156 152 156 255 250 255 255 250 255 255 250 255 255 250 255 255 250 255
255 250 255 255 250 255 255 250 255 255 250 255 255 250 255 255 250 255 255 250 255 255 250 255   0  48 156   0  48 156   0  48 156   0  48 156
  0  48 156   0  48 156   0  48 156   0  48 156   0  48 156   0  48 156   0  48 156   0  48 156   0  48 156   0  48 156   0  48 156   0  48 156
  0  48 156   0  48 156 115 136 197 255 250 255 255 250 255   0  48 156   0  48 156   0  48 156   0  48 156   0  48 156   0  48 156   0  48 156
  0  48 156   0  48 156   0  48 156 156 152 205 255 250 255 156 202 205   0  48 156   0  48 156   0  48 156   0  48 156   0  48 156 156 152 205
255 250 255 156 152 205   0  48 156   0  48 156   0  48 156  49  88 172 255 250 255 255 250 255 115 136 197   0  48 156  49  88 172 255 250 255
255 250 255   0  48 156   0  48 156   0  48 156   0  48 156   0  48 156  49  88 172 255 250 255 255 250 255  49  88 172   0  48 156   0  48 156
  0  48 156   0  48 156 156 152 205 255 250 255 255 250 255 255 250 255   0  48 156   0  48 156   0  48 156   0  48 156   0  48 156   0  48 156
  0  48 156 156 202 205 255 250 255 238 234 238 255 250 255 255 250 255 115 136 197   0  48 156   0  48 156   0  48 156   0  48 156   0  48 156
 49  88 172 255 250 255 255 250 255 255 250 255 255 250 255 205 202 255 205 202 205 205 202 255 255 250 255 255 250 255 255 250 255 255 250 255
156 152 205   0  48 156   0  48 156   0  48 156   0  48 156   0  48 156   0  48 156   0  48 156   0  48 156   0  48 156   0  48 156   0  48 156
205 202 205 255 250 255 156 202 205   0  48 156   0  48 156   0  48 156   0  48 156  49  88 172 238 234 238 255 250 255 255 250 255 115 136 197
  0  48 156   0  48 156   0  48 156   0  48 156 115 136 197 255 250 255 156 202 205   0  48 156   0  48 156   0  48 156   0  48 156   0  48 156
  0  48 156   0  48 156   0  48 156   0  48 156   0  48 156   0  48 156   0  48 156   0  48 156   0  48 156   0  48 156   0  48 156   0  48 156
  0  48 156   0  48 156   0  48 156   0  48 156   0  48 156   0  48 156   0  48 156   0  48 156   0  48 156   0  48 156   0  48 156   0  48 156
255 250 255 255 250 255 255 250 255 255 250 255 255 250 255 255 250 255 255 250 255 255 250 255 255 250 255 255 250 255 255 250 255 255 250 255
255 250 255 255 250 255 255 250 255 255 250 255 255 250 255 255 250 255 255 250 255 255 250 255 255 250 255 255 250 255 238 234 238 255 250 255
238 234 238   0   0   0  98  96   0 205 152   0 205 152   0 255 202  49 205 152   0 156  96   0 156  96   0 156 152   0 205 152   0 255 202  49
205 202  49 255 202  98  49   0   0   0   0   0   0   0   0   0   0   0  49  48  49 255 250 255 255 250 255 255 250 255 255 250 255 255 250 255
255 250 255   0   0   0   0   0   0   0   0   0   0   0   0   0   0   0  49  48  49   0   0   0  49  48  49  49  48  49  49  48  49  49  48  49
 49  48  49  49  48  49  49  48  49  49  48  49 156 152 156 156 152 156 156 152 156 255 250 255 255 250 255 255 250 255 255 250 255 255 250 255
255 250 255 255 250 255 255 250 255 255 250 255 255 250 255 255 250 255 255 250 255 238 234 238   0  48 156   0  48 156   0  48 156   0  48 156
  0  48 156   0  48 156   0  48 156   0  48 156   0  48 156   0  48 156   0  48 156   0  48 156   0  48 156   0  48 156   0  48 156   0  48 156
  0  48 156   0  48 156 156 152 205 255 250 255 205 202 255   0  48 156   0  48 156   0  48 156   0  48 156   0  48 156   0  48 156   0  48 156
  0  48 156   0  48 156   0  48 156 205 202 205 255 250 255 115 136 197   0  48 156   0  48 156   0  48 156   0  48 156   0  48 156 205 202 255
255 250 255 115 136 197   0  48 156   0  48 156   0  48 156   0  48 156 238 234 238 255 250 255 238 234 238   0  48 156 115 136 197 255 250 255
205 202 205   0  48 156   0  48 156   0  48 156   0  48 156   0  48 156  49  88 172 255 250 255 255 250 255 115 136 197   0  48 156   0  48 156
  0  48 156   0  48 156 238 234 238 255 250 255 255 250 255 255 250 255   0  48 156   0  48 156   0  48 156   0  48 156   0  48 156   0  48 156
115 136 197 255 250 255 255 250 255   0  48 156 238 234 238 255 250 255 255 250 255   0  48 156   0  48 156   0  48 156   0  48 156   0  48 156
  0  48 156 238 234 238 255 250 255 255 250 255 255 250 255 255 250 255 255 250 255 255 250 255 255 250 255 255 250 255 205 202 255  49  88 172
  0  48 156   0  48 156   0  48 156  49  88 172 238 234 238 205 202 255   0  48 156   0  48 156   0  48 156   0  48 156   0  48 156   0  48 156
205 202 255 255 250 255 115 136 197   0  48 156   0  48 156   0  48 156   0  48 156   0  48 156  49  88 172 255 250 255 255 250 255 238 234 238
  0  48 156   0  48 156   0  48 156   0  48 156 156 202 205 255 250 255 115 136 197   0  48 156   0  48 156   0  48 156   0  48 156   0  48 156
  0  48 156   0  48 156   0  48 156   0  48 156   0  48 156   0  48 156   0  48 156   0  48 156   0  48 156   0  48 156   0  48 156   0  48 156
  0  48 156   0  48 156   0  48 156   0  48 156   0  48 156   0  48 156   0  48 156   0  48 156   0  48 156   0  48 156   0  48 156   0  48 156
255 250 255 255 250 255 255 250 255 255 250 255 255 250 255 255 250 255 255 250 255 255 250 255 255 250 255 255 250 255 255 250 255 255 250 255
255 250 255 255 250 255 255 250 255 255 250 255 255 250 255 255 250 255 255 250 255 255 250 255 255 250 255 255 250 255 255 250 255 255 250 255
205 202 205   0   0   0 156  96  49 205 152   0 205 152   0 255 202   0 205 202  49 205 152  49 205 202   0 205 152  49 205 202  49 205 152   0
205 152   0 205 152  49   0   0   0   0   0   0   0   0   0   0   0   0   0   0   0 238 234 238 255 250 255 255 250 255 255 250 255 255 250 255
255 250 255   0   0   0   0   0   0   0   0   0   0   0   0   0   0   0   0   0   0  49  48  49  49  48  49  49  48  49  49  48  49   0   0   0
 49  48  49  49  48  49  49  48  49  49  48   0  90  88  90 180 170 180 180 170 180  98  96  98 255 250 255 255 250 255 255 250 255 255 250 255
255 250 255 255 250 255 255 250 255 255 250 255 255 250 255 255 250 255 255 250 255 238 234 238   0  48 156   0  48 156   0  48 156   0  48 156
  0  48 156   0  48 156   0  48 156   0  48 156   0  48 156   0  48 156   0  48 156   0  48 156   0  48 156   0  48 156   0  48 156   0  48 156
  0  48 156   0  48 156 205 202 255 255 250 255 205 202 205   0  48 156   0  48 156   0  48 156   0  48 156   0  48 156  49  88 172  49  88 172
  0  48 156   0  48 156   0  48 156 205 202 255 255 250 255 115 136 197   0  48 156   0  48 156   0  48 156   0  48 156   0  48 156 238 234 238
255 250 255   0  48 156   0  48 156   0  48 156   0  48 156   0  48 156 115 136 197 255 250 255 255 250 255  98  96 205 156 202 205 255 250 255
156 152 205   0  48 156   0  48 156   0  48 156   0  48 156   0  48 156   0  48 156 255 250 255 255 250 255 238 234 238   0  48 156   0  48 156
  0  48 156 156 202 205 238 234 238 238 234 238 255 250 255 205 202 205   0  48 156   0  48 156   0  48 156   0  48 156   0  48 156   0  48 156
238 234 238 255 250 255  49  88 172   0  48 156  49  88 172 255 250 255 255 250 255 115 136 197   0  48 156   0  48 156   0  48 156   0  48 156
  0  48 156  49  88 172 205 202 255 238 234 238 255 250 255 238 234 238 205 202 205 238 234 238 255 250 255 205 202 255   0  48 156   0  48 156
  0  48 156   0  48 156   0  48 156 238 234 238 255 250 255 255 250 255  49  88 172   0  48 156   0  48 156   0  48 156   0  48 156   0  48 156
238 234 238 255 250 255 115 136 197   0  48 156   0  48 156   0  48 156   0  48 156  49  88 172 205 202 255 255 250 255 255 250 255 238 234 238
  0  48 156   0  48 156   0  48 156   0  48 156 156 152 205 255 250 255 115 136 197   0  48 156   0  48 156   0  48 156   0  48 156   0  48 156
  0  48 156   0  48 156  49  88 172  49  88 172   0  48 156   0  48 156   0  48 156   0  48 156   0  48 156   0  48 156   0  48 156   0  48 156
  0  48 156   0  48 156   0  48 156   0  48 156   0  48 156   0  48 156   0  48 156   0  48 156   0  48 156   0  48 156   0  48 156   0  48 156
255 250 255 255 250 255 255 250 255 255 250 255 255 250 255 255 250 255 255 250 255 255 250 255 255 250 255 255 250 255 255 250 255 255 250 255
255 250 255 255 250 255 255 250 255 255 250 255 255 250 255 255 250 255 255 250 255 255 250 255 255 250 255 255 250 255 255 250 255 255 250 255
238 234 238   0   0   0   0   0   0 156  96  49 255 202   0 255 202  49 255 202   0 255 202  49 255 202  49 205 152  49 205 152   0 205 152  49
205 152  49 156  96  49   0   0   0   0  48   0  90  88  90   0   0   0  49  48  49 238 234 238 255 250 255 255 250 255 255 250 255 255 250 255
180 170 180   0   0   0   0   0   0   0   0   0   0   0   0   0   0   0   0   0   0  49  48  49  49  48  49  49  48  49   0   0   0  49  48  49
 49  48  49  49  48  49  49  48  49  49  48  49   0   0  49 180 170 180 180 170 180  98  96  98 255 250 255 255 250 255 255 250 255 255 250 255
255 250 255 255 250 255 255 250 255 255 250 255 255 250 255 255 250 255 255 250 255   0  48 156   0  48 156   0  48 156   0  48 156   0  48 156
  0  48 156   0  48 156   0  48 156   0  48 156   0  48 156   0  48 156   0  48 156   0  48 156   0  48 156   0  48 156   0  48 156   0  48 156
  0  48 156   0  48 156 238 234 238 255 250 255 205 202 255   0  48 156   0  48 156   0  48 156 115 136 197 205 202 205 255 250 255  49  88 172
  0  48 156   0  48 156   0  48 156 205 202 205 255 250 255 115 136 197   0  48 156   0  48 156   0  48 156   0  48 156   0  48 156 255 250 255
205 202 255   0  48 156   0  48 156   0  48 156   0  48 156   0  48 156   0  48 156 238 234 238 255 250 255 238 234 238 238 234 238 255 250 255
115 136 197   0  48 156   0  48 156   0  48 156   0  48 156   0  48 156   0  48 156 205 202 205 255 250 255 255 250 255 156 152 205   0  48 156
115 136 197 255 250 255 115 136 197 205 202 255 255 250 255 156 152 205   0  48 156   0  48 156   0  48 156   0  48 156   0  48 156 115 136 197
255 250 255 205 202 255   0  48 156   0  48 156   0  48 156 156 152 205 255 250 255 255 250 255  49  88 172   0  48 156   0  48 156   0  48 156
  0  48 156   0  48 156   0  48 156   0  48 156   0  48 156   0  48 156   0  48 156 115 136 197 255 250 255 156 152 205   0  48 156   0  48 156
  0  48 156   0  48 156  49  88 172 255 250 255 255 250 255 156 152 205   0  48 156   0  48 156   0  48 156   0  48 156   0  48 156   0  48 156
255 250 255 255 250 255  49  88 172   0  48 156   0  48 156  98  96 205 238 234 238 255 250 255 255 250 255 255 250 255 255 250 255 115 136 197
  0  48 156   0  48 156   0  48 156   0  48 156 205 202 255 255 250 255 115 136 197   0  48 156   0  48 156   0  48 156   0  48 156  49  88 172
115 136 197 156 202 205 255 250 255  49  88 172   0  48 156   0  48 156   0  48 156   0  48 156   0  48 156   0  48 156   0  48 156   0  48 156
  0  48 156   0  48 156   0  48 156   0  48 156   0  48 156   0  48 156   0  48 156   0  48 156   0  48 156   0  48 156   0  48 156   0  48 156
255 250 255 255 250 255 255 250 255 255 250 255 255 250 255 255 250 255 255 250 255 255 250 255 255 250 255 255 250 255 255 250 255 255 250 255
255 250 255 255 250 255 255 250 255 255 250 255 255 250 255 255 250 255 255 250 255 255 250 255 255 250 255 255 250 255 255 250 255 255 250 255
180 170 180   0   0   0  49   0   0 156 152  98 156  96   0 205 152   0 205 152   0 205 152   0 205 152   0 156  96   0 156  96   0 156 152  98
205 202 156 180 170 180   0   0   0   0   0   0  98  96  98 156  96 156   0   0   0  49  48  49 255 250 255 255 250 255 255 250 255 238 234 238
 49  48  49   0   0   0   0   0   0   0   0   0   0   0   0   0   0   0   0   0   0  49  48  49  49  48  49  49  48  49  49  48  49  49  48  49
 49  48  49   0   0   0  49  48  49  49  48  49   0   0   0  98  96  98 180 170 180 180 170 180 205 202 205 255 250 255 255 250 255 255 250 255
255 250 255 255 250 255 255 250 255 255 250 255 255 250 255 255 250 255 255 250 255   0  48 156   0  48 156   0  48 156   0  48 156   0  48 156
  0  48 156   0  48 156   0  48 156   0  48 156   0  48 156   0  48 156   0  48 156   0  48 156   0  48 156   0  48 156   0  48 156   0  48 156
  0  48 156   0  48 156 255 250 255 255 250 255 255 250 255 205 202 205 205 202 255 255 250 255 255 250 255 255 250 255 255 250 255  49  88 172
  0  48 156   0  48 156   0  48 156 156 202 205 255 250 255 156 152 205   0  48 156   0  48 156   0  48 156   0  48 156  49  88 172 255 250 255
115 136 197   0  48 156   0  48 156   0  48 156   0  48 156   0  48 156   0  48 156 115 136 197 255 250 255 255 250 255 255 250 255 255 250 255
 49  88 172   0  48 156   0  48 156   0  48 156   0  48 156   0  48 156   0  48 156 115 136 197 255 250 255 255 250 255 255 250 255 255 250 255
255 250 255 205 202 205   0  48 156 205 202 255 255 250 255 115 136 197   0  48 156   0  48 156   0  48 156   0  48 156   0  48 156 238 234 238
255 250 255  49  88 172   0  48 156   0  48 156   0  48 156   0  48 156 205 202 255 255 250 255 156 202 205   0  48 156   0  48 156   0  48 156
  0  48 156   0  48 156   0  48 156   0  48 156   0  48 156   0  48 156   0  48 156 115 136 197 255 250 255 115 136 197   0  48 156   0  48 156
  0  48 156   0  48 156   0  48 156  49  88 172  49  88 172   0  48 156   0  48 156   0  48 156   0  48 156   0  48 156   0  48 156   0  48 156
255 250 255 255 250 255 115 136 197 156 202 205 238 234 238 255 250 255 255 250 255 255 250 255 255 250 255 205 202 205  49  88 172   0  48 156
  0  48 156   0  48 156   0  48 156   0  48 156 205 202 205 255 250 255 205 202 255 205 202 205 205 202 255 205 202 205 255 250 255 255 250 255
255 250 255 238 234 238  98  96 205   0  48 156   0  48 156   0  48 156   0  48 156   0  48 156   0  48 156   0  48 156   0  48 156   0  48 156
  0  48 156   0  48 156   0  48 156   0  48 156   0  48 156   0  48 156   0  48 156   0  48 156   0  48 156   0  48 156   0  48 156   0  48 156
238 234 238 255 250 255 255 250 255 255 250 255 255 250 255 255 250 255 255 250 255 255 250 255 255 250 255 255 250 255 255 250 255 255 250 255
255 250 255 255 250 255 255 250 255 255 250 255 255 250 255 255 250 255 255 250 255 255 250 255 255 250 255 255 250 255 255 250 255 255 250 255
156  96  98   0   0   0  49   0   0 205 202 156 156 152 156 156  96   0 205  96   0 205 152   0 156 152   0 156  96  49 156 152  98 180 170 180
205 202 205 238 234 238  74  64  65   0   0   0   0   0   0  74  64  65   0   0   0   0   0   0 238 234 238 255 250 255 255 250 255  49  48  49
  0   0   0   0   0   0   0   0   0   0   0   0   0   0   0   0   0   0   0   0   0   0   0   0  49  48  49  49  48  49   0   0   0  49  48  49
 49  48  49  49  48  49  49  48  49  49  48  49   0   0   0  49  48  49 180 170 180 205 202 205  98  96  98 255 250 255 255 250 255 255 250 255
255 250 255 255 250 255 255 250 255 255 250 255 255 250 255 255 250 255 255 250 255   0  48 156   0  48 156   0  48 156   0  48 156   0  48 156
  0  48 156   0  48 156   0  48 156   0  48 156   0  48 156   0  48 156   0  48 156   0  48 156   0  48 156   0  48 156   0  48 156   0  48 156
  0  48 156   0  48 156 255 250 255 255 250 255 255 250 255 255 250 255 255 250 255 255 250 255 255 250 255 238 234 238 115 136 197   0  48 156
  0  48 156   0  48 156   0  48 156 115 136 197 255 250 255 205 202 205   0  48 156   0  48 156   0  48 156   0  48 156 115 136 197 255 250 255
 49  88 172   0  48 156   0  48 156   0  48 156   0  48 156   0  48 156   0  48 156   0  48 156 238 234 238 255 250 255 255 250 255 205 202 205
  0  48 156   0  48 156   0  48 156   0  48 156   0  48 156   0  48 156   0  48 156   0  48 156 238 234 238 255 250 255 255 250 255 255 250 255
205 202 255   0  48 156   0  48 156 255 250 255 255 250 255 238 234 238   0  48 156   0  48 156   0  48 156   0  48 156 115 136 197 255 250 255
156 152 205   0  48 156   0  48 156   0  48 156   0  48 156   0  48 156  49  88 172 238 234 238 255 250 255  49  88 172   0  48 156   0  48 156
  0  48 156   0  48 156   0  48 156   0  48 156   0  48 156   0  48 156   0  48 156 156 152 205 255 250 255  98  96 205   0  48 156   0  48 156
  0  48 156   0  48 156   0  48 156   0  48 156   0  48 156   0  48 156   0  48 156   0  48 156   0  48 156   0  48 156  49  88 172 156 202 205
255 250 255 255 250 255 255 250 255 255 250 255 255 250 255 255 250 255 205 202 205 115 136 197  49  88 172   0  48 156   0  48 156   0  48 156
  0  48 156   0  48 156   0  48 156   0  48 156 156 152 205 238 234 238 255 250 255 255 250 255 255 250 255 255 250 255 255 250 255 238 234 238
115 136 197   0  48 156   0  48 156   0  48 156   0  48 156   0  48 156   0  48 156   0  48 156   0  48 156   0  48 156   0  48 156   0  48 156
  0  48 156   0  48 156   0  48 156   0  48 156   0  48 156   0  48 156   0  48 156   0  48 156   0  48 156   0  48 156   0  48 156   0  48 156
  0  48 156 255 250 255 255 250 255 255 250 255 255 250 255 255 250 255 255 250 255 255 250 255 255 250 255 255 250 255 255 250 255 255 250 255
255 250 255 255 250 255 255 250 255 255 250 255 255 250 255 255 250 255 255 250 255 255 250 255 255 250 255 255 250 255 255 250 255 255 250 255
 49  48  49   0   0   0  49  48  49 205 202 205 180 170 180 156 152 156 156 152  98 156  96  49 156 152  98 205 152 156 205 202 205 205 202 255
255 250 255 255 250 255 238 234 238   0   0   0   0   0   0   0   0   0   0   0   0   0   0   0   0   0   0 255 250 255  49  48  49   0   0   0
  0   0   0   0   0   0   0   0   0   0   0   0   0   0   0   0   0   0  74  64  65  49  48  49  49  48  49  49  48  49  49  48  49  49  48  49
  0   0   0  49  48  49  49  48  49  49  48  49  49  48  49   0   0   0 180 170 180 205 202 205  98  96  98 255 250 255 255 250 255 255 250 255
255 250 255 255 250 255 255 250 255 255 250 255 255 250 255 255 250 255 255 250 255   0  48 156   0  48 156   0  48 156   0  48 156   0  48 156
  0  48 156   0  48 156   0  48 156   0  48 156   0  48 156   0  48 156   0  48 156   0  48 156   0  48 156   0  48 156   0  48 156   0  48 156
  0  48 156   0  48 156 115 136 197 255 250 255 255 250 255 238 234 238 205 202 255 156 152 205  49  88 172   0  48 156   0  48 156   0  48 156
  0  48 156   0  48 156   0  48 156  49  88 172 238 234 238 115 136 197   0  48 156   0  48 156   0  48 156   0  48 156 156 152 205 238 234 238
  0  48 156   0  48 156   0  48 156   0  48 156   0  48 156   0  48 156   0  48 156   0  48 156 115 136 197 255 250 255 115 136 197  49  88 172
  0  48 156   0  48 156   0  48 156   0  48 156   0  48 156   0  48 156   0  48 156   0  48 156  49  88 172 156 152 205 156 202 205 115 136 197
  0  48 156   0  48 156   0  48 156 255 250 255 255 250 255 156 152 205   0  48 156   0  48 156   0  48 156   0  48 156 238 234 238 238 234 238
  0  48 156   0  48 156   0  48 156   0  48 156   0  48 156   0  48 156   0  48 156  49  88 172 115 136 197  49  88 172   0  48 156   0  48 156
  0  48 156   0  48 156   0  48 156   0  48 156   0  48 156   0  48 156   0  48 156 205 202 205 255 250 255  49  88 172   0  48 156   0  48 156
  0  48 156   0  48 156   0  48 156   0  48 156   0  48 156   0  48 156   0  48 156   0  48 156   0  48 156   0  48 156 205 202 205 255 250 255
255 250 255 238 234 238 156 152 205 115 136 197  49  88 172   0  48 156   0  48 156   0  48 156   0  48 156   0  48 156   0  48 156   0  48 156
  0  48 156   0  48 156   0  48 156   0  48 156   0  48 156 238 234 238 255 250 255 238 234 238 205 202 205 156 152 205  98  96 205   0  48 156
  0  48 156   0  48 156   0  48 156   0  48 156   0  48 156   0  48 156   0  48 156   0  48 156   0  48 156   0  48 156   0  48 156   0  48 156
  0  48 156   0  48 156   0  48 156   0  48 156   0  48 156   0  48 156   0  48 156   0  48 156   0  48 156   0  48 156   0  48 156   0  48 156
  0  48 156 255 250 255 255 250 255 255 250 255 255 250 255 255 250 255 255 250 255 255 250 255 255 250 255 255 250 255 255 250 255 255 250 255
255 250 255 255 250 255 255 250 255 255 250 255 255 250 255 255 250 255 255 250 255 255 250 255 255 250 255 255 250 255 255 250 255 180 170 180
  0   0   0   0   0   0  98 152 156 205 202 205 180 170 180 205 202 156 180 170 180 205 202 205 205 202 205 205 202 205 238 234 238 238 234 238
238 234 238 238 234 238 205 202 205  74  64  65   0   0   0   0   0   0   0   0   0   0  48   0   0   0   0  49  48  49   0   0   0   0   0   0
  0   0   0   0   0   0   0   0   0   0   0   0   0   0   0   0   0   0 238 234 238  90  88  90  49  48  49  49  48  49  49  48  49  49  48  49
 49  48  49  49  48  49  49  48  49  49  48  49  49  48  49   0   0   0  98  96  98 205 202 205 180 170 180 255 250 255 255 250 255 255 250 255
255 250 255 255 250 255 255 250 255 255 250 255 255 250 255 255 250 255 238 234 238   0  48 156   0  48 156   0  48 156   0  48 156   0  48 156
  0  48 156   0  48 156   0  48 156   0  48 156   0  48 156   0  48 156   0  48 156   0  48 156   0  48 156   0  48 156   0  48 156   0  48 156
  0  48 156   0  48 156   0  48 156   0  48 156   0  48 156   0  48 156   0  48 156   0  48 156   0  48 156   0  48 156   0  48 156   0  48 156
  0  48 156   0  48 156   0  48 156   0  48 156   0  48 156   0  48 156   0  48 156   0  48 156   0  48 156   0  48 156 205 202 205 156 152 205
  0  48 156   0  48 156   0  48 156   0  48 156   0  48 156   0  48 156   0  48 156   0  48 156   0  48 156   0  48 156   0  48 156   0  48 156
  0  48 156   0  48 156   0  48 156   0  48 156   0  48 156   0  48 156   0  48 156   0  48 156   0  48 156   0  48 156   0  48 156   0  48 156
  0  48 156   0  48 156   0  48 156 156 152 205 115 136 197   0  48 156   0  48 156   0  48 156   0  48 156   0  48 156 255 250 255  49  88 172
  0  48 156   0  48 156   0  48 156   0  48 156   0  48 156   0  48 156   0  48 156   0  48 156   0  48 156   0  48 156   0  48 156   0  48 156
  0  48 156   0  48 156   0  48 156   0  48 156   0  48 156   0  48 156   0  48 156 205 202 255 255 250 255   0  48 156   0  48 156   0  48 156
  0  48 156   0  48 156   0  48 156   0  48 156   0  48 156   0  48 156   0  48 156   0  48 156   0  48 156   0  48 156   0  48 156   0  48 156
205 202 255 156 152 205   0  48 156   0  48 156   0  48 156   0  48 156   0  48 156   0  48 156   0  48 156   0  48 156   0  48 156   0  48 156
  0  48 156   0  48 156   0  48 156   0  48 156   0  48 156   0  48 156   0  48 156   0  48 156   0  48 156   0  48 156   0  48 156   0  48 156
  0  48 156   0  48 156   0  48 156   0  48 156   0  48 156   0  48 156   0  48 156   0  48 156   0  48 156   0  48 156   0  48 156   0  48 156
  0  48 156   0  48 156   0  48 156   0  48 156   0  48 156   0  48 156   0  48 156   0  48 156   0  48 156   0  48 156   0  48 156   0  48 156
  0  48 156 255 250 255 255 250 255 255 250 255 255 250 255 255 250 255 255 250 255 255 250 255 255 250 255 255 250 255 255 250 255 255 250 255
255 250 255 255 250 255 255 250 255 255 250 255 255 250 255 255 250 255 255 250 255 255 250 255 255 250 255 255 250 255 205 202 205   0   0   0
  0   0   0  49  48  49 156 152 156 156 152 156 205 202 205 205 152 205 180 170 180 180 170 180 238 234 238 255 250 255 255 250 255 238 234 238
205 202 205 180 170 180 156 152 156 205 202 205   0   0   0   0   0   0  49   0  49   0   0   0   0   0   0   0   0   0   0   0   0   0   0   0
  0   0   0   0   0   0   0   0   0   0   0   0   0   0   0  49  48  49 255 250 255 255 250 255  74  64  65  49  48  49  49  48  49   0   0   0
 49  48  49  49  48  49  49  48  49   0   0   0  49  48  49   0   0   0  49  48  49 205 202 205 205 202 205 205 202 205 255 250 255 255 250 255
255 250 255 255 250 255 255 250 255 255 250 255 255 250 255 255 250 255   0  48 156   0  48 156   0  48 156   0  48 156   0  48 156   0  48 156
  0  48 156   0  48 156   0  48 156   0  48 156   0  48 156   0  48 156   0  48 156   0  48 156   0  48 156   0  48 156   0  48 156   0  48 156
  0  48 156   0  48 156   0  48 156   0  48 156   0  48 156   0  48 156   0  48 156   0  48 156   0  48 156   0  48 156   0  48 156   0  48 156
  0  48 156   0  48 156   0  48 156   0  48 156   0  48 156   0  48 156   0  48 156   0  48 156   0  48 156   0  48 156  49  88 172   0  48 156
  0  48 156   0  48 156   0  48 156   0  48 156   0  48 156   0  48 156   0  48 156   0  48 156   0  48 156   0  48 156   0  48 156   0  48 156
  0  48 156   0  48 156   0  48 156   0  48 156   0  48 156   0  48 156   0  48 156   0  48 156   0  48 156   0  48 156   0  48 156   0  48 156
  0  48 156   0  48 156   0  48 156   0  48 156   0  48 156   0  48 156   0  48 156   0  48 156   0  48 156  49  88 172 156 152 205   0  48 156
  0  48 156   0  48 156   0  48 156   0  48 156   0  48 156   0  48 156   0  48 156   0  48 156   0  48 156   0  48 156   0  48 156   0  48 156
  0  48 156   0  48 156   0  48 156   0  48 156   0  48 156   0  48 156   0  48 156 156 202 205 238 234 238   0  48 156   0  48 156   0  48 156
  0  48 156   0  48 156   0  48 156   0  48 156   0  48 156   0  48 156   0  48 156   0  48 156   0  48 156   0  48 156   0  48 156   0  48 156
  0  48 156   0  48 156   0  48 156   0  48 156   0  48 156   0  48 156   0  48 156   0  48 156   0  48 156   0  48 156   0  48 156   0  48 156
  0  48 156   0  48 156   0  48 156   0  48 156   0  48 156   0  48 156   0  48 156   0  48 156   0  48 156   0  48 156   0  48 156   0  48 156
  0  48 156   0  48 156   0  48 156   0  48 156   0  48 156   0  48 156   0  48 156   0  48 156   0  48 156   0  48 156   0  48 156   0  48 156
  0  48 156   0  48 156   0  48 156   0  48 156   0  48 156   0  48 156   0  48 156   0  48 156   0  48 156   0  48 156   0  48 156   0  48 156
  0  48 156 238 234 238 255 250 255 255 250 255 255 250 255 255 250 255 255 250 255 255 250 255 255 250 255 255 250 255 255 250 255 255 250 255
255 250 255 255 250 255 255 250 255 255 250 255 255 250 255 255 250 255 255 250 255 255 250 255 255 250 255 156 152 156   0   0   0   0   0   0
  0   0   0 180 170 180 156 152 156 156 152 156 205 202 205 255 250 255 255 250 255 238 234 238 255 250 255 255 250 255 238 234 238 205 202 205
156 152 156  98  96 156  98  96  98 180 170 180  49  48  49   0   0   0   0   0   0   0   0   0   0   0   0   0   0   0   0   0   0   0   0   0
  0   0   0   0   0   0   0   0   0   0   0   0   0   0   0 238 234 238 255 250 255 255 250 255 255 250 255  49  48  49  49  48  49  74  64  65
  0   0   0  49  48  49  49  48  49  49  48  49  49  48  49   0   0   0   0   0   0 205 202 205 205 202 205 156 152 156 255 250 255 255 250 255
255 250 255 255 250 255 255 250 255 255 250 255 255 250 255 255 250 255   0  48 156   0  48 156   0  48 156   0  48 156   0  48 156   0  48 156
  0  48 156   0  48 156   0  48 156   0  48 156   0  48 156   0  48 156   0  48 156   0  48 156   0  48 156   0  48 156   0  48 156   0  48 156
  0  48 156   0  48 156   0  48 156   0  48 156   0  48 156   0  48 156   0  48 156   0  48 156   0  48 156   0  48 156   0  48 156   0  48 156
  0  48 156   0  48 156   0  48 156   0  48 156   0  48 156   0  48 156   0  48 156   0  48 156   0  48 156   0  48 156   0  48 156   0  48 156
  0  48 156   0  48 156   0  48 156   0  48 156   0  48 156   0  48 156   0  48 156   0  48 156   0  48 156   0  48 156   0  48 156   0  48 156
  0  48 156   0  48 156   0  48 156   0  48 156   0  48 156   0  48 156   0  48 156   0  48 156   0  48 156   0  48 156   0  48 156   0  48 156
  0  48 156   0  48 156   0  48 156   0  48 156   0  48 156   0  48 156   0  48 156   0  48 156   0  48 156   0  48 156   0  48 156   0  48 156
  0  48 156   0  48 156   0  48 156   0  48 156   0  48 156   0  48 156   0  48 156   0  48 156   0  48 156   0  48 156   0  48 156   0  48 156
  0  48 156   0  48 156   0  48 156   0  48 156   0  48 156   0  48 156   0  48 156 205 202 255  49  88 172   0  48 156   0  48 156   0  48 156
  0  48 156   0  48 156   0  48 156   0  48 156   0  48 156   0  48 156   0  48 156   0  48 156   0  48 156   0  48 156   0  48 156   0  48 156
  0  48 156   0  48 156   0  48 156   0  48 156   0  48 156   0  48 156   0  48 156   0  48 156   0  48 156   0  48 156   0  48 156   0  48 156
  0  48 156   0  48 156   0  48 156   0  48 156   0  48 156   0  48 156   0  48 156   0  48 156   0  48 156   0  48 156   0  48 156   0  48 156
  0  48 156   0  48 156   0  48 156   0  48 156   0  48 156   0  48 156   0  48 156   0  48 156   0  48 156   0  48 156   0  48 156   0  48 156
  0  48 156   0  48 156   0  48 156   0  48 156   0  48 156   0  48 156   0  48 156   0  48 156   0  48 156   0  48 156   0  48 156   0  48 156
  0  48 156   0  48 156 255 250 255 255 250 255 255 250 255 255 250 255 255 250 255 255 250 255 255 250 255 255 250 255 255 250 255 255 250 255
255 250 255 255 250 255 255 250 255 255 250 255 238 234 238 255 250 255 255 250 255 238 234 238  74  64  65   0   0   0   0   0   0   0   0   0
 98  96  98 238 234 238 205 202 205 205 202 205 238 234 238 255 250 255 255 250 255 255 250 255 255 250 255 255 250 255 238 234 238 205 202 205
156 152 156 156 152  98 156 152 156 180 170 180 156 152 156   0   0   0   0   0   0   0   0   0   0   0   0   0   0   0   0   0   0   0   0   0
  0   0   0   0   0   0   0   0   0   0   0   0  49  48  49 255 250 255 255 250 255 255 250 255 255 250 255 255 250 255  74  64  65  49  48  49
 49  48  49  49  48  49  49  48  49  49  48  49  49  48  49   0   0   0   0   0   0 180 170 180 205 202 205  98  96  98 255 250 255 255 250 255
255 250 255 255 250 255 255 250 255 255 250 255 255 250 255 255 250 255   0  48 156   0  48 156   0  48 156   0  48 156   0  48 156   0  48 156
  0  48 156   0  48 156   0  48 156   0  48 156   0  48 156   0  48 156   0  48 156   0  48 156   0  48 156   0  48 156   0  48 156   0  48 156
  0  48 156   0  48 156   0  48 156   0  48 156   0  48 156   0  48 156   0  48 156   0  48 156   0  48 156   0  48 156   0  48 156   0  48 156
  0  48 156   0  48 156   0  48 156   0  48 156   0  48 156   0  48 156   0  48 156   0  48 156   0  48 156   0  48 156   0  48 156   0  48 156
  0  48 156   0  48 156   0  48 156   0  48 156   0  48 156   0  48 156   0  48 156   0  48 156   0  48 156   0  48 156   0  48 156   0  48 156
  0  48 156   0  48 156   0  48 156   0  48 156   0  48 156   0  48 156   0  48 156   0  48 156   0  48 156   0  48 156   0  48 156   0  48 156
  0  48 156   0  48 156   0  48 156   0  48 156   0  48 156   0  48 156   0  48 156   0  48 156   0  48 156   0  48 156   0  48 156   0  48 156
  0  48 156   0  48 156   0  48 156   0  48 156   0  48 156   0  48 156   0  48 156   0  48 156   0  48 156   0  48 156   0  48 156   0  48 156
  0  48 156   0  48 156   0  48 156   0  48 156   0  48 156   0  48 156   0  48 156   0  48 156   0  48 156   0  48 156   0  48 156   0  48 156
  0  48 156   0  48 156   0  48 156   0  48 156   0  48 156   0  48 156   0  48 156   0  48 156   0  48 156   0  48 156   0  48 156   0  48 156
  0  48 156   0  48 156   0  48 156   0  48 156   0  48 156   0  48 156   0  48 156   0  48 156   0  48 156   0  48 156   0  48 156   0  48 156
  0  48 156   0  48 156   0  48 156   0  48 156   0  48 156   0  48 156   0  48 156   0  48 156   0  48 156   0  48 156   0  48 156   0  48 156
  0  48 156   0  48 156   0  48 156   0  48 156   0  48 156   0  48 156   0  48 156   0  48 156   0  48 156   0  48 156   0  48 156   0  48 156
  0  48 156   0  48 156   0  48 156   0  48 156   0  48 156   0  48 156   0  48 156   0  48 156   0  48 156   0  48 156   0  48 156   0  48 156
  0  48 156   0  48 156 255 250 255 255 250 255 255 250 255 255 250 255 255 250 255 255 250 255 255 250 255 255 250 255 255 250 255 255 250 255
255 250 255 255 250 255 255 250 255 255 250 255 255 250 255 255 250 255 238 234 238  49  48  49   0   0   0   0   0   0  49  48  49   0   0   0
180 170 180 238 234 238 238 234 238 238 234 238 255 250 255 238 234 238 238 234 238 255 250 255 255 250 255 255 250 255 238 234 238 238 234 238
180 170 180 180 170 180 180 170 180 205 202 205 205 202 205   0   0   0   0   0   0   0   0   0   0   0   0   0   0   0   0   0   0   0   0   0
  0   0   0   0   0   0   0   0   0   0   0   0 156 152 156 255 250 255 255 250 255 255 250 255 255 250 255 255 250 255 238 234 238  90  88  90
 49  48  49  49  48  49  49  48  49  49  48  49   0   0   0   0   0   0   0   0   0 180 170 180 238 234 238 156 152 156 255 250 255 255 250 255
255 250 255 255 250 255 255 250 255 255 250 255 255 250 255   0  48 156   0  48 156   0  48 156   0  48 156   0  48 156   0  48 156   0  48 156
  0  48 156   0  48 156   0  48 156   0  48 156   0  48 156   0  48 156   0  48 156   0  48 156   0  48 156   0  48 156   0  48 156   0  48 156
  0  48 156   0  48 156   0  48 156   0  48 156   0  48 156   0  48 156   0  48 156   0  48 156   0  48 156   0  48 156   0  48 156   0  48 156
  0  48 156   0  48 156   0  48 156   0  48 156   0  48 156   0  48 156   0  48 156   0  48 156   0  48 156   0  48 156   0  48 156   0  48 156
  0  48 156   0  48 156   0  48 156   0  48 156   0  48 156   0  48 156   0  48 156   0  48 156   0  48 156   0  48 156   0  48 156   0  48 156
  0  48 156   0  48 156   0  48 156   0  48 156   0  48 156   0  48 156   0  48 156   0  48 156   0  48 156   0  48 156   0  48 156   0  48 156
  0  48 156   0  48 156   0  48 156   0  48 156   0  48 156   0  48 156   0  48 156   0  48 156   0  48 156   0  48 156   0  48 156   0  48 156
  0  48 156   0  48 156   0  48 156   0  48 156   0  48 156   0  48 156   0  48 156   0  48 156   0  48 156   0  48 156   0  48 156   0  48 156
  0  48 156   0  48 156   0  48 156   0  48 156   0  48 156   0  48 156   0  48 156   0  48 156   0  48 156   0  48 156   0  48 156   0  48 156
  0  48 156   0  48 156   0  48 156   0  48 156   0  48 156   0  48 156   0  48 156   0  48 156   0  48 156   0  48 156   0  48 156   0  48 156
  0  48 156   0  48 156   0  48 156   0  48 156   0  48 156   0  48 156   0  48 156   0  48 156   0  48 156   0  48 156   0  48 156   0  48 156
  0  48 156   0  48 156   0  48 156   0  48 156   0  48 156   0  48 156   0  48 156   0  48 156   0  48 156   0  48 156   0  48 156   0  48 156
  0  48 156   0  48 156   0  48 156   0  48 156   0  48 156   0  48 156   0  48 156   0  48 156   0  48 156   0  48 156   0  48 156   0  48 156
  0  48 156   0  48 156   0  48 156   0  48 156   0  48 156   0  48 156   0  48 156   0  48 156   0  48 156   0  48 156   0  48 156   0  48 156
  0  48 156   0  48 156 238 234 238 255 250 255 255 250 255 255 250 255 255 250 255 255 250 255 255 250 255 255 250 255 255 250 255 255 250 255
255 250 255 255 250 255 255 250 255 255 250 255 238 234 238 180 170 180   0   0   0   0   0   0  49  48  49  90  88  90   0   0   0   0   0   0
156 152 156 205 202 205 205 202 205 205 202 205 238 234 238 238 234 238 238 234 238 238 234 238 255 250 255 255 250 255 238 234 238 205 202 205
180 170 180 205 202 205 205 202 205 205 202 205 205 202 205  49  48  49   0   0   0   0   0   0   0   0   0   0   0   0   0   0   0   0   0   0
  0   0   0   0   0   0   0   0   0   0   0   0  98  96  98 156 152 156 238 234 238 238 234 238 255 250 255 255 250 255 255 250 255 238 234 238
 90  88  90   0   0   0  49  48  49  49  48  49   0   0   0   0   0   0   0   0   0 156 152 156 180 170 180 238 234 238 255 250 255 255 250 255
255 250 255 255 250 255 255 250 255 255 250 255 255 250 255   0  48 156   0  48 156   0  48 156   0  48 156   0  48 156   0  48 156   0  48 156
  0  48 156   0  48 156   0  48 156   0  48 156   0  48 156   0  48 156   0  48 156   0  48 156   0  48 156   0  48 156   0  48 156   0  48 156
  0  48 156   0  48 156   0  48 156   0  48 156   0  48 156   0  48 156   0  48 156   0  48 156   0  48 156   0  48 156   0  48 156   0  48 156
  0  48 156   0  48 156   0  48 156   0  48 156   0  48 156   0  48 156   0  48 156   0  48 156   0  48 156   0  48 156   0  48 156   0  48 156
  0  48 156   0  48 156   0  48 156   0  48 156   0  48 156   0  48 156   0  48 156   0  48 156   0  48 156   0  48 156   0  48 156   0  48 156
  0  48 156   0  48 156   0  48 156   0  48 156   0  48 156   0  48 156   0  48 156   0  48 156   0  48 156   0  48 156   0  48 156   0  48 156
  0  48 156   0  48 156   0  48 156   0  48 156   0  48 156   0  48 156   0  48 156   0  48 156   0  48 156   0  48 156   0  48 156   0  48 156
  0  48 156   0  48 156   0  48 156   0  48 156   0  48 156   0  48 156   0  48 156   0  48 156   0  48 156   0  48 156   0  48 156   0  48 156
  0  48 156   0  48 156   0  48 156   0  48 156   0  48 156   0  48 156   0  48 156   0  48 156   0  48 156   0  48 156   0  48 156   0  48 156
  0  48 156   0  48 156   0  48 156   0  48 156   0  48 156   0  48 156   0  48 156   0  48 156   0  48 156   0  48 156   0  48 156   0  48 156
  0  48 156   0  48 156   0  48 156   0  48 156   0  48 156   0  48 156   0  48 156   0  48 156   0  48 156   0  48 156   0  48 156   0  48 156
  0  48 156   0  48 156   0  48 156   0  48 156   0  48 156   0  48 156   0  48 156   0  48 156   0  48 156   0  48 156   0  48 156   0  48 156
  0  48 156   0  48 156   0  48 156   0  48 156   0  48 156   0  48 156   0  48 156   0  48 156   0  48 156   0  48 156   0  48 156   0  48 156
  0  48 156   0  48 156   0  48 156   0  48 156   0  48 156   0  48 156   0  48 156   0  48 156   0  48 156   0  48 156   0  48 156   0  48 156
  0  48 156   0  48 156   0  48 156 255 250 255 255 250 255 255 250 255 255 250 255 255 250 255 255 250 255 255 250 255 255 250 255 255 250 255
255 250 255 238 234 238 156 152 156  49  48  49   0   0   0   0   0   0   0   0   0  49  48  49  98  96  98   0   0   0   0   0   0  49  48  49
180 170 180 205 202 205 180 170 180 156 152 156 156 152 156 238 234 238 238 234 238 255 250 255 255 250 255 255 250 255 255 250 255 255 250 255
238 234 238 205 202 255 205 202 205 205 202 205 205 202 205 238 234 238   0   0  49   0   0   0   0   0   0   0   0   0   0   0   0   0   0   0
  0   0   0   0   0   0   0   0   0   0   0   0   0   0   0   0   0   0   0   0   0   0   0   0   0   0   0   0   0   0  90  88  90 156 152 156
255 250 255 156 152 156   0   0   0   0   0   0   0   0   0   0   0   0   0   0   0 156 152 156 156 152 156 255 250 255 255 250 255 255 250 255
255 250 255 255 250 255 255 250 255 255 250 255 238 234 238   0  48 156   0  48 156   0  48 156   0  48 156   0  48 156   0  48 156   0  48 156
  0  48 156   0  48 156   0  48 156   0  48 156   0  48 156   0  48 156   0  48 156   0  48 156   0  48 156   0  48 156   0  48 156   0  48 156
  0  48 156   0  48 156   0  48 156   0  48 156   0  48 156   0  48 156   0  48 156   0  48 156   0  48 156   0  48 156   0  48 156   0  48 156
  0  48 156   0  48 156   0  48 156   0  48 156   0  48 156   0  48 156   0  48 156   0  48 156   0  48 156   0  48 156   0  48 156   0  48 156
  0  48 156   0  48 156   0  48 156   0  48 156   0  48 156   0  48 156   0  48 156   0  48 156   0  48 156   0  48 156   0  48 156   0  48 156
  0  48 156   0  48 156   0  48 156   0  48 156   0  48 156   0  48 156   0  48 156   0  48 156   0  48 156   0  48 156   0  48 156   0  48 156
  0  48 156   0  48 156   0  48 156   0  48 156   0  48 156   0  48 156   0  48 156   0  48 156   0  48 156   0  48 156   0  48 156   0  48 156
  0  48 156   0  48 156   0  48 156   0  48 156   0  48 156   0  48 156   0  48 156   0  48 156   0  48 156   0  48 156   0  48 156   0  48 156
  0  48 156   0  48 156   0  48 156   0  48 156   0  48 156   0  48 156   0  48 156   0  48 156   0  48 156   0  48 156   0  48 156   0  48 156
  0  48 156   0  48 156   0  48 156   0  48 156   0  48 156   0  48 156   0  48 156   0  48 156   0  48 156   0  48 156   0  48 156   0  48 156
  0  48 156   0  48 156   0  48 156   0  48 156   0  48 156   0  48 156   0  48 156   0  48 156   0  48 156   0  48 156   0  48 156   0  48 156
  0  48 156   0  48 156   0  48 156   0  48 156   0  48 156   0  48 156   0  48 156   0  48 156   0  48 156   0  48 156   0  48 156   0  48 156
  0  48 156   0  48 156   0  48 156   0  48 156   0  48 156   0  48 156   0  48 156   0  48 156   0  48 156   0  48 156   0  48 156   0  48 156
  0  48 156   0  48 156   0  48 156   0  48 156   0  48 156   0  48 156   0  48 156   0  48 156   0  48 156   0  48 156   0  48 156   0  48 156
  0  48 156   0  48 156   0  48 156 238 234 238 255 250 255 255 250 255 255 250 255 255 250 255 255 250 255 255 250 255 255 250 255  98  96  98
 49  48  49   0   0   0   0   0   0  49  48  49   0   0   0   0   0   0   0   0   0  49  48  49  74  64  65   0   0   0   0   0   0  98  96  98
238 234 238 180 170 180 156 152 156  98  96  98 156 152 156 205 202 205 238 234 238 255 250 255 255 250 255 255 250 255 255 250 255 238 234 238
238 234 238 238 234 238 238 234 238 238 234 238 205 202 205 205 202 205 156 152 156   0   0   0   0   0   0   0   0   0   0   0   0   0   0   0
  0   0   0  49  48  49   0   0   0   0   0   0   0   0   0   0   0   0   0   0   0   0   0   0   0   0   0   0   0   0   0   0   0   0   0   0
  0   0   0  49  48  49  98  96  98  98  96  98  49  48  49  49  48  49  98  96  98  98  96  98 255 250 255 255 250 255 255 250 255 255 250 255
255 250 255 255 250 255 255 250 255 255 250 255   0  48 156   0  48 156   0  48 156   0  48 156   0  48 156   0  48 156   0  48 156   0  48 156
  0  48 156   0  48 156   0  48 156   0  48 156   0  48 156   0  48 156   0  48 156   0  48 156   0  48 156   0  48 156   0  48 156   0  48 156
  0  48 156   0  48 156   0  48 156   0  48 156   0  48 156   0  48 156   0  48 156   0  48 156   0  48 156   0  48 156   0  48 156   0  48 156
  0  48 156   0  48 156   0  48 156   0  48 156   0  48 156   0  48 156   0  48 156   0  48 156   0  48 156   0  48 156   0  48 156   0  48 156
  0  48 156   0  48 156   0  48 156   0  48 156   0  48 156   0  48 156   0  48 156   0  48 156   0  48 156   0  48 156   0  48 156   0  48 156
  0  48 156   0  48 156   0  48 156   0  48 156   0  48 156   0  48 156   0  48 156   0  48 156   0  48 156   0  48 156   0  48 156   0  48 156
  0  48 156   0  48 156   0  48 156   0  48 156   0  48 156   0  48 156   0  48 156   0  48 156   0  48 156   0  48 156   0  48 156   0  48 156
  0  48 156   0  48 156   0  48 156   0  48 156   0  48 156   0  48 156   0  48 156   0  48 156   0  48 156   0  48 156   0  48 156   0  48 156
  0  48 156   0  48 156   0  48 156   0  48 156   0  48 156   0  48 156   0  48 156   0  48 156   0  48 156   0  48 156   0  48 156   0  48 156
  0  48 156   0  48 156   0  48 156   0  48 156   0  48 156   0  48 156   0  48 156   0  48 156   0  48 156   0  48 156   0  48 156   0  48 156
  0  48 156   0  48 156   0  48 156   0  48 156   0  48 156   0  48 156   0  48 156   0  48 156   0  48 156   0  48 156   0  48 156   0  48 156
  0  48 156   0  48 156   0  48 156   0  48 156   0  48 156   0  48 156   0  48 156   0  48 156   0  48 156   0  48 156   0  48 156   0  48 156
  0  48 156   0  48 156   0  48 156   0  48 156   0  48 156   0  48 156   0  48 156   0  48 156   0  48 156   0  48 156   0  48 156   0  48 156
  0  48 156   0  48 156   0  48 156   0  48 156   0  48 156   0  48 156   0  48 156   0  48 156   0  48 156   0  48 156   0  48 156   0  48 156
  0  48 156   0  48 156   0  48 156   0  48 156 255 250 255 255 250 255 255 250 255 255 250 255 255 250 255 255 250 255  49  48  49   0   0   0
  0   0   0   0   0   0   0   0   0  49  48  49   0   0   0   0   0   0   0   0   0   0   0   0  49  48  49   0   0   0   0   0   0  49  48  49
205 202 205 205 202 205 180 170 180 180 170 180 180 170 180 238 234 238 255 250 255 255 250 255 255 250 255 255 250 205 238 234 238 205 202 205
156 152 156 180 170 180 205 202 205 255 250 255 255 250 255 238 234 238 238 234 238   0   0   0   0   0   0   0   0   0   0   0   0   0   0   0
 49  48  49   0   0   0   0   0   0   0   0   0   0   0   0   0   0   0   0   0   0   0   0   0   0   0   0   0   0   0   0   0   0   0   0   0
  0   0   0   0   0   0   0   0   0 255 250 255 255 250 255 205 202 205 255 250 255 255 250 255 255 250 255 255 250 255 255 250 255 255 250 255
255 250 255 255 250 255 255 250 255 238 234 238   0  48 156   0  48 156   0  48 156   0  48 156   0  48 156   0  48 156   0  48 156   0  48 156
  0  48 156   0  48 156   0  48 156   0  48 156   0  48 156   0  48 156   0  48 156   0  48 156   0  48 156   0  48 156   0  48 156   0  48 156
  0  48 156   0  48 156   0  48 156   0  48 156   0  48 156   0  48 156   0  48 156   0  48 156   0  48 156   0  48 156   0  48 156   0  48 156
  0  48 156   0  48 156   0  48 156   0  48 156   0  48 156   0  48 156   0  48 156   0  48 156   0  48 156   0  48 156   0  48 156   0  48 156
  0  48 156   0  48 156   0  48 156   0  48 156   0  48 156   0  48 156   0  48 156   0  48 156   0  48 156   0  48 156   0  48 156   0  48 156
  0  48 156   0  48 156   0  48 156   0  48 156   0  48 156   0  48 156   0  48 156   0  48 156   0  48 156   0  48 156   0  48 156   0  48 156
  0  48 156   0  48 156   0  48 156   0  48 156   0  48 156   0  48 156   0  48 156   0  48 156   0  48 156   0  48 156   0  48 156   0  48 156
  0  48 156   0  48 156   0  48 156   0  48 156   0  48 156   0  48 156   0  48 156   0  48 156   0  48 156   0  48 156   0  48 156   0  48 156
  0  48 156   0  48 156   0  48 156   0  48 156   0  48 156   0  48 156   0  48 156   0  48 156   0  48 156   0  48 156   0  48 156   0  48 156
  0  48 156   0  48 156   0  48 156   0  48 156   0  48 156   0  48 156   0  48 156   0  48 156   0  48 156   0  48 156   0  48 156   0  48 156
  0  48 156   0  48 156   0  48 156   0  48 156   0  48 156   0  48 156   0  48 156   0  48 156   0  48 156   0  48 156   0  48 156   0  48 156
  0  48 156   0  48 156   0  48 156   0  48 156   0  48 156   0  48 156   0  48 156   0  48 156   0  48 156   0  48 156   0  48 156   0  48 156
  0  48 156   0  48 156   0  48 156   0  48 156   0  48 156   0  48 156   0  48 156   0  48 156   0  48 156   0  48 156   0  48 156   0  48 156
  0  48 156   0  48 156   0  48 156   0  48 156   0  48 156   0  48 156   0  48 156   0  48 156   0  48 156   0  48 156   0  48 156   0  48 156
  0  48 156   0  48 156   0  48 156   0  48 156 238 234 238 255 250 255 255 250 255 255 250 255 255 250 255 255 250 255 238 234 238  49  48  49
  0   0   0   0   0   0   0   0   0  49  48  49   0   0   0   0   0   0   0   0   0   0   0   0   0   0   0   0   0   0   0   0   0   0   0   0
 74  64  65  98  96  98  98  96  98 156 152 156 180 170 180 205 202 205 205 202 205 205 202 205 238 234 238 205 202 205 180 170 180  98  96  98
 90  88  90  90  88  90 156 152 156 180 170 180 180 170 180 156 152 156 156 152 156  74  64  65   0   0   0   0   0   0   0   0   0   0   0   0
 49  48  49   0   0   0   0   0   0   0   0   0   0   0   0   0   0   0   0   0   0   0   0   0   0   0   0   0   0   0   0   0   0   0   0   0
  0   0   0   0   0   0  90  88  90 255 250 255 238 234 238 255 250 255 255 250 255 255 250 255 255 250 255 255 250 255 255 250 255 255 250 255
255 250 255 255 250 255 255 250 255   0  48 156   0  48 156   0  48 156   0  48 156   0  48 156   0  48 156   0  48 156   0  48 156   0  48 156
  0  48 156   0  48 156   0  48 156   0  48 156   0  48 156   0  48 156   0  48 156   0  48 156   0  48 156   0  48 156   0  48 156   0  48 156
  0  48 156   0  48 156   0  48 156   0  48 156   0  48 156   0  48 156   0  48 156   0  48 156   0  48 156   0  48 156   0  48 156   0  48 156
  0  48 156   0  48 156   0  48 156   0  48 156   0  48 156   0  48 156   0  48 156   0  48 156   0  48 156   0  48 156   0  48 156   0  48 156
  0  48 156   0  48 156   0  48 156   0  48 156   0  48 156   0  48 156   0  48 156   0  48 156   0  48 156   0  48 156   0  48 156   0  48 156
  0  48 156   0  48 156   0  48 156   0  48 156   0  48 156   0  48 156   0  48 156   0  48 156   0  48 156   0  48 156   0  48 156   0  48 156
  0  48 156   0  48 156   0  48 156   0  48 156   0  48 156   0  48 156   0  48 156   0  48 156   0  48 156   0  48 156   0  48 156   0  48 156
  0  48 156   0  48 156   0  48 156   0  48 156   0  48 156   0  48 156   0  48 156   0  48 156   0  48 156   0  48 156   0  48 156   0  48 156
  0  48 156   0  48 156   0  48 156   0  48 156   0  48 156   0  48 156   0  48 156   0  48 156   0  48 156   0  48 156   0  48 156   0  48 156
  0  48 156   0  48 156   0  48 156   0  48 156   0  48 156   0  48 156   0  48 156   0  48 156   0  48 156   0  48 156   0  48 156   0  48 156
  0  48 156   0  48 156   0  48 156   0  48 156   0  48 156   0  48 156   0  48 156   0  48 156   0  48 156   0  48 156   0  48 156   0  48 156
  0  48 156   0  48 156   0  48 156   0  48 156   0  48 156   0  48 156   0  48 156   0  48 156   0  48 156   0  48 156   0  48 156   0  48 156
  0  48 156   0  48 156   0  48 156   0  48 156   0  48 156   0  48 156   0  48 156   0  48 156   0  48 156   0  48 156   0  48 156   0  48 156
  0  48 156   0  48 156   0  48 156   0  48 156   0  48 156   0  48 156   0  48 156   0  48 156   0  48 156   0  48 156   0  48 156   0  48 156
  0  48 156   0  48 156   0  48 156   0  48 156   0  48 156 255 250 255 255 250 255 255 250 255 255 250 255 255 250 255 255 250 255 255 250 255
205 202 205 205 202 205  74  64  65   0   0   0   0   0   0   0   0   0   0   0   0   0   0   0   0   0   0   0   0   0   0   0   0   0   0   0
  0   0   0  49  48  49  49  48  49  49  48  49  49  48  49  49  48  49  49  48  49  74  64  65  74  64  65  74  64  65  74  64  65  74  64  65
 49  48  49  49  48  49  74  64  65  98  96  98  98  96  98  90  88  90  74  64  65  49  48  49   0   0   0   0   0   0   0   0   0   0   0   0
 49  48  49   0   0   0   0   0   0   0   0   0   0   0   0   0   0   0   0   0   0   0   0   0   0   0   0   0   0   0  49  48  49  98  96  98
205 202 205 238 234 238 255 250 255 255 250 255 255 250 255 255 250 255 255 250 255 255 250 255 255 250 255 255 250 255 255 250 255 255 250 255
255 250 255 255 250 255 238 234 238   0  48 156   0  48 156   0  48 156   0  48 156   0  48 156   0  48 156   0  48 156   0  48 156   0  48 156
  0  48 156   0  48 156   0  48 156   0  48 156   0  48 156   0  48 156   0  48 156   0  48 156   0  48 156   0  48 156   0  48 156   0  48 156
  0  48 156   0  48 156   0  48 156   0  48 156   0  48 156   0  48 156   0  48 156   0  48 156   0  48 156   0  48 156   0  48 156   0  48 156
  0  48 156   0  48 156   0  48 156   0  48 156   0  48 156   0  48 156   0  48 156   0  48 156   0  48 156   0  48 156   0  48 156   0  48 156
  0  48 156   0  48 156   0  48 156   0  48 156   0  48 156   0  48 156   0  48 156   0  48 156   0  48 156   0  48 156   0  48 156   0  48 156
  0  48 156   0  48 156   0  48 156   0  48 156   0  48 156   0  48 156   0  48 156   0  48 156   0  48 156   0  48 156   0  48 156   0  48 156
  0  48 156   0  48 156   0  48 156   0  48 156   0  48 156   0  48 156   0  48 156   0  48 156   0  48 156   0  48 156   0  48 156   0  48 156
  0  48 156   0  48 156   0  48 156   0  48 156   0  48 156   0  48 156   0  48 156   0  48 156   0  48 156   0  48 156   0  48 156   0  48 156
  0  48 156   0  48 156   0  48 156   0  48 156   0  48 156   0  48 156   0  48 156   0  48 156   0  48 156   0  48 156   0  48 156   0  48 156
  0  48 156   0  48 156   0  48 156   0  48 156   0  48 156   0  48 156   0  48 156   0  48 156   0  48 156   0  48 156   0  48 156   0  48 156
  0  48 156   0  48 156   0  48 156   0  48 156   0  48 156   0  48 156   0  48 156   0  48 156   0  48 156   0  48 156   0  48 156   0  48 156
  0  48 156   0  48 156   0  48 156   0  48 156   0  48 156   0  48 156   0  48 156   0  48 156   0  48 156   0  48 156   0  48 156   0  48 156
  0  48 156   0  48 156   0  48 156   0  48 156   0  48 156   0  48 156   0  48 156   0  48 156   0  48 156   0  48 156   0  48 156   0  48 156
  0  48 156   0  48 156   0  48 156   0  48 156   0  48 156   0  48 156   0  48 156   0  48 156   0  48 156   0  48 156   0  48 156   0  48 156
  0  48 156   0  48 156   0  48 156   0  48 156   0  48 156   0  48 156 255 250 255 255 250 255 255 250 255 255 250 255 255 250 255 255 250 255
255 250 255 255 250 255 255 250 255 255 250 255 205 202 205 180 170 180  49  48  49   0   0   0   0   0   0   0   0   0   0   0   0   0   0   0
  0   0   0   0   0   0   0   0   0   0   0   0   0   0   0   0   0   0   0   0   0   0   0   0   0   0   0   0   0   0   0   0   0   0   0   0
  0   0   0   0   0   0   0   0   0   0   0   0   0   0   0   0   0   0   0   0   0   0   0   0   0   0   0   0   0   0   0   0   0   0   0   0
  0   0   0   0   0   0   0   0   0  49  48  49  74  64  65  90  88  90 156 152 156 180 170 180 205 202 205 238 234 238 255 250 255 255 250 255
255 250 255 255 250 255 255 250 255 255 250 255 255 250 255 255 250 255 255 250 255 255 250 255 255 250 255 255 250 255 255 250 255 255 250 255
255 250 255 255 250 255   0  48 156   0  48 156   0  48 156   0  48 156   0  48 156   0  48 156   0  48 156   0  48 156   0  48 156   0  48 156
  0  48 156   0  48 156   0  48 156   0  48 156   0  48 156   0  48 156   0  48 156   0  48 156   0  48 156   0  48 156   0  48 156   0  48 156
  0  48 156   0  48 156   0  48 156   0  48 156   0  48 156   0  48 156   0  48 156   0  48 156   0  48 156   0  48 156   0  48 156   0  48 156
  0  48 156   0  48 156   0  48 156   0  48 156   0  48 156   0  48 156   0  48 156   0  48 156   0  48 156   0  48 156   0  48 156   0  48 156
  0  48 156   0  48 156   0  48 156   0  48 156   0  48 156   0  48 156   0  48 156   0  48 156   0  48 156   0  48 156   0  48 156   0  48 156
  0  48 156   0  48 156   0  48 156   0  48 156   0  48 156   0  48 156   0  48 156   0  48 156   0  48 156   0  48 156   0  48 156   0  48 156
  0  48 156   0  48 156   0  48 156   0  48 156   0  48 156   0  48 156   0  48 156   0  48 156   0  48 156   0  48 156   0  48 156   0  48 156
  0  48 156   0  48 156   0  48 156   0  48 156   0  48 156   0  48 156   0  48 156   0  48 156   0  48 156   0  48 156   0  48 156   0  48 156
  0  48 156   0  48 156   0  48 156   0  48 156   0  48 156   0  48 156   0  48 156   0  48 156   0  48 156   0  48 156   0  48 156   0  48 156
  0  48 156   0  48 156   0  48 156   0  48 156   0  48 156   0  48 156   0  48 156   0  48 156   0  48 156   0  48 156   0  48 156   0  48 156
  0  48 156   0  48 156   0  48 156   0  48 156   0  48 156   0  48 156   0  48 156   0  48 156   0  48 156   0  48 156   0  48 156   0  48 156
  0  48 156   0  48 156   0  48 156   0  48 156   0  48 156   0  48 156   0  48 156   0  48 156   0  48 156   0  48 156   0  48 156   0  48 156
  0  48 156   0  48 156   0  48 156   0  48 156   0  48 156   0  48 156   0  48 156   0  48 156   0  48 156   0  48 156   0  48 156   0  48 156
  0  48 156   0  48 156   0  48 156   0  48 156   0  48 156   0  48 156   0  48 156   0  48 156   0  48 156   0  48 156   0  48 156   0  48 156
  0  48 156   0  48 156   0  48 156   0  48 156   0  48 156   0  48 156 255 250 255 255 250 255 255 250 255 255 250 255 255 250 255 255 250 255
255 250 255 255 250 255 255 250 255 255 250 255 255 250 255 255 250 255 205 202 205  74  64  65   0   0   0   0   0   0   0   0   0   0   0   0
  0   0   0   0   0   0  98  96  98 255 250 255 255 250 255 255 250 255 255 250 255 255 250 255 255 250 255 255 250 255 255 250 255 238 234 238
238 234 238 238 234 238 238 234 238 255 250 255 255 250 255 255 250 255 255 250 255 255 250 255 255 250 255 255 250 255 255 250 255 255 250 255
255 250 255 255 250 255 255 250 255 238 234 238 255 250 255 255 250 255 255 250 255 255 250 255 255 250 255 255 250 255 255 250 255 255 250 255
255 250 255 255 250 255 255 250 255 255 250 255 255 250 255 255 250 255 255 250 255 255 250 255 255 250 255 255 250 255 255 250 255 255 250 255
255 250 255   0  48 156   0  48 156   0  48 156   0  48 156   0  48 156   0  48 156   0  48 156   0  48 156   0  48 156   0  48 156   0  48 156
  0  48 156   0  48 156   0  48 156   0  48 156   0  48 156   0  48 156   0  48 156   0  48 156   0  48 156   0  48 156   0  48 156   0  48 156
  0  48 156   0  48 156   0  48 156   0  48 156   0  48 156   0  48 156   0  48 156   0  48 156   0  48 156   0  48 156   0  48 156   0  48 156
  0  48 156   0  48 156   0  48 156   0  48 156   0  48 156   0  48 156   0  48 156   0  48 156   0  48 156   0  48 156   0  48 156   0  48 156
  0  48 156   0  48 156   0  48 156   0  48 156   0  48 156   0  48 156   0  48 156   0  48 156   0  48 156   0  48 156   0  48 156   0  48 156
  0  48 156   0  48 156   0  48 156   0  48 156   0  48 156   0  48 156   0  48 156   0  48 156   0  48 156   0  48 156   0  48 156   0  48 156
  0  48 156   0  48 156   0  48 156   0  48 156   0  48 156   0  48 156   0  48 156   0  48 156   0  48 156   0  48 156   0  48 156   0  48 156
  0  48 156   0  48 156   0  48 156   0  48 156   0  48 156   0  48 156   0  48 156   0  48 156   0  48 156   0  48 156   0  48 156   0  48 156
  0  48 156   0  48 156   0  48 156   0  48 156   0  48 156   0  48 156   0  48 156   0  48 156   0  48 156   0  48 156   0  48 156   0  48 156
  0  48 156   0  48 156   0  48 156   0  48 156   0  48 156   0  48 156   0  48 156   0  48 156   0  48 156   0  48 156   0  48 156   0  48 156
  0  48 156   0  48 156   0  48 156   0  48 156   0  48 156   0  48 156   0  48 156   0  48 156   0  48 156   0  48 156   0  48 156   0  48 156
  0  48 156   0  48 156   0  48 156   0  48 156   0  48 156   0  48 156   0  48 156   0  48 156   0  48 156   0  48 156   0  48 156   0  48 156
  0  48 156   0  48 156   0  48 156   0  48 156   0  48 156   0  48 156   0  48 156   0  48 156   0  48 156   0  48 156   0  48 156   0  48 156
  0  48 156   0  48 156   0  48 156   0  48 156   0  48 156   0  48 156   0  48 156   0  48 156   0  48 156   0  48 156   0  48 156   0  48 156
  0  48 156   0  48 156   0  48 156   0  48 156   0  48 156   0  48 156   0  48 156 255 250 255 255 250 255 255 250 255 255 250 255 255 250 255
255 250 255 255 250 255 255 250 255 255 250 255 255 250 255 238 234 238 255 250 255 255 250 255 180 170 180  49  48  49   0   0   0   0   0   0
  0   0   0   0   0   0   0   0   0 238 234 238 255 250 255 255 250 255 255 250 255 255 250 255 255 250 255 255 250 255 255 250 255 255 250 255
255 250 255 255 250 255 255 250 255 255 250 255 255 250 255 255 250 255 255 250 255 255 250 255 255 250 255 255 250 255 255 250 255 255 250 255
255 250 255 255 250 255 255 250 255 255 250 255 255 250 255 255 250 255 255 250 255 255 250 255 255 250 255 255 250 255 255 250 255 255 250 255
255 250 255 255 250 255 255 250 255 255 250 255 255 250 255 255 250 255 255 250 255 255 250 255 255 250 255 255 250 255 255 250 255 255 250 255
238 234 238   0  48 156   0  48 156   0  48 156   0  48 156   0  48 156   0  48 156   0  48 156   0  48 156   0  48 156   0  48 156   0  48 156
  0  48 156   0  48 156   0  48 156   0  48 156   0  48 156   0  48 156   0  48 156   0  48 156   0  48 156   0  48 156   0  48 156   0  48 156
  0  48 156   0  48 156   0  48 156   0  48 156   0  48 156   0  48 156   0  48 156   0  48 156   0  48 156   0  48 156   0  48 156   0  48 156
  0  48 156   0  48 156   0  48 156   0  48 156   0  48 156   0  48 156   0  48 156   0  48 156   0  48 156   0  48 156   0  48 156   0  48 156
  0  48 156   0  48 156   0  48 156   0  48 156   0  48 156   0  48 156   0  48 156   0  48 156   0  48 156   0  48 156   0  48 156   0  48 156
  0  48 156   0  48 156   0  48 156   0  48 156   0  48 156   0  48 156   0  48 156   0  48 156   0  48 156   0  48 156   0  48 156   0  48 156
  0  48 156   0  48 156   0  48 156   0  48 156   0  48 156   0  48 156   0  48 156   0  48 156   0  48 156   0  48 156   0  48 156   0  48 156
  0  48 156   0  48 156   0  48 156   0  48 156   0  48 156   0  48 156   0  48 156   0  48 156   0  48 156   0  48 156   0  48 156   0  48 156
  0  48 156   0  48 156   0  48 156   0  48 156   0  48 156   0  48 156   0  48 156   0  48 156   0  48 156   0  48 156   0  48 156   0  48 156
  0  48 156   0  48 156   0  48 156   0  48 156   0  48 156   0  48 156   0  48 156   0  48 156   0  48 156   0  48 156   0  48 156   0  48 156
  0  48 156   0  48 156   0  48 156   0  48 156   0  48 156   0  48 156   0  48 156   0  48 156   0  48 156   0  48 156   0  48 156   0  48 156
  0  48 156   0  48 156   0  48 156   0  48 156   0  48 156   0  48 156   0  48 156   0  48 156   0  48 156   0  48 156   0  48 156   0  48 156
  0  48 156   0  48 156   0  48 156   0  48 156   0  48 156   0  48 156   0  48 156   0  48 156   0  48 156   0  48 156   0  48 156   0  48 156
  0  48 156   0  48 156   0  48 156   0  48 156   0  48 156   0  48 156   0  48 156   0  48 156   0  48 156   0  48 156   0  48 156   0  48 156
  0  48 156   0  48 156   0  48 156   0  48 156   0  48 156   0  48 156   0  48 156   0  48 156 255 250 255 255 250 255 255 250 255 255 250 255
255 250 255 255 250 255 255 250 255 255 250 255 255 250 255 255 250 255 255 250 255 255 250 255 255 250 255 255 250 255 238 234 238  90  88  90
  0   0   0   0   0   0 156 152 156 255 250 255 255 250 255 255 250 255 255 250 255 255 250 255 255 250 255 255 250 255 255 250 255 255 250 255
255 250 255 255 250 255 255 250 255 255 250 255 255 250 255 255 250 255 255 250 255 255 250 255 255 250 255 255 250 255 255 250 255 255 250 255
255 250 255 255 250 255 255 250 255 255 250 255 255 250 255 255 250 255 255 250 255 255 250 255 255 250 255 255 250 255 255 250 255 255 250 255
255 250 255 255 250 255 255 250 255 255 250 255 255 250 255 255 250 255 255 250 255 255 250 255 255 250 255 255 250 255 255 250 255 255 250 255
  0  48 156   0  48 156   0  48 156   0  48 156   0  48 156   0  48 156   0  48 156   0  48 156   0  48 156   0  48 156   0  48 156   0  48 156
  0  48 156   0  48 156   0  48 156   0  48 156   0  48 156   0  48 156   0  48 156   0  48 156   0  48 156   0  48 156   0  48 156   0  48 156
  0  48 156   0  48 156   0  48 156   0  48 156   0  48 156   0  48 156   0  48 156   0  48 156   0  48 156   0  48 156   0  48 156   0  48 156
  0  48 156   0  48 156   0  48 156   0  48 156   0  48 156   0  48 156   0  48 156   0  48 156   0  48 156   0  48 156   0  48 156   0  48 156
  0  48 156   0  48 156   0  48 156   0  48 156   0  48 156   0  48 156   0  48 156   0  48 156   0  48 156   0  48 156   0  48 156   0  48 156
  0  48 156   0  48 156   0  48 156   0  48 156   0  48 156   0  48 156   0  48 156   0  48 156   0  48 156   0  48 156   0  48 156   0  48 156
  0  48 156   0  48 156   0  48 156   0  48 156   0  48 156   0  48 156   0  48 156   0  48 156   0  48 156   0  48 156   0  48 156   0  48 156
  0  48 156   0  48 156   0  48 156   0  48 156   0  48 156   0  48 156   0  48 156   0  48 156   0  48 156   0  48 156   0  48 156   0  48 156
  0  48 156   0  48 156   0  48 156   0  48 156   0  48 156   0  48 156   0  48 156   0  48 156   0  48 156   0  48 156   0  48 156   0  48 156
  0  48 156   0  48 156   0  48 156   0  48 156   0  48 156   0  48 156   0  48 156   0  48 156   0  48 156   0  48 156   0  48 156   0  48 156
  0  48 156   0  48 156   0  48 156   0  48 156   0  48 156   0  48 156   0  48 156   0  48 156   0  48 156   0  48 156   0  48 156   0  48 156
  0  48 156   0  48 156   0  48 156   0  48 156   0  48 156   0  48 156   0  48 156   0  48 156   0  48 156   0  48 156   0  48 156   0  48 156
  0  48 156   0  48 156   0  48 156   0  48 156   0  48 156   0  48 156   0  48 156   0  48 156   0  48 156   0  48 156   0  48 156   0  48 156
  0  48 156   0  48 156   0  48 156   0  48 156   0  48 156   0  48 156   0  48 156   0  48 156   0  48 156   0  48 156   0  48 156   0  48 156
  0  48 156   0  48 156   0  48 156   0  48 156   0  48 156   0  48 156   0  48 156   0  48 156   0  48 156 255 250 255 255 250 255 255 250 255
255 250 255 255 250 255 255 250 255 255 250 255 255 250 255 255 250 255 255 250 255 255 250 255 255 250 255 255 250 255 255 250 255 255 250 255
255 250 255 255 250 255 255 250 255 255 250 255 255 250 255 255 250 255 255 250 255 255 250 255 255 250 255 255 250 255 255 250 255 255 250 255
255 250 255 255 250 255 255 250 255 255 250 255 255 250 255 255 250 255 255 250 255 255 250 255 255 250 255 255 250 255 255 250 255 255 250 255
255 250 255 255 250 255 255 250 255 255 250 255 255 250 255 255 250 255 255 250 255 255 250 255 255 250 255 255 250 255 255 250 255 255 250 255
255 250 255 255 250 255 255 250 255 255 250 255 255 250 255 255 250 255 255 250 255 255 250 255 255 250 255 255 250 255 255 250 255   0  48 156
  0  48 156   0  48 156   0  48 156   0  48 156   0  48 156   0  48 156   0  48 156   0  48 156   0  48 156   0  48 156   0  48 156   0  48 156
  0  48 156   0  48 156   0  48 156   0  48 156   0  48 156   0  48 156   0  48 156   0  48 156   0  48 156   0  48 156   0  48 156   0  48 156
  0  48 156   0  48 156   0  48 156   0  48 156   0  48 156   0  48 156   0  48 156   0  48 156   0  48 156   0  48 156   0  48 156   0  48 156
  0  48 156   0  48 156   0  48 156   0  48 156   0  48 156   0  48 156   0  48 156   0  48 156   0  48 156   0  48 156   0  48 156   0  48 156
  0  48 156   0  48 156   0  48 156   0  48 156   0  48 156   0  48 156   0  48 156   0  48 156   0  48 156   0  48 156   0  48 156   0  48 156
  0  48 156   0  48 156   0  48 156   0  48 156   0  48 156   0  48 156   0  48 156   0  48 156   0  48 156   0  48 156   0  48 156   0  48 156
  0  48 156   0  48 156   0  48 156   0  48 156   0  48 156   0  48 156   0  48 156   0  48 156   0  48 156   0  48 156   0  48 156   0  48 156
  0  48 156   0  48 156   0  48 156   0  48 156   0  48 156   0  48 156   0  48 156   0  48 156   0  48 156   0  48 156   0  48 156   0  48 156
  0  48 156   0  48 156   0  48 156   0  48 156   0  48 156   0  48 156   0  48 156   0  48 156   0  48 156   0  48 156   0  48 156   0  48 156
  0  48 156   0  48 156   0  48 156   0  48 156   0  48 156   0  48 156   0  48 156   0  48 156   0  48 156   0  48 156   0  48 156   0  48 156
  0  48 156   0  48 156   0  48 156   0  48 156   0  48 156   0  48 156   0  48 156   0  48 156   0  48 156   0  48 156   0  48 156   0  48 156
  0  48 156   0  48 156   0  48 156   0  48 156   0  48 156   0  48 156   0  48 156   0  48 156   0  48 156   0  48 156   0  48 156   0  48 156
  0  48 156   0  48 156   0  48 156   0  48 156   0  48 156   0  48 156   0  48 156   0  48 156   0  48 156   0  48 156   0  48 156   0  48 156
  0  48 156   0  48 156   0  48 156   0  48 156   0  48 156   0  48 156   0  48 156   0  48 156   0  48 156   0  48 156   0  48 156   0  48 156
  0  48 156   0  48 156   0  48 156   0  48 156   0  48 156   0  48 156   0  48 156   0  48 156   0  48 156 238 234 238 255 250 255 255 250 255
255 250 255 255 250 255 255 250 255 255 250 255 255 250 255 255 250 255 255 250 255 255 250 255 255 250 255 255 250 255 255 250 255 255 250 255
255 250 255 255 250 255 255 250 255 255 250 255 255 250 255 255 250 255 255 250 255 255 250 255 255 250 255 255 250 255 255 250 255 255 250 255
255 250 255 255 250 255 255 250 255 255 250 255 255 250 255 255 250 255 255 250 255 255 250 255 255 250 255 255 250 255 255 250 255 255 250 255
255 250 255 255 250 255 255 250 255 255 250 255 255 250 255 255 250 255 255 250 255 255 250 255 255 250 255 255 250 255 255 250 255 255 250 255
255 250 255 255 250 255 255 250 255 255 250 255 255 250 255 255 250 255 255 250 255 255 250 255 255 250 255 255 250 255   0  48 156   0  48 156
  0  48 156   0  48 156   0  48 156   0  48 156   0  48 156   0  48 156   0  48 156   0  48 156   0  48 156   0  48 156   0  48 156   0  48 156
  0  48 156   0  48 156   0  48 156   0  48 156   0  48 156   0  48 156   0  48 156   0  48 156   0  48 156   0  48 156   0  48 156   0  48 156
  0  48 156   0  48 156   0  48 156   0  48 156   0  48 156   0  48 156   0  48 156   0  48 156   0  48 156   0  48 156   0  48 156   0  48 156
  0  48 156   0  48 156   0  48 156   0  48 156   0  48 156   0  48 156   0  48 156   0  48 156   0  48 156   0  48 156   0  48 156   0  48 156
  0  48 156   0  48 156   0  48 156   0  48 156   0  48 156   0  48 156   0  48 156   0  48 156   0  48 156   0  48 156   0  48 156   0  48 156
  0  48 156   0  48 156   0  48 156   0  48 156   0  48 156   0  48 156   0  48 156   0  48 156   0  48 156   0  48 156   0  48 156   0  48 156
  0  48 156   0  48 156   0  48 156   0  48 156   0  48 156   0  48 156   0  48 156   0  48 156   0  48 156   0  48 156   0  48 156   0  48 156
  0  48 156   0  48 156   0  48 156   0  48 156   0  48 156   0  48 156   0  48 156   0  48 156   0  48 156   0  48 156   0  48 156   0  48 156
  0  48 156   0  48 156   0  48 156   0  48 156   0  48 156   0  48 156   0  48 156   0  48 156   0  48 156   0  48 156   0  48 156   0  48 156
  0  48 156   0  48 156   0  48 156   0  48 156   0  48 156   0  48 156   0  48 156   0  48 156   0  48 156   0  48 156   0  48 156   0  48 156
  0  48 156   0  48 156   0  48 156   0  48 156   0  48 156   0  48 156   0  48 156   0  48 156   0  48 156   0  48 156   0  48 156   0  48 156
  0  48 156   0  48 156   0  48 156   0  48 156   0  48 156   0  48 156   0  48 156   0  48 156   0  48 156   0  48 156   0  48 156   0  48 156
  0  48 156   0  48 156   0  48 156   0  48 156   0  48 156   0  48 156   0  48 156   0  48 156   0  48 156   0  48 156   0  48 156   0  48 156
  0  48 156   0  48 156   0  48 156   0  48 156   0  48 156   0  48 156   0  48 156   0  48 156   0  48 156   0  48 156   0  48 156   0  48 156
  0  48 156   0  48 156   0  48 156   0  48 156   0  48 156   0  48 156   0  48 156   0  48 156   0  48 156   0  48 156 238 234 238 255 250 255
255 250 255 255 250 255 255 250 255 255 250 255 255 250 255 255 250 255 255 250 255 255 250 255 255 250 255 255 250 255 255 250 255 255 250 255
255 250 255 255 250 255 255 250 255 255 250 255 255 250 255 238 234 238 255 250 255 255 250 255 255 250 255 255 250 255 255 250 255 255 250 255
255 250 255 255 250 255 255 250 255 255 250 255 255 250 255 255 250 255 255 250 255 255 250 255 255 250 255 255 250 255 255 250 255 255 250 255
255 250 255 255 250 255 255 250 255 255 250 255 255 250 255 255 250 255 255 250 255 255 250 255 255 250 255 255 250 255 255 250 255 255 250 255
255 250 255 255 250 255 255 250 255 255 250 255 255 250 255 255 250 255 255 250 255 255 250 255 255 250 255   0  48 156   0  48 156   0  48 156
  0  48 156   0  48 156   0  48 156   0  48 156   0  48 156   0  48 156   0  48 156   0  48 156   0  48 156   0  48 156   0  48 156   0  48 156
  0  48 156   0  48 156   0  48 156   0  48 156   0  48 156   0  48 156   0  48 156   0  48 156   0  48 156   0  48 156   0  48 156   0  48 156
  0  48 156   0  48 156   0  48 156   0  48 156   0  48 156   0  48 156   0  48 156   0  48 156   0  48 156   0  48 156   0  48 156   0  48 156
  0  48 156   0  48 156   0  48 156   0  48 156   0  48 156   0  48 156   0  48 156   0  48 156   0  48 156   0  48 156   0  48 156   0  48 156
  0  48 156   0  48 156   0  48 156   0  48 156   0  48 156   0  48 156   0  48 156   0  48 156   0  48 156   0  48 156   0  48 156   0  48 156
  0  48 156   0  48 156   0  48 156   0  48 156   0  48 156   0  48 156   0  48 156   0  48 156   0  48 156   0  48 156   0  48 156   0  48 156
  0  48 156   0  48 156   0  48 156   0  48 156   0  48 156   0  48 156   0  48 156   0  48 156   0  48 156   0  48 156   0  48 156   0  48 156
  0  48 156   0  48 156   0  48 156   0  48 156   0  48 156   0  48 156   0  48 156   0  48 156   0  48 156   0  48 156   0  48 156   0  48 156
  0  48 156   0  48 156   0  48 156   0  48 156   0  48 156   0  48 156   0  48 156   0  48 156   0  48 156   0  48 156   0  48 156   0  48 156
  0  48 156   0  48 156   0  48 156   0  48 156   0  48 156   0  48 156   0  48 156   0  48 156   0  48 156   0  48 156   0  48 156   0  48 156
  0  48 156   0  48 156   0  48 156   0  48 156   0  48 156   0  48 156   0  48 156   0  48 156   0  48 156   0  48 156   0  48 156   0  48 156
  0  48 156   0  48 156   0  48 156   0  48 156   0  48 156   0  48 156   0  48 156   0  48 156   0  48 156   0  48 156   0  48 156   0  48 156
  0  48 156   0  48 156   0  48 156   0  48 156   0  48 156   0  48 156   0  48 156   0  48 156   0  48 156   0  48 156   0  48 156   0  48 156
  0  48 156   0  48 156   0  48 156   0  48 156   0  48 156   0  48 156   0  48 156   0  48 156   0  48 156   0  48 156   0  48 156   0  48 156
  0  48 156   0  48 156   0  48 156   0  48 156   0  48 156   0  48 156   0  48 156   0  48 156   0  48 156   0  48 156   0  48 156 238 234 238
255 250 255 255 250 255 255 250 255 255 250 255 255 250 255 255 250 255 255 250 255 255 250 255 255 250 255 255 250 255 255 250 255 255 250 255
255 250 255 255 250 255 255 250 255 255 250 255 255 250 255 255 250 255 255 250 255 255 250 255 255 250 255 255 250 255 255 250 255 255 250 255
255 250 255 255 250 255 255 250 255 255 250 255 255 250 255 255 250 255 255 250 255 255 250 255 255 250 255 255 250 255 255 250 255 255 250 255
255 250 255 255 250 255 255 250 255 255 250 255 255 250 255 255 250 255 255 250 255 255 250 255 255 250 255 255 250 255 255 250 255 255 250 255
255 250 255 255 250 255 255 250 255 255 250 255 255 250 255 255 250 255 255 250 255 255 250 255   0  48 156   0  48 156   0  48 156   0  48 156
  0  48 156   0  48 156   0  48 156   0  48 156   0  48 156   0  48 156   0  48 156   0  48 156   0  48 156   0  48 156   0  48 156   0  48 156
  0  48 156   0  48 156   0  48 156   0  48 156   0  48 156   0  48 156   0  48 156   0  48 156   0  48 156   0  48 156   0  48 156   0  48 156
  0  48 156   0  48 156   0  48 156   0  48 156   0  48 156   0  48 156   0  48 156   0  48 156   0  48 156   0  48 156   0  48 156   0  48 156
  0  48 156   0  48 156   0  48 156   0  48 156   0  48 156   0  48 156   0  48 156   0  48 156   0  48 156   0  48 156   0  48 156   0  48 156
  0  48 156   0  48 156   0  48 156   0  48 156   0  48 156   0  48 156   0  48 156   0  48 156   0  48 156   0  48 156   0  48 156   0  48 156
  0  48 156   0  48 156   0  48 156   0  48 156   0  48 156   0  48 156   0  48 156   0  48 156   0  48 156   0  48 156   0  48 156   0  48 156
  0  48 156   0  48 156   0  48 156   0  48 156   0  48 156   0  48 156   0  48 156   0  48 156   0  48 156   0  48 156   0  48 156   0  48 156
  0  48 156   0  48 156   0  48 156   0  48 156   0  48 156   0  48 156   0  48 156   0  48 156   0  48 156   0  48 156   0  48 156   0  48 156
  0  48 156   0  48 156   0  48 156   0  48 156   0  48 156   0  48 156   0  48 156   0  48 156   0  48 156   0  48 156   0  48 156   0  48 156
  0  48 156   0  48 156   0  48 156   0  48 156   0  48 156   0  48 156   0  48 156   0  48 156   0  48 156   0  48 156   0  48 156   0  48 156
  0  48 156   0  48 156   0  48 156   0  48 156   0  48 156   0  48 156   0  48 156   0  48 156   0  48 156   0  48 156   0  48 156   0  48 156
  0  48 156   0  48 156   0  48 156   0  48 156   0  48 156   0  48 156   0  48 156   0  48 156   0  48 156   0  48 156   0  48 156   0  48 156
  0  48 156   0  48 156   0  48 156   0  48 156   0  48 156   0  48 156   0  48 156   0  48 156   0  48 156   0  48 156   0  48 156   0  48 156
  0  48 156   0  48 156   0  48 156   0  48 156   0  48 156   0  48 156   0  48 156   0  48 156   0  48 156   0  48 156   0  48 156   0  48 156
  0  48 156   0  48 156   0  48 156   0  48 156   0  48 156   0  48 156   0  48 156   0  48 156   0  48 156   0  48 156   0  48 156   0  48 156
238 234 238 255 250 255 255 250 255 255 250 255 255 250 255 255 250 255 255 250 255 255 250 255 255 250 255 255 250 255 255 250 255 255 250 255
255 250 255 255 250 255 255 250 255 255 250 255 255 250 255 255 250 255 255 250 255 255 250 255 255 250 255 255 250 255 255 250 255 255 250 255
255 250 255 255 250 255 255 250 255 255 250 255 255 250 255 255 250 255 255 250 255 255 250 255 255 250 255 255 250 255 255 250 255 255 250 255
255 250 255 255 250 255 255 250 255 255 250 255 255 250 255 255 250 255 255 250 255 255 250 255 255 250 255 255 250 255 255 250 255 255 250 255
255 250 255 255 250 255 255 250 255 255 250 255 255 250 255 255 250 255 255 250 255   0  48 156   0  48 156   0  48 156   0  48 156   0  48 156
  0  48 156   0  48 156   0  48 156   0  48 156   0  48 156   0  48 156   0  48 156   0  48 156   0  48 156   0  48 156   0  48 156   0  48 156
  0  48 156   0  48 156   0  48 156   0  48 156   0  48 156   0  48 156   0  48 156   0  48 156   0  48 156   0  48 156   0  48 156   0  48 156
  0  48 156   0  48 156   0  48 156   0  48 156   0  48 156   0  48 156   0  48 156   0  48 156   0  48 156   0  48 156   0  48 156   0  48 156
  0  48 156   0  48 156   0  48 156   0  48 156   0  48 156   0  48 156   0  48 156   0  48 156   0  48 156   0  48 156   0  48 156   0  48 156
  0  48 156   0  48 156   0  48 156   0  48 156   0  48 156   0  48 156   0  48 156   0  48 156   0  48 156   0  48 156   0  48 156   0  48 156
  0  48 156   0  48 156   0  48 156   0  48 156   0  48 156   0  48 156   0  48 156   0  48 156   0  48 156   0  48 156   0  48 156   0  48 156
  0  48 156   0  48 156   0  48 156   0  48 156   0  48 156   0  48 156   0  48 156   0  48 156   0  48 156   0  48 156   0  48 156   0  48 156
  0  48 156   0  48 156   0  48 156   0  48 156   0  48 156   0  48 156   0  48 156   0  48 156   0  48 156   0  48 156   0  48 156   0  48 156
  0  48 156   0  48 156   0  48 156   0  48 156   0  48 156   0  48 156   0  48 156   0  48 156   0  48 156   0  48 156   0  48 156   0  48 156
  0  48 156   0  48 156   0  48 156   0  48 156   0  48 156   0  48 156   0  48 156   0  48 156   0  48 156   0  48 156   0  48 156   0  48 156
  0  48 156   0  48 156   0  48 156   0  48 156   0  48 156   0  48 156   0  48 156   0  48 156   0  48 156   0  48 156   0  48 156   0  48 156
  0  48 156   0  48 156   0  48 156   0  48 156   0  48 156   0  48 156   0  48 156   0  48 156   0  48 156   0  48 156   0  48 156   0  48 156
  0  48 156   0  48 156   0  48 156   0  48 156   0  48 156   0  48 156   0  48 156   0  48 156   0  48 156   0  48 156   0  48 156   0  48 156
  0  48 156   0  48 156   0  48 156   0  48 156   0  48 156   0  48 156   0  48 156   0  48 156   0  48 156   0  48 156   0  48 156   0  48 156
  0  48 156   0  48 156   0  48 156   0  48 156   0  48 156   0  48 156   0  48 156   0  48 156   0  48 156   0  48 156   0  48 156   0  48 156
  0  48 156   0  48 156 255 250 255 255 250 255 255 250 255 255 250 255 255 250 255 255 250 255 255 250 255 255 250 255 255 250 255 255 250 255
255 250 255 255 250 255 255 250 255 255 250 255 255 250 255 255 250 255 255 250 255 255 250 255 255 250 255 255 250 255 255 250 255 255 250 255
255 250 255 255 250 255 255 250 255 255 250 255 255 250 255 255 250 255 255 250 255 255 250 255 255 250 255 255 250 255 255 250 255 255 250 255
255 250 255 255 250 255 255 250 255 255 250 255 255 250 255 255 250 255 255 250 255 255 250 255 255 250 255 255 250 255 255 250 255 255 250 255
255 250 255 255 250 255 255 250 255 255 250 255 255 250 255 255 250 255   0  48 156   0  48 156   0  48 156   0  48 156   0  48 156   0  48 156
  0  48 156   0  48 156   0  48 156   0  48 156   0  48 156   0  48 156   0  48 156   0  48 156   0  48 156   0  48 156   0  48 156   0  48 156
  0  48 156   0  48 156   0  48 156   0  48 156   0  48 156   0  48 156   0  48 156   0  48 156   0  48 156   0  48 156   0  48 156   0  48 156
  0  48 156   0  48 156   0  48 156   0  48 156   0  48 156   0  48 156   0  48 156   0  48 156   0  48 156   0  48 156   0  48 156   0  48 156
  0  48 156   0  48 156   0  48 156   0  48 156   0  48 156   0  48 156   0  48 156   0  48 156   0  48 156   0  48 156   0  48 156   0  48 156
  0  48 156   0  48 156   0  48 156   0  48 156   0  48 156   0  48 156   0  48 156   0  48 156   0  48 156   0  48 156   0  48 156   0  48 156
  0  48 156   0  48 156   0  48 156   0  48 156   0  48 156   0  48 156   0  48 156   0  48 156   0  48 156   0  48 156   0  48 156   0  48 156
  0  48 156   0  48 156   0  48 156   0  48 156   0  48 156   0  48 156   0  48 156   0  48 156   0  48 156   0  48 156   0  48 156   0  48 156
  0  48 156   0  48 156   0  48 156   0  48 156   0  48 156   0  48 156   0  48 156   0  48 156   0  48 156   0  48 156   0  48 156   0  48 156
  0  48 156   0  48 156   0  48 156   0  48 156   0  48 156   0  48 156   0  48 156   0  48 156   0  48 156   0  48 156   0  48 156   0  48 156
  0  48 156   0  48 156   0  48 156   0  48 156   0  48 156   0  48 156   0  48 156   0  48 156   0  48 156   0  48 156   0  48 156   0  48 156
  0  48 156   0  48 156   0  48 156   0  48 156   0  48 156   0  48 156   0  48 156   0  48 156   0  48 156   0  48 156   0  48 156   0  48 156
  0  48 156   0  48 156   0  48 156   0  48 156   0  48 156   0  48 156   0  48 156   0  48 156   0  48 156   0  48 156   0  48 156   0  48 156
  0  48 156   0  48 156   0  48 156   0  48 156   0  48 156   0  48 156   0  48 156   0  48 156   0  48 156   0  48 156   0  48 156   0  48 156
  0  48 156   0  48 156   0  48 156   0  48 156   0  48 156   0  48 156   0  48 156   0  48 156   0  48 156   0  48 156   0  48 156   0  48 156
  0  48 156   0  48 156   0  48 156   0  48 156   0  48 156   0  48 156   0  48 156   0  48 156   0  48 156   0  48 156   0  48 156   0  48 156
  0  48 156   0  48 156   0  48 156 255 250 255 255 250 255 255 250 255 255 250 255 255 250 255 255 250 255 255 250 255 255 250 255 255 250 255
255 250 255 255 250 255 255 250 255 255 250 255 255 250 255 255 250 255 255 250 255 255 250 255 255 250 255 255 250 255 255 250 255 255 250 255
255 250 255 255 250 255 255 250 255 255 250 255 255 250 255 255 250 255 255 250 255 255 250 255 255 250 255 255 250 255 255 250 255 255 250 255
255 250 255 255 250 255 255 250 255 255 250 255 255 250 255 255 250 255 255 250 255 255 250 255 255 250 255 255 250 255 255 250 255 255 250 255
255 250 255 255 250 255 255 250 255 255 250 255 238 234 238   0  48 156   0  48 156   0  48 156   0  48 156   0  48 156   0  48 156   0  48 156
  0  48 156   0  48 156   0  48 156   0  48 156   0  48 156   0  48 156   0  48 156   0  48 156   0  48 156   0  48 156   0  48 156   0  48 156
  0  48 156   0  48 156   0  48 156   0  48 156   0  48 156   0  48 156   0  48 156   0  48 156   0  48 156   0  48 156   0  48 156   0  48 156
  0  48 156   0  48 156   0  48 156   0  48 156   0  48 156   0  48 156   0  48 156   0  48 156   0  48 156   0  48 156   0  48 156   0  48 156
  0  48 156   0  48 156   0  48 156   0  48 156   0  48 156   0  48 156   0  48 156   0  48 156   0  48 156   0  48 156   0  48 156   0  48 156
  0  48 156   0  48 156   0  48 156   0  48 156   0  48 156   0  48 156   0  48 156   0  48 156   0  48 156   0  48 156   0  48 156   0  48 156
  0  48 156   0  48 156   0  48 156   0  48 156   0  48 156   0  48 156   0  48 156   0  48 156   0  48 156   0  48 156   0  48 156   0  48 156
  0  48 156   0  48 156   0  48 156   0  48 156   0  48 156   0  48 156   0  48 156   0  48 156   0  48 156   0  48 156   0  48 156   0  48 156
  0  48 156   0  48 156   0  48 156   0  48 156   0  48 156   0  48 156   0  48 156   0  48 156   0  48 156   0  48 156   0  48 156   0  48 156
  0  48 156   0  48 156   0  48 156   0  48 156   0  48 156   0  48 156   0  48 156   0  48 156   0  48 156   0  48 156   0  48 156   0  48 156
  0  48 156   0  48 156   0  48 156   0  48 156   0  48 156   0  48 156   0  48 156   0  48 156   0  48 156   0  48 156   0  48 156   0  48 156
  0  48 156   0  48 156   0  48 156   0  48 156   0  48 156   0  48 156   0  48 156   0  48 156   0  48 156   0  48 156   0  48 156   0  48 156
  0  48 156   0  48 156   0  48 156   0  48 156   0  48 156   0  48 156   0  48 156   0  48 156   0  48 156   0  48 156   0  48 156   0  48 156
  0  48 156   0  48 156   0  48 156   0  48 156   0  48 156   0  48 156   0  48 156   0  48 156   0  48 156   0  48 156   0  48 156   0  48 156
  0  48 156   0  48 156   0  48 156   0  48 156   0  48 156   0  48 156   0  48 156   0  48 156   0  48 156   0  48 156   0  48 156   0  48 156
  0  48 156   0  48 156   0  48 156   0  48 156   0  48 156   0  48 156   0  48 156   0  48 156   0  48 156   0  48 156   0  48 156   0  48 156
  0  48 156   0  48 156   0  48 156   0  48 156 238 234 238 255 250 255 255 250 255 255 250 255 255 250 255 255 250 255 255 250 255 255 250 255
255 250 255 255 250 255 255 250 255 255 250 255 255 250 255 255 250 255 255 250 255 255 250 255 255 250 255 255 250 255 255 250 255 255 250 255
255 250 255 255 250 255 255 250 255 255 250 255 255 250 255 255 250 255 255 250 255 255 250 255 255 250 255 255 250 255 255 250 255 255 250 255
255 250 255 255 250 255 255 250 255 255 250 255 255 250 255 255 250 255 255 250 255 255 250 255 255 250 255 255 250 255 255 250 255 255 250 255
255 250 255 255 250 255 255 250 255   0  48 156   0  48 156   0  48 156   0  48 156   0  48 156   0  48 156   0  48 156   0  48 156   0  48 156
  0  48 156   0  48 156   0  48 156   0  48 156   0  48 156   0  48 156   0  48 156   0  48 156   0  48 156   0  48 156   0  48 156   0  48 156
  0  48 156   0  48 156   0  48 156   0  48 156   0  48 156   0  48 156   0  48 156   0  48 156   0  48 156   0  48 156   0  48 156   0  48 156
  0  48 156   0  48 156   0  48 156   0  48 156   0  48 156   0  48 156   0  48 156   0  48 156   0  48 156   0  48 156   0  48 156   0  48 156
  0  48 156   0  48 156   0  48 156   0  48 156   0  48 156   0  48 156   0  48 156   0  48 156   0  48 156   0  48 156   0  48 156   0  48 156
  0  48 156   0  48 156   0  48 156   0  48 156   0  48 156   0  48 156   0  48 156   0  48 156   0  48 156   0  48 156   0  48 156   0  48 156
  0  48 156   0  48 156   0  48 156   0  48 156   0  48 156   0  48 156   0  48 156   0  48 156   0  48 156   0  48 156   0  48 156   0  48 156
  0  48 156   0  48 156   0  48 156   0  48 156   0  48 156   0  48 156   0  48 156   0  48 156   0  48 156   0  48 156   0  48 156   0  48 156
  0  48 156   0  48 156   0  48 156   0  48 156   0  48 156   0  48 156   0  48 156   0  48 156   0  48 156   0  48 156   0  48 156   0  48 156
  0  48 156   0  48 156   0  48 156   0  48 156   0  48 156   0  48 156   0  48 156   0  48 156   0  48 156   0  48 156   0  48 156   0  48 156
  0  48 156   0  48 156   0  48 156   0  48 156   0  48 156   0  48 156   0  48 156   0  48 156   0  48 156   0  48 156   0  48 156   0  48 156
  0  48 156   0  48 156   0  48 156   0  48 156   0  48 156   0  48 156   0  48 156   0  48 156   0  48 156   0  48 156   0  48 156   0  48 156
  0  48 156   0  48 156   0  48 156   0  48 156   0  48 156   0  48 156   0  48 156   0  48 156   0  48 156   0  48 156   0  48 156   0  48 156
  0  48 156   0  48 156   0  48 156   0  48 156   0  48 156   0  48 156   0  48 156   0  48 156   0  48 156   0  48 156   0  48 156   0  48 156
  0  48 156   0  48 156   0  48 156   0  48 156   0  48 156   0  48 156   0  48 156   0  48 156   0  48 156   0  48 156   0  48 156   0  48 156
  0  48 156   0  48 156   0  48 156   0  48 156   0  48 156   0  48 156   0  48 156   0  48 156   0  48 156   0  48 156   0  48 156   0  48 156
  0  48 156   0  48 156   0  48 156   0  48 156   0  48 156   0  48 156 255 250 255 255 250 255 255 250 255 255 250 255 255 250 255 255 250 255
255 250 255 255 250 255 255 250 255 255 250 255 255 250 255 255 250 255 255 250 255 255 250 255 255 250 255 255 250 255 255 250 255 255 250 255
255 250 255 255 250 255 255 250 255 255 250 255 255 250 255 255 250 255 255 250 255 255 250 255 255 250 255 255 250 255 255 250 255 255 250 255
255 250 255 255 250 255 255 250 255 255 250 255 255 250 255 255 250 255 255 250 255 255 250 255 255 250 255 255 250 255 255 250 255 255 250 255
255 250 255 238 234 238   0  48 156   0  48 156   0  48 156   0  48 156   0  48 156   0  48 156   0  48 156   0  48 156   0  48 156   0  48 156
  0  48 156   0  48 156   0  48 156   0  48 156   0  48 156   0  48 156   0  48 156   0  48 156   0  48 156   0  48 156   0  48 156   0  48 156
  0  48 156   0  48 156   0  48 156   0  48 156   0  48 156   0  48 156   0  48 156   0  48 156   0  48 156   0  48 156   0  48 156   0  48 156
  0  48 156   0  48 156   0  48 156   0  48 156   0  48 156   0  48 156   0  48 156   0  48 156   0  48 156   0  48 156   0  48 156   0  48 156
  0  48 156   0  48 156   0  48 156   0  48 156   0  48 156   0  48 156   0  48 156   0  48 156   0  48 156   0  48 156   0  48 156   0  48 156
  0  48 156   0  48 156   0  48 156   0  48 156   0  48 156   0  48 156   0  48 156   0  48 156   0  48 156   0  48 156   0  48 156   0  48 156
  0  48 156   0  48 156   0  48 156   0  48 156   0  48 156   0  48 156   0  48 156   0  48 156   0  48 156   0  48 156   0  48 156   0  48 156
  0  48 156   0  48 156   0  48 156   0  48 156   0  48 156   0  48 156   0  48 156   0  48 156   0  48 156   0  48 156   0  48 156   0  48 156
  0  48 156   0  48 156   0  48 156   0  48 156   0  48 156   0  48 156   0  48 156   0  48 156   0  48 156   0  48 156   0  48 156   0  48 156
  0  48 156   0  48 156   0  48 156   0  48 156   0  48 156   0  48 156   0  48 156   0  48 156   0  48 156   0  48 156   0  48 156   0  48 156
  0  48 156   0  48 156   0  48 156   0  48 156   0  48 156   0  48 156   0  48 156   0  48 156   0  48 156   0  48 156   0  48 156   0  48 156
  0  48 156   0  48 156   0  48 156   0  48 156   0  48 156   0  48 156   0  48 156   0  48 156   0  48 156   0  48 156   0  48 156   0  48 156
  0  48 156   0  48 156   0  48 156   0  48 156   0  48 156   0  48 156   0  48 156   0  48 156   0  48 156   0  48 156   0  48 156   0  48 156
  0  48 156   0  48 156   0  48 156   0  48 156   0  48 156   0  48 156   0  48 156   0  48 156   0  48 156   0  48 156   0  48 156   0  48 156
  0  48 156   0  48 156   0  48 156   0  48 156   0  48 156   0  48 156   0  48 156   0  48 156   0  48 156   0  48 156   0  48 156   0  48 156
  0  48 156   0  48 156   0  48 156   0  48 156   0  48 156   0  48 156   0  48 156   0  48 156   0  48 156   0  48 156   0  48 156   0  48 156
  0  48 156   0  48 156   0  48 156   0  48 156   0  48 156   0  48 156   0  48 156 238 234 238 255 250 255 255 250 255 255 250 255 255 250 255
255 250 255 255 250 255 255 250 255 255 250 255 255 250 255 255 250 255 255 250 255 255 250 255 255 250 255 255 250 255 255 250 255 255 250 255
255 250 255 255 250 255 255 250 255 255 250 255 255 250 255 255 250 255 255 250 255 255 250 255 255 250 255 255 250 255 255 250 255 255 250 255
255 250 255 255 250 255 255 250 255 255 250 255 255 250 255 255 250 255 255 250 255 255 250 255 255 250 255 255 250 255 255 250 255 255 250 255
  0  48 156   0  48 156   0  48 156   0  48 156   0  48 156   0  48 156   0  48 156   0  48 156   0  48 156   0  48 156   0  48 156   0  48 156
  0  48 156   0  48 156   0  48 156   0  48 156   0  48 156   0  48 156   0  48 156   0  48 156   0  48 156   0  48 156   0  48 156   0  48 156
  0  48 156   0  48 156   0  48 156   0  48 156   0  48 156   0  48 156   0  48 156   0  48 156   0  48 156   0  48 156   0  48 156   0  48 156
  0  48 156   0  48 156   0  48 156   0  48 156   0  48 156   0  48 156   0  48 156   0  48 156   0  48 156   0  48 156   0  48 156   0  48 156
  0  48 156   0  48 156   0  48 156   0  48 156   0  48 156   0  48 156   0  48 156   0  48 156   0  48 156   0  48 156   0  48 156   0  48 156
  0  48 156   0  48 156   0  48 156   0  48 156   0  48 156   0  48 156   0  48 156   0  48 156   0  48 156   0  48 156   0  48 156   0  48 156
  0  48 156   0  48 156   0  48 156   0  48 156   0  48 156   0  48 156   0  48 156   0  48 156   0  48 156   0  48 156   0  48 156   0  48 156
  0  48 156   0  48 156   0  48 156   0  48 156   0  48 156   0  48 156   0  48 156   0  48 156   0  48 156   0  48 156   0  48 156   0  48 156
  0  48 156   0  48 156   0  48 156   0  48 156   0  48 156   0  48 156   0  48 156   0  48 156   0  48 156   0  48 156   0  48 156   0  48 156
  0  48 156   0  48 156   0  48 156   0  48 156   0  48 156   0  48 156   0  48 156   0  48 156   0  48 156   0  48 156   0  48 156   0  48 156
  0  48 156   0  48 156   0  48 156   0  48 156   0  48 156   0  48 156   0  48 156   0  48 156   0  48 156   0  48 156   0  48 156   0  48 156
  0  48 156   0  48 156   0  48 156   0  48 156   0  48 156   0  48 156   0  48 156   0  48 156   0  48 156   0  48 156   0  48 156   0  48 156
  0  48 156   0  48 156   0  48 156   0  48 156   0  48 156   0  48 156   0  48 156   0  48 156   0  48 156   0  48 156   0  48 156   0  48 156
  0  48 156   0  48 156   0  48 156   0  48 156   0  48 156   0  48 156   0  48 156   0  48 156   0  48 156   0  48 156   0  48 156   0  48 156
  0  48 156   0  48 156   0  48 156   0  48 156   0  48 156   0  48 156   0  48 156   0  48 156   0  48 156   0  48 156   0  48 156   0  48 156
  0  48 156   0  48 156   0  48 156   0  48 156   0  48 156   0  48 156   0  48 156   0  48 156   0  48 156   0  48 156   0  48 156   0  48 156
  0  48 156   0  48 156   0  48 156   0  48 156   0  48 156   0  48 156   0  48 156   0  48 156   0  48 156 238 234 238 255 250 255 255 250 255
255 250 255 255 250 255 255 250 255 255 250 255 255 250 255 255 250 255 255 250 255 255 250 255 255 250 255 255 250 255 255 250 255 255 250 255
255 250 255 255 250 255 255 250 255 255 250 255 255 250 255 255 250 255 255 250 255 255 250 255 255 250 255 255 250 255 255 250 255 255 250 255
255 250 255 255 250 255 255 250 255 255 250 255 255 250 255 255 250 255 255 250 255 255 250 255 255 250 255 255 250 255   0  48 156   0  48 156
  0  48 156   0  48 156   0  48 156   0  48 156   0  48 156   0  48 156   0  48 156   0  48 156   0  48 156   0  48 156   0  48 156   0  48 156
  0  48 156   0  48 156   0  48 156   0  48 156   0  48 156   0  48 156   0  48 156   0  48 156   0  48 156   0  48 156   0  48 156   0  48 156
  0  48 156   0  48 156   0  48 156   0  48 156   0  48 156   0  48 156   0  48 156   0  48 156   0  48 156   0  48 156   0  48 156   0  48 156
  0  48 156   0  48 156   0  48 156   0  48 156   0  48 156   0  48 156   0  48 156   0  48 156   0  48 156   0  48 156   0  48 156   0  48 156
  0  48 156   0  48 156   0  48 156   0  48 156   0  48 156   0  48 156   0  48 156   0  48 156   0  48 156   0  48 156   0  48 156   0  48 156
  0  48 156   0  48 156   0  48 156   0  48 156   0  48 156   0  48 156   0  48 156   0  48 156   0  48 156   0  48 156   0  48 156   0  48 156
  0  48 156   0  48 156   0  48 156   0  48 156   0  48 156   0  48 156   0  48 156   0  48 156   0  48 156   0  48 156   0  48 156   0  48 156
  0  48 156   0  48 156   0  48 156   0  48 156   0  48 156   0  48 156   0  48 156   0  48 156   0  48 156   0  48 156   0  48 156   0  48 156
  0  48 156   0  48 156   0  48 156   0  48 156   0  48 156   0  48 156   0  48 156   0  48 156   0  48 156   0  48 156   0  48 156   0  48 156
  0  48 156   0  48 156   0  48 156   0  48 156   0  48 156   0  48 156   0  48 156   0  48 156   0  48 156   0  48 156   0  48 156   0  48 156
  0  48 156   0  48 156   0  48 156   0  48 156   0  48 156   0  48 156   0  48 156   0  48 156   0  48 156   0  48 156   0  48 156   0  48 156
  0  48 156   0  48 156   0  48 156   0  48 156   0  48 156   0  48 156   0  48 156   0  48 156   0  48 156   0  48 156   0  48 156   0  48 156
  0  48 156   0  48 156   0  48 156   0  48 156   0  48 156   0  48 156   0  48 156   0  48 156   0  48 156   0  48 156   0  48 156   0  48 156
  0  48 156   0  48 156   0  48 156   0  48 156   0  48 156   0  48 156   0  48 156   0  48 156   0  48 156   0  48 156   0  48 156   0  48 156
  0  48 156   0  48 156   0  48 156   0  48 156   0  48 156   0  48 156   0  48 156   0  48 156   0  48 156   0  48 156   0  48 156   0  48 156
  0  48 156   0  48 156   0  48 156   0  48 156   0  48 156   0  48 156   0  48 156   0  48 156   0  48 156   0  48 156   0  48 156   0  48 156
  0  48 156   0  48 156   0  48 156   0  48 156   0  48 156   0  48 156   0  48 156   0  48 156   0  48 156   0  48 156   0  48 156   0  48 156
255 250 255 255 250 255 255 250 255 255 250 255 255 250 255 255 250 255 255 250 255 255 250 255 255 250 255 255 250 255 255 250 255 255 250 255
255 250 255 255 250 255 255 250 255 255 250 255 255 250 255 255 250 255 255 250 255 255 250 255 255 250 255 255 250 255 255 250 255 255 250 255
255 250 255 255 250 255 255 250 255 255 250 255 255 250 255 255 250 255 255 250 255 238 234 238   0  48 156   0  48 156   0  48 156   0  48 156
  0  48 156   0  48 156   0  48 156   0  48 156   0  48 156   0  48 156   0  48 156   0  48 156   0  48 156   0  48 156   0  48 156   0  48 156
  0  48 156   0  48 156   0  48 156   0  48 156   0  48 156   0  48 156   0  48 156   0  48 156   0  48 156   0  48 156   0  48 156   0  48 156
  0  48 156   0  48 156   0  48 156   0  48 156   0  48 156   0  48 156   0  48 156   0  48 156   0  48 156   0  48 156   0  48 156   0  48 156
  0  48 156   0  48 156   0  48 156   0  48 156   0  48 156   0  48 156   0  48 156   0  48 156   0  48 156   0  48 156   0  48 156   0  48 156
  0  48 156   0  48 156   0  48 156   0  48 156   0  48 156   0  48 156   0  48 156   0  48 156   0  48 156   0  48 156   0  48 156   0  48 156
  0  48 156   0  48 156   0  48 156   0  48 156   0  48 156   0  48 156   0  48 156   0  48 156   0  48 156   0  48 156   0  48 156   0  48 156
  0  48 156   0  48 156   0  48 156   0  48 156   0  48 156   0  48 156   0  48 156   0  48 156   0  48 156   0  48 156   0  48 156   0  48 156
  0  48 156   0  48 156   0  48 156   0  48 156   0  48 156   0  48 156   0  48 156   0  48 156   0  48 156   0  48 156   0  48 156   0  48 156
  0  48 156   0  48 156   0  48 156   0  48 156   0  48 156   0  48 156   0  48 156   0  48 156   0  48 156   0  48 156   0  48 156   0  48 156
  0  48 156   0  48 156   0  48 156   0  48 156   0  48 156   0  48 156   0  48 156   0  48 156   0  48 156   0  48 156   0  48 156   0  48 156
  0  48 156   0  48 156   0  48 156   0  48 156   0  48 156   0  48 156   0  48 156   0  48 156   0  48 156   0  48 156   0  48 156   0  48 156
  0  48 156   0  48 156   0  48 156   0  48 156   0  48 156   0  48 156   0  48 156   0  48 156   0  48 156   0  48 156   0  48 156   0  48 156
  0  48 156   0  48 156   0  48 156   0  48 156   0  48 156   0  48 156   0  48 156   0  48 156   0  48 156   0  48 156   0  48 156   0  48 156
  0  48 156   0  48 156   0  48 156   0  48 156   0  48 156   0  48 156   0  48 156   0  48 156   0  48 156   0  48 156   0  48 156   0  48 156
  0  48 156   0  48 156   0  48 156   0  48 156   0  48 156   0  48 156   0  48 156   0  48 156   0  48 156   0  48 156   0  48 156   0  48 156
  0  48 156   0  48 156   0  48 156   0  48 156   0  48 156   0  48 156   0  48 156   0  48 156   0  48 156   0  48 156   0  48 156   0  48 156
  0  48 156   0  48 156   0  48 156   0  48 156   0  48 156   0  48 156   0  48 156   0  48 156   0  48 156   0  48 156   0  48 156   0  48 156
  0  48 156   0  48 156 238 234 238 255 250 255 255 250 255 255 250 255 255 250 255 255 250 255 255 250 255 255 250 255 255 250 255 255 250 255
255 250 255 255 250 255 255 250 255 255 250 255 255 250 255 255 250 255 255 250 255 255 250 255 255 250 255 255 250 255 255 250 255 255 250 255
255 250 255 255 250 255 255 250 255 255 250 255 255 250 255   0  48 156   0  48 156   0  48 156   0  48 156   0  48 156   0  48 156   0  48 156
  0  48 156   0  48 156   0  48 156   0  48 156   0  48 156   0  48 156   0  48 156   0  48 156   0  48 156   0  48 156   0  48 156   0  48 156
  0  48 156   0  48 156   0  48 156   0  48 156   0  48 156   0  48 156   0  48 156   0  48 156   0  48 156   0  48 156   0  48 156   0  48 156
  0  48 156   0  48 156   0  48 156   0  48 156   0  48 156   0  48 156   0  48 156   0  48 156   0  48 156   0  48 156   0  48 156   0  48 156
  0  48 156   0  48 156   0  48 156   0  48 156   0  48 156   0  48 156   0  48 156   0  48 156   0  48 156   0  48 156   0  48 156   0  48 156
  0  48 156   0  48 156   0  48 156   0  48 156   0  48 156   0  48 156   0  48 156   0  48 156   0  48 156   0  48 156   0  48 156   0  48 156
  0  48 156   0  48 156   0  48 156   0  48 156   0  48 156   0  48 156   0  48 156   0  48 156   0  48 156   0  48 156   0  48 156   0  48 156
  0  48 156   0  48 156   0  48 156   0  48 156   0  48 156   0  48 156   0  48 156   0  48 156   0  48 156   0  48 156   0  48 156   0  48 156
  0  48 156   0  48 156   0  48 156   0  48 156   0  48 156   0  48 156   0  48 156   0  48 156   0  48 156   0  48 156   0  48 156   0  48 156
  0  48 156   0  48 156   0  48 156   0  48 156   0  48 156   0  48 156   0  48 156   0  48 156   0  48 156   0  48 156   0  48 156   0  48 156
  0  48 156   0  48 156   0  48 156   0  48 156   0  48 156   0  48 156   0  48 156   0  48 156   0  48 156   0  48 156   0  48 156   0  48 156
  0  48 156   0  48 156   0  48 156   0  48 156   0  48 156   0  48 156   0  48 156   0  48 156   0  48 156   0  48 156   0  48 156   0  48 156
  0  48 156   0  48 156   0  48 156   0  48 156   0  48 156   0  48 156   0  48 156   0  48 156   0  48 156   0  48 156   0  48 156   0  48 156
  0  48 156   0  48 156   0  48 156   0  48 156   0  48 156   0  48 156   0  48 156   0  48 156   0  48 156   0  48 156   0  48 156   0  48 156
  0  48 156   0  48 156   0  48 156   0  48 156   0  48 156   0  48 156   0  48 156   0  48 156   0  48 156   0  48 156   0  48 156   0  48 156
  0  48 156   0  48 156   0  48 156   0  48 156   0  48 156   0  48 156   0  48 156   0  48 156   0  48 156   0  48 156   0  48 156   0  48 156
  0  48 156   0  48 156   0  48 156   0  48 156   0  48 156   0  48 156   0  48 156   0  48 156   0  48 156   0  48 156   0  48 156   0  48 156
  0  48 156   0  48 156   0  48 156   0  48 156   0  48 156   0  48 156   0  48 156   0  48 156   0  48 156   0  48 156   0  48 156   0  48 156
  0  48 156   0  48 156   0  48 156   0  48 156   0  48 156   0  48 156 255 250 255 255 250 255 255 250 255 255 250 255 255 250 255 255 250 255
255 250 255 255 250 255 255 250 255 255 250 255 255 250 255 255 250 255 255 250 255 255 250 255 255 250 255 255 250 255 255 250 255 255 250 255
255 250 255 238 234 238   0  48 156   0  48 156   0  48 156   0  48 156   0  48 156   0  48 156   0  48 156   0  48 156   0  48 156   0  48 156
  0  48 156   0  48 156   0  48 156   0  48 156   0  48 156   0  48 156   0  48 156   0  48 156   0  48 156   0  48 156   0  48 156   0  48 156
  0  48 156   0  48 156   0  48 156   0  48 156   0  48 156   0  48 156   0  48 156   0  48 156   0  48 156   0  48 156   0  48 156   0  48 156
  0  48 156   0  48 156   0  48 156   0  48 156   0  48 156   0  48 156   0  48 156   0  48 156   0  48 156   0  48 156   0  48 156   0  48 156
  0  48 156   0  48 156   0  48 156   0  48 156   0  48 156   0  48 156   0  48 156   0  48 156   0  48 156   0  48 156   0  48 156   0  48 156
  0  48 156   0  48 156   0  48 156   0  48 156   0  48 156   0  48 156   0  48 156   0  48 156   0  48 156   0  48 156   0  48 156   0  48 156
  0  48 156   0  48 156   0  48 156   0  48 156   0  48 156   0  48 156   0  48 156   0  48 156   0  48 156   0  48 156   0  48 156   0  48 156
  0  48 156   0  48 156   0  48 156   0  48 156   0  48 156   0  48 156   0  48 156   0  48 156   0  48 156   0  48 156   0  48 156   0  48 156
  0  48 156   0  48 156   0  48 156   0  48 156   0  48 156   0  48 156   0  48 156   0  48 156   0  48 156   0  48 156   0  48 156   0  48 156
  0  48 156   0  48 156   0  48 156   0  48 156   0  48 156   0  48 156   0  48 156   0  48 156   0  48 156   0  48 156   0  48 156   0  48 156
  0  48 156   0  48 156   0  48 156   0  48 156   0  48 156   0  48 156   0  48 156   0  48 156   0  48 156   0  48 156   0  48 156   0  48 156
  0  48 156   0  48 156   0  48 156   0  48 156   0  48 156   0  48 156   0  48 156   0  48 156   0  48 156   0  48 156   0  48 156   0  48 156
  0  48 156   0  48 156   0  48 156   0  48 156   0  48 156   0  48 156   0  48 156   0  48 156   0  48 156   0  48 156   0  48 156   0  48 156
  0  48 156   0  48 156   0  48 156   0  48 156   0  48 156   0  48 156   0  48 156   0  48 156   0  48 156   0  48 156   0  48 156   0  48 156
  0  48 156   0  48 156   0  48 156   0  48 156   0  48 156   0  48 156   0  48 156   0  48 156   0  48 156   0  48 156   0  48 156   0  48 156
  0  48 156   0  48 156   0  48 156   0  48 156   0  48 156   0  48 156   0  48 156   0  48 156   0  48 156   0  48 156   0  48 156   0  48 156
  0  48 156   0  48 156   0  48 156   0  48 156   0  48 156   0  48 156   0  48 156   0  48 156   0  48 156   0  48 156   0  48 156   0  48 156
  0  48 156   0  48 156   0  48 156   0  48 156   0  48 156   0  48 156   0  48 156   0  48 156   0  48 156   0  48 156   0  48 156   0  48 156
  0  48 156   0  48 156   0  48 156   0  48 156   0  48 156   0  48 156   0  48 156   0  48 156   0  48 156   0  48 156   0  48 156 238 234 238
238 234 238 255 250 255 255 250 255 255 250 255 255 250 255 255 250 255 238 234 238 238 234 238   0  48 156   0  48 156   0  48 156   0  48 156
  0  48 156   0  48 156   0  48 156   0  48 156   0  48 156   0  48 156   0  48 156   0  48 156   0  48 156   0  48 156   0  48 156   0  48 156
  0  48 156   0  48 156   0  48 156   0  48 156   0  48 156   0  48 156   0  48 156   0  48 156   0  48 156   0  48 156   0  48 156   0  48 156
  0  48 156   0  48 156   0  48 156   0  48 156   0  48 156   0  48 156   0  48 156   0  48 156   0  48 156   0  48 156   0  48 156   0  48 156
  0  48 156   0  48 156   0  48 156   0  48 156   0  48 156   0  48 156   0  48 156   0  48 156   0  48 156   0  48 156   0  48 156   0  48 156
  0  48 156   0  48 156   0  48 156   0  48 156   0  48 156   0  48 156   0  48 156   0  48 156   0  48 156   0  48 156   0  48 156   0  48 156
  0  48 156   0  48 156   0  48 156   0  48 156   0  48 156   0  48 156   0  48 156   0  48 156   0  48 156   0  48 156   0  48 156   0  48 156
  0  48 156   0  48 156   0  48 156   0  48 156   0  48 156   0  48 156   0  48 156   0  48 156   0  48 156   0  48 156   0  48 156   0  48 156
  0  48 156   0  48 156   0  48 156   0  48 156   0  48 156   0  48 156   0  48 156   0  48 156   0  48 156   0  48 156   0  48 156   0  48 156
  0  48 156   0  48 156   0  48 156   0  48 156   0  48 156   0  48 156   0  48 156   0  48 156   0  48 156   0  48 156   0  48 156   0  48 156
  0  48 156   0  48 156   0  48 156   0  48 156   0  48 156   0  48 156   0  48 156   0  48 156   0  48 156   0  48 156   0  48 156   0  48 156
  0  48 156   0  48 156   0  48 156   0  48 156   0  48 156   0  48 156   0  48 156   0  48 156   0  48 156   0  48 156   0  48 156   0  48 156
  0  48 156   0  48 156   0  48 156   0  48 156   0  48 156   0  48 156   0  48 156   0  48 156   0  48 156   0  48 156   0  48 156   0  48 156
  0  48 156   0  48 156   0  48 156   0  48 156   0  48 156   0  48 156   0  48 156   0  48 156   0  48 156   0  48 156   0  48 156   0  48 156
  0  48 156   0  48 156   0  48 156   0  48 156   0  48 156   0  48 156   0  48 156   0  48 156   0  48 156   0  48 156   0  48 156   0  48 156
  0  48 156   0  48 156   0  48 156   0  48 156   0  48 156   0  48 156   0  48 156   0  48 156   0  48 156   0  48 156   0  48 156   0  48 156
  0  48 156   0  48 156   0  48 156   0  48 156   0  48 156   0  48 156   0  48 156   0  48 156   0  48 156   0  48 156   0  48 156   0  48 156
  0  48 156   0  48 156   0  48 156   0  48 156   0  48 156   0  48 156   0  48 156   0  48 156   0  48 156   0  48 156   0  48 156   0  48 156
  0  48 156   0  48 156   0  48 156   0  48 156   0  48 156   0  48 156   0  48 156   0  48 156   0  48 156   0  48 156   0  48 156   0  48 156
  0  48 156   0  48 156   0  48 156   0  48 156   0  48 156   0  48 156   0  48 156   0  48 156   0  48 156   0  48 156   0  48 156   0  48 156
  0  48 156   0  48 156   0  48 156   0  48 156   0  48 156   0  48 156   0  48 156   0  48 156   0  48 156   0  48 156   0  48 156   0  48 156
  0  48 156   0  48 156   0  48 156   0  48 156   0  48 156   0  48 156   0  48 156   0  48 156   0  48 156   0  48 156   0  48 156   0  48 156
  0  48 156   0  48 156   0  48 156   0  48 156   0  48 156   0  48 156   0  48 156   0  48 156   0  48 156   0  48 156   0  48 156   0  48 156
  0  48 156   0  48 156   0  48 156   0  48 156   0  48 156   0  48 156   0  48 156   0  48 156   0  48 156   0  48 156   0  48 156   0  48 156
  0  48 156   0  48 156   0  48 156   0  48 156   0  48 156   0  48 156   0  48 156   0  48 156   0  48 156   0  48 156   0  48 156   0  48 156
  0  48 156   0  48 156   0  48 156   0  48 156   0  48 156   0  48 156   0  48 156   0  48 156   0  48 156   0  48 156   0  48 156   0  48 156
  0  48 156   0  48 156   0  48 156   0  48 156   0  48 156   0  48 156   0  48 156   0  48 156   0  48 156   0  48 156   0  48 156   0  48 156
  0  48 156   0  48 156   0  48 156   0  48 156   0  48 156   0  48 156   0  48 156   0  48 156   0  48 156   0  48 156   0  48 156   0  48 156
  0  48 156   0  48 156   0  48 156   0  48 156   0  48 156   0  48 156   0  48 156   0  48 156   0  48 156   0  48 156   0  48 156   0  48 156
  0  48 156   0  48 156   0  48 156   0  48 156   0  48 156   0  48 156   0  48 156   0  48 156   0  48 156   0  48 156   0  48 156   0  48 156
  0  48 156   0  48 156   0  48 156   0  48 156   0  48 156   0  48 156   0  48 156   0  48 156   0  48 156   0  48 156   0  48 156   0  48 156
  0  48 156   0  48 156   0  48 156   0  48 156   0  48 156   0  48 156   0  48 156   0  48 156   0  48 156   0  48 156   0  48 156   0  48 156
  0  48 156   0  48 156   0  48 156   0  48 156   0  48 156   0  48 156   0  48 156   0  48 156   0  48 156   0  48 156   0  48 156   0  48 156
  0  48 156   0  48 156   0  48 156   0  48 156   0  48 156   0  48 156   0  48 156   0  48 156   0  48 156   0  48 156   0  48 156   0  48 156
  0  48 156   0  48 156   0  48 156   0  48 156   0  48 156   0  48 156   0  48 156   0  48 156   0  48 156   0  48 156   0  48 156   0  48 156
  0  48 156   0  48 156   0  48 156   0  48 156   0  48 156   0  48 156   0  48 156   0  48 156   0  48 156   0  48 156   0  48 156   0  48 156
  0  48 156   0  48 156   0  48 156   0  48 156   0  48 156   0  48 156   0  48 156   0  48 156   0  48 156   0  48 156   0  48 156   0  48 156
  0  48 156   0  48 156   0  48 156   0  48 156   0  48 156   0  48 156   0  48 156   0  48 156   0  48 156   0  48 156   0  48 156   0  48 156
  0  48 156   0  48 156   0  48 156   0  48 156   0  48 156   0  48 156   0  48 156   0  48 156   0  48 156   0  48 156   0  48 156   0  48 156
  0  48 156   0  48 156   0  48 156   0  48 156   0  48 156   0  48 156   0  48 156   0  48 156   0  48 156   0  48 156   0  48 156   0  48 156
  0  48 156   0  48 156   0  48 156   0  48 156   0  48 156   0  48 156   0  48 156   0  48 156   0  48 156   0  48 156   0  48 156   0  48 156
  0  48 156   0  48 156   0  48 156   0  48 156   0  48 156   0  48 156   0  48 156   0  48 156   0  48 156   0  48 156   0  48 156   0  48 156
  0  48 156   0  48 156   0  48 156   0  48 156   0  48 156   0  48 156   0  48 156   0  48 156   0  48 156   0  48 156   0  48 156   0  48 156
  0  48 156   0  48 156   0  48 156   0  48 156   0  48 156   0  48 156   0  48 156   0  48 156   0  48 156   0  48 156   0  48 156   0  48 156
  0  48 156   0  48 156   0  48 156   0  48 156   0  48 156   0  48 156   0  48 156   0  48 156   0  48 156   0  48 156   0  48 156   0  48 156
  0  48 156   0  48 156   0  48 156   0  48 156   0  48 156   0  48 156   0  48 156   0  48 156   0  48 156   0  48 156   0  48 156   0  48 156
  0  48 156   0  48 156   0  48 156   0  48 156   0  48 156   0  48 156   0  48 156   0  48 156   0  48 156   0  48 156   0  48 156   0  48 156
  0  48 156   0  48 156   0  48 156   0  48 156   0  48 156   0  48 156   0  48 156   0  48 156   0  48 156   0  48 156   0  48 156   0  48 156
  0  48 156   0  48 156   0  48 156   0  48 156   0  48 156   0  48 156   0  48 156   0  48 156   0  48 156   0  48 156   0  48 156   0  48 156
  0  48 156   0  48 156   0  48 156   0  48 156   0  48 156   0  48 156   0  48 156   0  48 156   0  48 156   0  48 156   0  48 156   0  48 156
  0  48 156   0  48 156   0  48 156   0  48 156   0  48 156   0  48 156   0  48 156   0  48 156   0  48 156   0  48 156   0  48 156   0  48 156
  0  48 156   0  48 156   0  48 156   0  48 156   0  48 156   0  48 156   0  48 156   0  48 156   0  48 156   0  48 156   0  48 156   0  48 156
  0  48 156   0  48 156   0  48 156   0  48 156   0  48 156   0  48 156   0  48 156   0  48 156   0  48 156   0  48 156   0  48 156   0  48 156
  0  48 156   0  48 156   0  48 156   0  48 156   0  48 156   0  48 156   0  48 156   0  48 156   0  48 156   0  48 156   0  48 156   0  48 156
  0  48 156   0  48 156   0  48 156   0  48 156   0  48 156   0  48 156   0  48 156   0  48 156   0  48 156   0  48 156   0  48 156   0  48 156
  0  48 156   0  48 156   0  48 156   0  48 156   0  48 156   0  48 156   0  48 156   0  48 156   0  48 156   0  48 156   0  48 156   0  48 156
  0  48 156   0  48 156   0  48 156   0  48 156   0  48 156   0  48 156   0  48 156   0  48 156   0  48 156   0  48 156   0  48 156   0  48 156
